P3
256 256
255
0 0 65279 0 0 65279 0 0 65279 0 0 65279 0 0 65279 0 0 65279 0 0 65279 0 0 65279 0 0 65279 0 0 65279 0 0 65279 0 0 65279 0 0 65279 0 0 65279 0 0 65279 0 0 65279 0 0 65279 0 0 65279 0 0 65279 0 0 65279 0 0 65279 0 0 65279 0 0 65279 0 0 65279 0 0 65279 0 0 65279 0 0 65279 0 0 65279 0 0 65279 0 0 65279 0 0 65279 0 0 65279 0 0 65279 0 0 65279 0 0 65279 0 0 65279 0 0 65279 0 0 65279 0 0 65279 0 0 65279 0 0 65279 0 0 65279 0 0 65279 0 0 65279 0 0 65279 0 0 65279 0 0 65279 0 0 65279 0 0 65279 0 0 65279 0 0 65279 0 0 65279 0 0 65279 0 0 65279 0 0 65279 0 0 65279 0 0 65279 0 0 65279 0 0 65279 0 0 65279 0 0 65279 0 0 65279 0 0 65279 0 0 65279 0 0 65279 0 0 65279 0 0 65279 0 0 65279 0 0 65279 0 0 65279 0 0 65279 0 0 65279 0 0 65279 0 0 65279 0 0 65279 0 0 65279 0 0 65279 0 0 65279 0 0 65279 0 0 65279 0 0 65279 0 0 65279 0 0 65279 0 0 65279 0 0 65279 0 0 65279 0 0 65279 0 0 65279 0 0 65279 0 0 65279 0 0 65279 0 0 65279 0 0 65279 0 0 65279 0 0 65279 0 0 65279 0 0 65279 0 0 65279 0 0 65279 0 0 65279 0 0 65279 0 0 65279 0 0 65279 0 0 65279 0 0 65279 0 0 65279 0 0 65279 0 0 65279 0 0 65279 0 0 65279 0 0 65279 0 0 65279 0 0 65279 0 0 65279 0 0 65279 0 0 65279 0 0 65279 0 0 65279 0 0 65279 0 0 65279 0 0 65279 0 0 65279 0 0 65279 0 0 65279 0 0 65279 0 0 65279 0 0 65279 0 0 65279 0 0 65279 0 0 65279 0 0 65279 0 0 65279 0 0 65279 0 0 65279 0 0 65279 0 0 65279 0 0 65279 0 0 65279 0 0 65279 0 0 65279 0 0 65279 0 0 65279 0 0 65279 0 0 65279 0 0 65279 0 0 65279 0 0 65279 0 0 65279 0 0 65279 0 0 65279 0 0 65279 0 0 65279 0 0 65279 0 0 65279 0 0 65279 0 0 65279 0 0 65279 0 0 65279 0 0 65279 0 0 65279 0 0 65279 0 0 65279 0 0 65279 0 0 65279 0 0 65279 0 0 65279 0 0 65279 0 0 65279 0 0 65279 0 0 65279 0 0 65279 0 0 65279 0 0 65279 0 0 65279 0 0 65279 0 0 65279 0 0 65279 0 0 65279 0 0 65279 0 0 65279 0 0 65279 0 0 65279 0 0 65279 0 0 65279 0 0 65279 0 0 65279 0 0 65279 0 0 65279 0 0 65279 0 0 65279 0 0 65279 0 0 65279 0 0 65279 0 0 65279 0 0 65279 0 0 65279 0 0 65279 0 0 65279 0 0 65279 0 0 65279 0 0 65279 0 0 65279 0 0 65279 0 0 65279 0 0 65279 0 0 65279 0 0 65279 0 0 65279 0 0 65279 0 0 65279 0 0 65279 0 0 65279 0 0 65279 0 0 65279 0 0 65279 0 0 65279 0 0 65279 0 0 65279 0 0 65279 0 0 65279 0 0 65279 0 0 65279 0 0 65279 0 0 65279 0 0 65279 0 0 65279 0 0 65279 0 0 65279 0 0 65279 0 0 65279 0 0 65279 0 0 65279 0 0 65279 0 0 65279 0 0 65279 0 0 65279 0 0 65279 0 0 65279 0 0 65279 0 0 65279 0 0 65279 0 0 65279 0 0 65279 0 0 65279 0 0 65279 0 0 65279 0 0 65279 0 0 65279 0 0 65279 0 0 65279 0 0 65279 0 0 65279 0 0 65279 0 0 65279 0 0 65279 0 0 65279 0 0 65279 0 0 65279 0 0 65279 0 0 65279 0 0 65279 0 0 65279 0 0 65279 0 0 65279 0 0 65279 0 0 65279 0 0 65279 0 0 65279 0 0 65279 0 0 65279 0 0 65279 0 0 65279 0 0 65279 0 0 65279 0 0 65279 0 0 65279 0 0 65279 0 0 65279 0 0 65279 0 0 65279 0 0 65279 0 0 65279 0 0 65279 0 0 65279 0 0 65279 0 0 65279 0 0 65279 0 0 65279 0 0 65279 0 0 65279 0 0 65279 0 0 65279 0 0 65279 0 0 65279 0 0 65279 0 0 65279 0 0 65279 0 0 65279 0 0 65279 0 0 65279 0 0 65279 0 0 65279 0 0 65279 0 0 65279 0 0 65279 0 0 65279 0 0 65279 0 0 65279 0 0 65279 0 0 65279 0 0 65279 0 0 65279 0 0 65279 0 0 65279 0 0 65279 0 0 65279 0 0 65279 0 0 65279 0 0 65279 0 0 65279 0 0 65279 0 0 65279 0 0 65279 0 0 65279 0 0 65279 0 0 65279 0 0 65279 0 0 65279 0 0 65279 0 0 65279 0 0 65279 0 0 65279 0 0 65279 0 0 65279 0 0 65279 0 0 65279 0 0 65279 0 0 65279 0 0 65279 0 0 65279 0 0 65279 0 0 65279 0 0 65279 0 0 65279 0 0 65279 0 0 65279 0 0 65279 0 0 65279 0 0 65279 0 0 65279 0 0 65279 0 0 65279 0 0 65279 0 0 65279 0 0 65279 0 0 65279 0 0 65279 0 0 65279 0 0 65279 0 0 65279 0 0 65279 0 0 65279 0 0 65279 0 0 65279 0 0 65279 0 0 65279 0 0 65279 0 0 65279 0 0 65279 0 0 65279 0 0 65279 0 0 65279 0 0 65279 0 0 65279 0 0 65279 0 0 65279 0 0 65279 0 0 65279 0 0 65279 0 0 65279 0 0 65279 0 0 65279 0 0 65279 0 0 65279 0 0 65279 0 0 65279 0 0 65279 0 0 65279 0 0 65279 0 0 65279 0 0 65279 0 0 65279 0 0 65279 0 0 65279 0 0 65279 0 0 65279 0 0 65279 0 0 65279 0 0 65279 0 0 65279 0 0 65279 0 0 65279 0 0 65279 0 0 65279 0 0 65279 0 0 65279 0 0 65279 0 0 65279 0 0 65279 0 0 65279 0 0 65279 0 0 65279 0 0 65279 0 0 65279 0 0 65279 0 0 65279 0 0 65279 0 0 65279 0 0 65279 0 0 65279 0 0 65279 0 0 65279 0 0 65279 0 0 65279 0 0 65279 0 0 65279 0 0 65279 0 0 65279 0 0 65279 0 0 65279 0 0 65279 0 0 65279 0 0 65279 0 0 65279 0 0 65279 0 0 65279 0 0 65279 0 0 65279 0 0 65279 0 0 65279 0 0 65279 0 0 65279 0 0 65279 0 0 65279 0 0 65279 0 0 65279 0 0 65279 0 0 65279 0 0 65279 0 0 65279 0 0 65279 0 0 65279 0 0 65279 0 0 65279 0 0 65279 0 0 65279 0 0 65279 0 0 65279 0 0 65279 0 0 65279 0 0 65279 0 0 65279 0 0 65279 0 0 65279 0 0 65279 0 0 65279 0 0 65279 0 0 65279 0 0 65279 0 0 65279 0 0 65279 0 0 65279 0 0 65279 0 0 65279 0 0 65279 0 0 65279 0 0 65279 0 0 65279 0 0 65279 0 0 65279 0 0 65279 0 0 65279 0 0 65279 0 0 65279 0 0 65279 0 0 65279 0 0 65279 0 0 65279 0 0 65279 0 0 65279 0 0 65279 0 0 65279 0 0 65279 0 0 65279 0 0 65279 0 0 65279 0 0 65279 0 0 65279 0 0 65279 0 0 65279 0 0 65279 0 0 65279 0 0 65279 0 0 65279 0 0 65279 0 0 65279 0 0 65279 0 0 65279 0 0 65279 0 0 65279 0 0 65279 0 0 65279 0 0 65279 0 0 65279 0 0 65279 0 0 65279 0 0 65279 0 0 65279 0 0 65279 0 0 65279 0 0 65279 0 0 65279 0 0 65279 0 0 65279 0 0 65279 0 0 65279 0 0 65279 0 0 65279 0 0 65279 0 0 65279 0 0 65279 0 0 65279 0 0 65279 0 0 65279 0 0 65279 0 0 65279 0 0 65279 0 0 65279 0 0 65279 0 0 65279 0 0 65279 0 0 65279 0 0 65279 0 0 65279 0 0 65279 0 0 65279 0 0 65279 0 0 65279 0 0 65279 0 0 65279 0 0 65279 0 0 65279 0 0 65279 0 0 65279 0 0 65279 0 0 65279 0 0 65279 0 0 65279 0 0 65279 0 0 65279 0 0 65279 0 0 65279 0 0 65279 0 0 65279 0 0 65279 0 0 65279 0 0 65279 0 0 65279 0 0 65279 0 0 65279 0 0 65279 0 0 65279 0 0 65279 0 0 65279 0 0 65279 0 0 65279 0 0 65279 0 0 65279 0 0 65279 0 0 65279 0 0 65279 0 0 65279 0 0 65279 0 0 65279 0 0 65279 0 0 65279 0 0 65279 0 0 65279 0 0 65279 0 0 65279 0 0 65279 0 0 65279 0 0 65279 0 0 65279 0 0 65279 0 0 65279 0 0 65279 0 0 65279 0 0 65279 0 0 65279 0 0 65279 0 0 65279 0 0 65279 0 0 65279 0 0 65279 0 0 65279 0 0 65279 0 0 65279 0 0 65279 0 0 65279 0 0 65279 0 0 65279 0 0 65279 0 0 65279 0 0 65279 0 0 65279 0 0 65279 0 0 65279 0 0 65279 0 0 65279 0 0 65279 0 0 65279 0 0 65279 0 0 65279 0 0 65279 0 0 65279 0 0 65279 0 0 65279 0 0 65279 0 0 65279 0 0 65279 0 0 65279 0 0 65279 0 0 65279 0 0 65279 0 0 65279 0 0 65279 0 0 65279 0 0 65279 0 0 65279 0 0 65279 0 0 65279 0 0 65279 0 0 65279 0 0 65279 0 0 65279 0 0 65279 0 0 65279 0 0 65279 0 0 65279 0 0 65279 0 0 65279 0 0 65279 0 0 65279 0 0 65279 0 0 65279 0 0 65279 0 0 65279 0 0 65279 0 0 65279 0 0 65279 0 0 65279 0 0 65279 0 0 65279 0 0 65279 0 0 65279 0 0 65279 0 0 65279 0 0 65279 0 0 65279 0 0 65279 0 0 65279 0 0 65279 0 0 65279 0 0 65279 0 0 65279 0 0 65279 0 0 65279 0 0 65279 0 0 65279 0 0 65279 0 0 65279 0 0 65279 0 0 65279 0 0 65279 0 0 65279 0 0 65279 0 0 65279 0 0 65279 0 0 65279 0 0 65279 0 0 65279 0 0 65279 0 0 65279 0 0 65279 0 0 65279 0 0 65279 0 0 65279 0 0 65279 0 0 65279 0 0 65279 0 0 65279 0 0 65279 0 0 65279 0 0 65279 0 0 65279 0 0 65279 0 0 65279 0 0 65279 0 0 65279 0 0 65279 0 0 65279 0 0 65279 0 0 65279 0 0 65279 0 0 65279 0 0 65279 0 0 65279 0 0 65279 0 0 65279 0 0 65279 0 0 65279 0 0 65279 0 0 65279 0 0 65279 0 0 65279 0 0 65279 0 0 65279 0 0 65279 0 0 65279 0 0 65279 0 0 65279 0 0 65279 0 0 65279 0 0 65279 0 0 65279 0 0 65279 0 0 65279 0 0 65279 0 0 65279 0 0 65279 0 0 65279 0 0 65279 0 0 65279 0 0 65279 0 0 65279 0 0 65279 0 0 65279 0 0 65279 0 0 65279 0 0 65279 0 0 65279 0 0 65279 0 0 65279 0 0 65279 0 0 65279 0 0 65279 0 0 65279 0 0 65279 0 0 65279 0 0 65279 0 0 65279 0 0 65279 0 0 65279 0 0 65279 0 0 65279 0 0 65279 0 0 65279 0 0 65279 0 0 65279 0 0 65279 0 0 65279 0 0 65279 0 0 65279 0 0 65279 0 0 65279 0 0 65279 0 0 65279 0 0 65279 0 0 65279 0 0 65279 0 0 65279 0 0 65279 0 0 65279 0 0 65279 0 0 65279 0 0 65279 0 0 65279 0 0 65279 0 0 65279 0 0 65279 0 0 65279 0 0 65279 0 0 65279 0 0 65279 0 0 65279 0 0 65279 0 0 65279 0 0 65279 0 0 65279 0 0 65279 0 0 65279 0 0 65279 0 0 65279 0 0 65279 0 0 65279 0 0 65279 0 0 65279 0 0 65279 0 0 65279 0 0 65279 0 0 65279 0 0 65279 0 0 65279 0 0 65279 0 0 65279 0 0 65279 0 0 65279 0 0 65279 0 0 65279 0 0 65279 0 0 65279 0 0 65279 0 0 65279 0 0 65279 0 0 65279 0 0 65279 0 0 65279 0 0 65279 0 0 65279 0 0 65279 0 0 65279 0 0 65279 0 0 65279 0 0 65279 0 0 65279 0 0 65279 0 0 65279 0 0 65279 0 0 65279 0 0 65279 0 0 65279 0 0 65279 0 0 65279 0 0 65279 0 0 65279 0 0 65279 0 0 65279 0 0 65279 0 0 65279 0 0 65279 0 0 65279 0 0 65279 0 0 65279 0 0 65279 0 0 65279 0 0 65279 0 0 65279 0 0 65279 0 0 65279 0 0 65279 0 0 65279 0 0 65279 0 0 65279 0 0 65279 0 0 65279 0 0 65279 0 0 65279 0 0 65279 0 0 65279 0 0 65279 0 0 65279 0 0 65279 0 0 65279 0 0 65279 0 0 65279 0 0 65279 0 0 65279 0 0 65279 0 0 65279 0 0 65279 0 0 65279 0 0 65279 0 0 65279 0 0 65279 0 0 65279 0 0 65279 0 0 65279 0 0 65279 0 0 65279 0 0 65279 0 0 65279 0 0 65279 0 0 65279 0 0 65279 0 0 65279 0 0 65279 0 0 65279 0 0 65279 0 0 65279 0 0 65279 0 0 65279 0 0 65279 0 0 65279 0 0 65279 0 0 65279 0 0 65279 0 0 65279 0 0 65279 0 0 65279 0 0 65279 0 0 65279 0 0 65279 0 0 65279 0 0 65279 0 0 65279 0 0 65279 0 0 65279 0 0 65279 0 0 65279 0 0 65279 0 0 65279 0 0 65279 0 0 65279 0 0 65279 0 0 65279 0 0 65279 0 0 65279 0 0 65279 0 0 65279 0 0 65279 0 0 65279 0 0 65279 0 0 65279 0 0 65279 0 0 65279 0 0 65279 0 0 65279 0 0 65279 0 0 65279 0 0 65279 0 0 65279 0 0 65279 0 0 65279 0 0 65279 0 0 65279 0 0 65279 0 0 65279 0 0 65279 0 0 65279 0 0 65279 0 0 65279 0 0 65279 0 0 65279 0 0 65279 0 0 65279 0 0 65279 0 0 65279 0 0 65279 0 0 65279 0 0 65279 0 0 65279 0 0 65279 0 0 65279 0 0 65279 0 0 65279 0 0 65279 0 0 65279 0 0 65279 0 0 65279 0 0 65279 0 0 65279 0 0 65279 0 0 65279 0 0 65279 0 0 65279 0 0 65279 0 0 65279 0 0 65279 0 0 65279 0 0 65279 0 0 65279 0 0 65279 0 0 65279 0 0 65279 0 0 65279 0 0 65279 0 0 65279 0 0 65279 0 0 65279 0 0 65279 0 0 65279 0 0 65279 0 0 65279 0 0 65279 0 0 65279 0 0 65279 0 0 65279 0 0 65279 0 0 65279 0 0 65279 0 0 65279 0 0 65279 0 0 65279 0 0 65279 0 0 65279 0 0 65279 0 0 65279 0 0 65279 0 0 65279 0 0 65279 0 0 65279 0 0 65279 0 0 65279 0 0 65279 0 0 65279 0 0 65279 0 0 65279 0 0 65279 0 0 65279 0 0 65279 0 0 65279 0 0 65279 0 0 65279 0 0 65279 0 0 65279 0 0 65279 0 0 65279 0 0 65279 0 0 65279 0 0 65279 0 0 65279 0 0 65279 0 0 65279 0 0 65279 0 0 65279 0 0 65279 0 0 65279 0 0 65279 0 0 65279 0 0 65279 0 0 65279 0 0 65279 0 0 65279 0 0 65279 0 0 65279 0 0 65279 0 0 65279 0 0 65279 0 0 65279 0 0 65279 0 0 65279 0 0 65279 0 0 65279 0 0 65279 0 0 65279 0 0 65279 0 0 65279 0 0 65279 0 0 65279 0 0 65279 0 0 65279 0 0 65279 0 0 65279 0 0 65279 0 0 65279 0 0 65279 0 0 65279 0 0 65279 0 0 65279 0 0 65279 0 0 65279 0 0 65279 0 0 65279 0 0 65279 0 0 65279 0 0 65279 0 0 65279 0 0 65279 0 0 65279 0 0 65279 0 0 65279 0 0 65279 0 0 65279 0 0 65279 0 0 65279 0 0 65279 0 0 65279 0 0 65279 0 0 65279 0 0 65279 0 0 65279 0 0 65279 0 0 65279 0 0 65279 0 0 65279 0 0 65279 0 0 65279 0 0 65279 0 0 65279 0 0 65279 0 0 65279 0 0 65279 0 0 65279 0 0 65279 0 0 65279 0 0 65279 0 0 65279 0 0 65279 0 0 65279 0 0 65279 0 0 65279 0 0 65279 0 0 65279 0 0 65279 0 0 65279 0 0 65279 0 0 65279 0 0 65279 0 0 65279 0 0 65279 0 0 65279 0 0 65279 0 0 65279 0 0 65279 0 0 65279 0 0 65279 0 0 65279 0 0 65279 0 0 65279 0 0 65279 0 0 65279 0 0 65279 0 0 65279 0 0 65279 0 0 65279 0 0 65279 0 0 65279 0 0 65279 0 0 65279 0 0 65279 0 0 65279 0 0 65279 0 0 65279 0 0 65279 0 0 65279 0 0 65279 0 0 65279 0 0 65279 0 0 65279 0 0 65279 0 0 65279 0 0 65279 0 0 65279 0 0 65279 0 0 65279 0 0 65279 0 0 65279 0 0 65279 0 0 65279 0 0 65279 0 0 65279 0 0 65279 0 0 65279 0 0 65279 0 0 65279 0 0 65279 0 0 65279 0 0 65279 0 0 65279 0 0 65279 0 0 65279 0 0 65279 0 0 65279 0 0 65279 0 0 65279 0 0 65279 0 0 65279 0 0 65279 0 0 65279 0 0 65279 0 0 65279 0 0 65279 0 0 65279 0 0 65279 0 0 65279 0 0 65279 0 0 65279 0 0 65279 0 0 65279 0 0 65279 0 0 65279 0 0 65279 0 0 65279 0 0 65279 0 0 65279 0 0 65279 0 0 65279 0 0 65279 0 0 65279 0 0 65279 0 0 65279 0 0 65279 0 0 65279 0 0 65279 0 0 65279 0 0 65279 0 0 65279 0 0 65279 0 0 65279 0 0 65279 0 0 65279 0 0 65279 0 0 65279 0 0 65279 0 0 65279 0 0 65279 0 0 65279 0 0 65279 0 0 65279 0 0 65279 0 0 65279 0 0 65279 0 0 65279 0 0 65279 0 0 65279 0 0 65279 0 0 65279 0 0 65279 0 0 65279 0 0 65279 0 0 65279 0 0 65279 0 0 65279 0 0 65279 0 0 65279 0 0 65279 0 0 65279 0 0 65279 0 0 65279 0 0 65279 0 0 65279 0 0 65279 0 0 65279 0 0 65279 0 0 65279 0 0 65279 0 0 65279 0 0 65279 0 0 65279 0 0 65279 0 0 65279 0 0 65279 0 0 65279 0 0 65279 0 0 65279 0 0 65279 0 0 65279 0 0 65279 0 0 65279 0 0 65279 0 0 65279 0 0 65279 0 0 65279 0 0 65279 0 0 65279 0 0 65279 0 0 65279 0 0 65279 0 0 65279 0 0 65279 0 0 65279 0 0 65279 0 0 65279 0 0 65279 0 0 65279 0 0 65279 0 0 65279 0 0 65279 0 0 65279 0 0 65279 0 0 65279 0 0 65279 0 0 65279 0 0 65279 0 0 65279 0 0 65279 0 0 65279 0 0 65279 0 0 65279 0 0 65279 0 0 65279 0 0 65279 0 0 65279 0 0 65279 0 0 65279 0 0 65279 0 0 65279 0 0 65279 0 0 65279 0 0 65279 0 0 65279 0 0 65279 0 0 65279 0 0 65279 0 0 65279 0 0 65279 0 0 65279 0 0 65279 0 0 65279 0 0 65279 0 0 65279 0 0 65279 0 0 65279 0 0 65279 0 0 65279 0 0 65279 0 0 65279 0 0 65279 0 0 65279 0 0 65279 0 0 65279 0 0 65279 0 0 65279 0 0 65279 0 0 65279 0 0 65279 0 0 65279 0 0 65279 0 0 65279 0 0 65279 0 0 65279 0 0 65279 0 0 65279 0 0 65279 0 0 65279 0 0 65279 0 0 65279 0 0 65279 0 0 65279 0 0 65279 0 0 65279 0 0 65279 0 0 65279 0 0 65279 0 0 65279 0 0 65279 0 0 65279 0 0 65279 0 0 65279 0 0 65279 0 0 65279 0 0 65279 0 0 65279 0 0 65279 0 0 65279 0 0 65279 0 0 65279 0 0 65279 0 0 65279 0 0 65279 0 0 65279 0 0 65279 0 0 65279 0 0 65279 0 0 65279 0 0 65279 0 0 65279 0 0 65279 0 0 65279 0 0 65279 0 0 65279 0 0 65279 0 0 65279 0 0 65279 0 0 65279 0 0 65279 0 0 65279 0 0 65279 0 0 65279 0 0 65279 0 0 65279 0 0 65279 0 0 65279 0 0 65279 0 0 65279 0 0 65279 0 0 65279 0 0 65279 0 0 65279 0 0 65279 0 0 65279 0 0 65279 0 0 65279 0 0 65279 0 0 65279 0 0 65279 0 0 65279 0 0 65279 0 0 65279 0 0 65279 0 0 65279 0 0 65279 0 0 65279 0 0 65279 0 0 65279 0 0 65279 0 0 65279 0 0 65279 0 0 65279 0 0 65279 0 0 65279 0 0 65279 0 0 65279 0 0 65279 0 0 65279 0 0 65279 0 0 65279 0 0 65279 0 0 65279 0 0 65279 0 0 65279 0 0 65279 0 0 65279 0 0 65279 0 0 65279 0 0 65279 0 0 65279 0 0 65279 0 0 65279 0 0 65279 0 0 65279 0 0 65279 0 0 65279 0 0 65279 0 0 65279 0 0 65279 0 0 65279 0 0 65279 0 0 65279 0 0 65279 0 0 65279 0 0 65279 0 0 65279 0 0 65279 0 0 65279 0 0 65279 0 0 65279 0 0 65279 0 0 65279 0 0 65279 0 0 65279 0 0 65279 0 0 65279 0 0 65279 0 0 65279 0 0 65279 0 0 65279 0 0 65279 0 0 65279 0 0 65279 0 0 65279 0 0 65279 0 0 65279 0 0 65279 0 0 65279 0 0 65279 0 0 65279 0 0 65279 0 0 65279 0 0 65279 0 0 65279 0 0 65279 0 0 65279 0 0 65279 0 0 65279 0 0 65279 0 0 65279 0 0 65279 0 0 65279 0 0 65279 0 0 65279 0 0 65279 0 0 65279 0 0 65279 0 0 65279 0 0 65279 0 0 65279 0 0 65279 0 0 65279 0 0 65279 0 0 65279 0 0 65279 0 0 65279 0 0 65279 0 0 65279 0 0 65279 0 0 65279 0 0 65279 0 0 65279 0 0 65279 0 0 65279 0 0 65279 0 0 65279 0 0 65279 0 0 65279 0 0 65279 0 0 65279 0 0 65279 0 0 65279 0 0 65279 0 0 65279 0 0 65279 0 0 65279 0 0 65279 0 0 65279 0 0 65279 0 0 65279 0 0 65279 0 0 65279 0 0 65279 0 0 65279 0 0 65279 0 0 65279 0 0 65279 0 0 65279 0 0 65279 0 0 65279 0 0 65279 0 0 65279 0 0 65279 0 0 65279 0 0 65279 0 0 65279 0 0 65279 0 0 65279 0 0 65279 0 0 65279 0 0 65279 0 0 65279 0 0 65279 0 0 65279 0 0 65279 0 0 65279 0 0 65279 0 0 65279 0 0 65279 0 0 65279 0 0 65279 0 0 65279 0 0 65279 0 0 65279 0 0 65279 0 0 65279 0 0 65279 0 0 65279 0 0 65279 0 0 65279 0 0 65279 0 0 65279 0 0 65279 0 0 65279 0 0 65279 0 0 65279 0 0 65279 0 0 65279 0 0 65279 0 0 65279 0 0 65279 0 0 65279 0 0 65279 0 0 65279 0 0 65279 0 0 65279 0 0 65279 0 0 65279 0 0 65279 0 0 65279 0 0 65279 0 0 65279 0 0 65279 0 0 65279 0 0 65279 0 0 65279 0 0 65279 0 0 65279 0 0 65279 0 0 65279 0 0 65279 0 0 65279 0 0 65279 0 0 65279 0 0 65279 0 0 65279 0 0 65279 0 0 65279 0 0 65279 0 0 65279 0 0 65279 0 0 65279 0 0 65279 0 0 65279 0 0 65279 0 0 65279 0 0 65279 0 0 65279 0 0 65279 0 0 65279 0 0 65279 0 0 65279 0 0 65279 0 0 65279 0 0 65279 0 0 65279 0 0 65279 0 0 65279 0 0 65279 0 0 65279 0 0 65279 0 0 65279 0 0 65279 0 0 65279 0 0 65279 0 0 65279 0 0 65279 0 0 65279 0 0 65279 0 0 65279 0 0 65279 0 0 65279 0 0 65279 0 0 65279 0 0 65279 0 0 65279 0 0 65279 0 0 65279 0 0 65279 0 0 65279 0 0 65279 0 0 65279 0 0 65279 0 0 65279 0 0 65279 0 0 65279 0 0 65279 0 0 65279 0 0 65279 0 0 65279 0 0 65279 0 0 65279 0 0 65279 0 0 65279 0 0 65279 0 0 65279 0 0 65279 0 0 65279 0 0 65279 0 0 65279 0 0 65279 0 0 65279 0 0 65279 0 0 65279 0 0 65279 0 0 65279 0 0 65279 0 0 65279 0 0 65279 0 0 65279 0 0 65279 0 0 65279 0 0 65279 0 0 65279 0 0 65279 0 0 65279 0 0 65279 0 0 65279 0 0 65279 0 0 65279 0 0 65279 0 0 65279 0 0 65279 0 0 65279 0 0 65279 0 0 65279 0 0 65279 0 0 65279 0 0 65279 0 0 65279 0 0 65279 0 0 65279 0 0 65279 0 0 65279 0 0 65279 0 0 65279 0 0 65279 0 0 65279 0 0 65279 0 0 65279 0 0 65279 0 0 65279 0 0 65279 0 0 65279 0 0 65279 0 0 65279 0 0 65279 0 0 65279 0 0 65279 0 0 65279 0 0 65279 0 0 65279 0 0 65279 0 0 65279 0 0 65279 0 0 65279 0 0 65279 0 0 65279 0 0 65279 0 0 65279 0 0 65279 0 0 65279 0 0 65279 0 0 65279 0 0 65279 0 0 65279 0 0 65279 0 0 65279 0 0 65279 0 0 65279 0 0 65279 0 0 65279 0 0 65279 0 0 65279 0 0 65279 0 0 65279 0 0 65279 0 0 65279 0 0 65279 0 0 65279 0 0 65279 0 0 65279 0 0 65279 0 0 65279 0 0 65279 0 0 65279 0 0 65279 0 0 65279 0 0 65279 0 0 65279 0 0 65279 0 0 65279 0 0 65279 0 0 65279 0 0 65279 0 0 65279 0 0 65279 0 0 65279 0 0 65279 0 0 65279 0 0 65279 0 0 65279 0 0 65279 0 0 65279 0 0 65279 0 0 65279 0 0 65279 0 0 65279 0 0 65279 0 0 65279 0 0 65279 0 0 65279 0 0 65279 0 0 65279 0 0 65279 0 0 65279 0 0 65279 0 0 65279 0 0 65279 0 0 65279 0 0 65279 0 0 65279 0 0 65279 0 0 65279 0 0 65279 0 0 65279 0 0 65279 0 0 65279 0 0 65279 0 0 65279 0 0 65279 0 0 65279 0 0 65279 0 0 65279 0 0 65279 0 0 65279 0 0 65279 0 0 65279 0 0 65279 0 0 65279 0 0 65279 0 0 65279 0 0 65279 0 0 65279 0 0 65279 0 0 65279 0 0 65279 0 0 65279 0 0 65279 0 0 65279 0 0 65279 0 0 65279 0 0 65279 0 0 65279 0 0 65279 0 0 65279 0 0 65279 0 0 65279 0 0 65279 0 0 65279 0 0 65279 0 0 65279 0 0 65279 0 0 65279 0 0 65279 0 0 65279 0 0 65279 0 0 65279 0 0 65279 0 0 65279 0 0 65279 0 0 65279 0 0 65279 0 0 65279 0 0 65279 0 0 65279 0 0 65279 0 0 65279 0 0 65279 0 0 65279 0 0 65279 0 0 65279 0 0 65279 0 0 65279 0 0 65279 0 0 65279 0 0 65279 0 0 65279 0 0 65279 0 0 65279 0 0 65279 0 0 65279 0 0 65279 0 0 65279 0 0 65279 0 0 65279 0 0 65279 0 0 65279 0 0 65279 0 0 65279 0 0 65279 0 0 65279 0 0 65279 0 0 65279 0 0 65279 0 0 65279 0 0 65279 0 0 65279 0 0 65279 0 0 65279 0 0 65279 0 0 65279 0 0 65279 0 0 65279 0 0 65279 0 0 65279 0 0 65279 0 0 65279 0 0 65279 0 0 65279 0 0 65279 0 0 65279 0 0 65279 0 0 65279 0 0 65279 0 0 65279 0 0 65279 0 0 65279 0 0 65279 0 0 65279 0 0 65279 0 0 65279 0 0 65279 0 0 65279 0 0 65279 0 0 65279 0 0 65279 0 0 65279 0 0 65279 0 0 65279 0 0 65279 0 0 65279 0 0 65279 0 0 65279 0 0 65279 0 0 65279 0 0 65279 0 0 65279 0 0 65279 0 0 65279 0 0 65279 0 0 65279 0 0 65279 0 0 65279 0 0 65279 0 0 65279 0 0 65279 0 0 65279 0 0 65279 0 0 65279 0 0 65279 0 0 65279 0 0 65279 0 0 65279 0 0 65279 0 0 65279 0 0 65279 0 0 65279 0 0 65279 0 0 65279 0 0 65279 0 0 65279 0 0 65279 0 0 65279 0 0 65279 0 0 65279 0 0 65279 0 0 65279 0 0 65279 0 0 65279 0 0 65279 0 0 65279 0 0 65279 0 0 65279 0 0 65279 0 0 65279 0 0 65279 0 0 65279 0 0 65279 0 0 65279 0 0 65279 0 0 65279 0 0 65279 0 0 65279 0 0 65279 0 0 65279 0 0 65279 0 0 65279 0 0 65279 0 0 65279 0 0 65279 0 0 65279 0 0 65279 0 0 65279 0 0 65279 0 0 65279 0 0 65279 0 0 65279 0 0 65279 0 0 65279 0 0 65279 0 0 65279 0 0 65279 0 0 65279 0 0 65279 0 0 65279 0 0 65279 0 0 65279 0 0 65279 0 0 65279 0 0 65279 0 0 65279 0 0 65279 0 0 65279 0 0 65279 0 0 65279 0 0 65279 0 0 65279 0 0 65279 0 0 65279 0 0 65279 0 0 65279 0 0 65279 0 0 65279 0 0 65279 0 0 65279 0 0 65279 0 0 65279 0 0 65279 0 0 65279 0 0 65279 0 0 65279 0 0 65279 0 0 65279 0 0 65279 0 0 65279 0 0 65279 0 0 65279 0 0 65279 0 0 65279 0 0 65279 0 0 65279 0 0 65279 0 0 65279 0 0 65279 0 0 65279 0 0 65279 0 0 65279 0 0 65279 0 0 65279 0 0 65279 0 0 65279 0 0 65279 0 0 65279 0 0 65279 0 0 65279 0 0 65279 0 0 65279 0 0 65279 0 0 65279 0 0 65279 0 0 65279 0 0 65279 0 0 65279 0 0 65279 0 0 65279 0 0 65279 0 0 65279 0 0 65279 0 0 65279 0 0 65279 0 0 65279 0 0 65279 0 0 65279 0 0 65279 0 0 65279 0 0 65279 0 0 65279 0 0 65279 0 0 65279 0 0 65279 0 0 65279 0 0 65279 0 0 65279 0 0 65279 0 0 65279 0 0 65279 0 0 65279 0 0 65279 0 0 65279 0 0 65279 0 0 65279 0 0 65279 0 0 65279 0 0 65279 0 0 65279 0 0 65279 0 0 65279 0 0 65279 0 0 65279 0 0 65279 0 0 65279 0 0 65279 0 0 65279 0 0 65279 0 0 65279 0 0 65279 0 0 65279 0 0 65279 0 0 65279 0 0 65279 0 0 65279 0 0 65279 0 0 65279 0 0 65279 0 0 65279 0 0 65279 0 0 65279 0 0 65279 0 0 65279 0 0 65279 0 0 65279 0 0 65279 0 0 65279 0 0 65279 0 0 65279 0 0 65279 0 0 65279 0 0 65279 0 0 65279 0 0 65279 0 0 65279 0 0 65279 0 0 65279 0 0 65279 0 0 65279 0 0 65279 0 0 65279 0 0 65279 0 0 65279 0 0 65279 0 0 65279 0 0 65279 0 0 65279 0 0 65279 0 0 65279 0 0 65279 0 0 65279 0 0 65279 0 0 65279 0 0 65279 0 0 65279 0 0 65279 0 0 65279 0 0 65279 0 0 65279 0 0 65279 0 0 65279 0 0 65279 0 0 65279 0 0 65279 0 0 65279 0 0 65279 0 0 65279 0 0 65279 0 0 65279 0 0 65279 0 0 65279 0 0 65279 0 0 65279 0 0 65279 0 0 65279 0 0 65279 0 0 65279 0 0 65279 0 0 65279 0 0 65279 0 0 65279 0 0 65279 0 0 65279 0 0 65279 0 0 65279 0 0 65279 0 0 65279 0 0 65279 0 0 65279 0 0 65279 0 0 65279 0 0 65279 0 0 65279 0 0 65279 0 0 65279 0 0 65279 0 0 65279 0 0 65279 0 0 65279 0 0 65279 0 0 65279 0 0 65279 0 0 65279 0 0 65279 0 0 65279 0 0 65279 0 0 65279 0 0 65279 0 0 65279 0 0 65279 0 0 65279 0 0 65279 0 0 65279 0 0 65279 0 0 65279 0 0 65279 0 0 65279 0 0 65279 0 0 65279 0 0 65279 0 0 65279 0 0 65279 0 0 65279 0 0 65279 0 0 65279 0 0 65279 0 0 65279 0 0 65279 0 0 65279 0 0 65279 0 0 65279 0 0 65279 0 0 65279 0 0 65279 0 0 65279 0 0 65279 0 0 65279 0 0 65279 0 0 65279 0 0 65279 0 0 65279 0 0 65279 0 0 65279 0 0 65279 0 0 65279 0 0 65279 0 0 65279 0 0 65279 0 0 65279 0 0 65279 0 0 65279 0 0 65279 0 0 65279 0 0 65279 0 0 65279 0 0 65279 0 0 65279 0 0 65279 0 0 65279 0 0 65279 0 0 65279 0 0 65279 0 0 65279 0 0 65279 0 0 65279 0 0 65279 0 0 65279 0 0 65279 0 0 65279 0 0 65279 0 0 65279 0 0 65279 0 0 65279 0 0 65279 0 0 65279 0 0 65279 0 0 65279 0 0 65279 0 0 65279 0 0 65279 0 0 65279 0 0 65279 0 0 65279 0 0 65279 0 0 65279 0 0 65279 0 0 65279 0 0 65279 0 0 65279 0 0 65279 0 0 65279 0 0 65279 0 0 65279 0 0 65279 0 0 65279 0 0 65279 0 0 65279 0 0 65279 0 0 65279 0 0 65279 0 0 65279 0 0 65279 0 0 65279 0 0 65279 0 0 65279 0 0 65279 0 0 65279 0 0 65279 0 0 65279 0 0 65279 0 0 65279 0 0 65279 0 0 65279 0 0 65279 0 0 65279 0 0 65279 0 0 65279 0 0 65279 0 0 65279 0 0 65279 0 0 65279 0 0 65279 0 0 65279 0 0 65279 0 0 65279 0 0 65279 0 0 65279 0 0 65279 0 0 65279 0 0 65279 0 0 65279 0 0 65279 0 0 65279 0 0 65279 0 0 65279 0 0 65279 0 0 65279 0 0 65279 0 0 65279 0 0 65279 0 0 65279 0 0 65279 0 0 65279 0 0 65279 0 0 65279 0 0 65279 0 0 65279 0 0 65279 0 0 65279 0 0 65279 0 0 65279 0 0 65279 0 0 65279 0 0 65279 0 0 65279 0 0 65279 0 0 65279 0 0 65279 0 0 65279 0 0 65279 0 0 65279 0 0 65279 0 0 65279 0 0 65279 0 0 65279 0 0 65279 0 0 65279 0 0 65279 0 0 65279 0 0 65279 0 0 65279 0 0 65279 0 0 65279 0 0 65279 0 0 65279 0 0 65279 0 0 65279 0 0 65279 0 0 65279 0 0 65279 0 0 65279 0 0 65279 0 0 65279 0 0 65279 0 0 65279 0 0 65279 0 0 65279 0 0 65279 0 0 65279 0 0 65279 0 0 65279 0 0 65279 0 0 65279 0 0 65279 0 0 65279 0 0 65279 0 0 65279 0 0 65279 0 0 65279 0 0 65279 0 0 65279 0 0 65279 0 0 65279 0 0 65279 0 0 65279 0 0 65279 0 0 65279 0 0 65279 0 0 65279 0 0 65279 0 0 65279 0 0 65279 0 0 65279 0 0 65279 0 0 65279 0 0 65279 0 0 65279 0 0 65279 0 0 65279 0 0 65279 0 0 65279 0 0 65279 0 0 65279 0 0 65279 0 0 65279 0 0 65279 0 0 65279 0 0 65279 0 0 65279 0 0 65279 0 0 65279 0 0 65279 0 0 65279 0 0 65279 0 0 65279 0 0 65279 0 0 65279 0 0 65279 0 0 65279 0 0 65279 0 0 65279 0 0 65279 0 0 65279 0 0 65279 0 0 65279 0 0 65279 0 0 65279 0 0 65279 0 0 65279 0 0 65279 0 0 65279 0 0 65279 0 0 65279 0 0 65279 0 0 65279 0 0 65279 0 0 65279 0 0 65279 0 0 65279 0 0 65279 0 0 65279 0 0 65279 0 0 65279 0 0 65279 0 0 65279 0 0 65279 0 0 65279 0 0 65279 0 0 65279 0 0 65279 0 0 65279 0 0 65279 0 0 65279 0 0 65279 0 0 65279 0 0 65279 0 0 65279 0 0 65279 0 0 65279 0 0 65279 0 0 65279 0 0 65279 0 0 65279 0 0 65279 0 0 65279 0 0 65279 0 0 65279 0 0 65279 0 0 65279 0 0 65279 0 0 65279 0 0 65279 0 0 65279 0 0 65279 0 0 65279 0 0 65279 0 0 65279 0 0 65279 0 0 65279 0 0 65279 0 0 65279 0 0 65279 0 0 65279 0 0 65279 0 0 65279 0 0 65279 0 0 65279 0 0 65279 0 0 65279 0 0 65279 0 0 65279 0 0 65279 0 0 65279 0 0 65279 0 0 65279 0 0 65279 0 0 65279 0 0 65279 0 0 65279 0 0 65279 0 0 65279 0 0 65279 0 0 65279 0 0 65279 0 0 65279 0 0 65279 0 0 65279 0 0 65279 0 0 65279 0 0 65279 0 0 65279 0 0 65279 0 0 65279 0 0 65279 0 0 65279 0 0 65279 0 0 65279 0 0 65279 0 0 65279 0 0 65279 0 0 65279 0 0 65279 0 0 65279 0 0 65279 0 0 65279 0 0 65279 0 0 65279 0 0 65279 0 0 65279 0 0 65279 0 0 65279 0 0 65279 0 0 65279 0 0 65279 0 0 65279 0 0 65279 0 0 65279 0 0 65279 0 0 65279 0 0 65279 0 0 65279 0 0 65279 0 0 65279 0 0 65279 0 0 65279 0 0 65279 0 0 65279 0 0 65279 0 0 65279 0 0 65279 0 0 65279 0 0 65279 0 0 65279 0 0 65279 0 0 65279 0 0 65279 0 0 65279 0 0 65279 0 0 65279 0 0 65279 0 0 65279 0 0 65279 0 0 65279 0 0 65279 0 0 65279 0 0 65279 0 0 65279 0 0 65279 0 0 65279 0 0 65279 0 0 65279 0 0 65279 0 0 65279 0 0 65279 0 0 65279 0 0 65279 0 0 65279 0 0 65279 0 0 65279 0 0 65279 0 0 65279 0 0 65279 0 0 65279 0 0 65279 0 0 65279 0 0 65279 0 0 65279 0 0 65279 0 0 65279 0 0 65279 0 0 65279 0 0 65279 0 0 65279 0 0 65279 0 0 65279 0 0 65279 0 0 65279 0 0 65279 0 0 65279 0 0 65279 0 0 65279 0 0 65279 0 0 65279 0 0 65279 0 0 65279 0 0 65279 0 0 65279 0 0 65279 0 0 65279 0 0 65279 0 0 65279 0 0 65279 0 0 65279 0 0 65279 0 0 65279 0 0 65279 0 0 65279 0 0 65279 0 0 65279 0 0 65279 0 0 65279 0 0 65279 0 0 65279 0 0 65279 0 0 65279 0 0 65279 0 0 65279 0 0 65279 0 0 65279 0 0 65279 0 0 65279 0 0 65279 0 0 65279 0 0 65279 0 0 65279 0 0 65279 0 0 65279 0 0 65279 0 0 65279 0 0 65279 0 0 65279 0 0 65279 0 0 65279 0 0 65279 0 0 65279 0 0 65279 0 0 65279 0 0 65279 0 0 65279 0 0 65279 0 0 65279 0 0 65279 0 0 65279 0 0 65279 0 0 65279 0 0 65279 0 0 65279 0 0 65279 0 0 65279 0 0 65279 0 0 65279 0 0 65279 0 0 65279 0 0 65279 0 0 65279 0 0 65279 0 0 65279 0 0 65279 0 0 65279 0 0 65279 0 0 65279 0 0 65279 0 0 65279 0 0 65279 0 0 65279 0 0 65279 0 0 65279 0 0 65279 0 0 65279 0 0 65279 0 0 65279 0 0 65279 0 0 65279 0 0 65279 0 0 65279 0 0 65279 0 0 65279 0 0 65279 0 0 65279 0 0 65279 0 0 65279 0 0 65279 0 0 65279 0 0 65279 0 0 65279 0 0 65279 0 0 65279 0 0 65279 0 0 65279 0 0 65279 0 0 65279 0 0 65279 0 0 65279 0 0 65279 0 0 65279 0 0 65279 0 0 65279 0 0 65279 0 0 65279 0 0 65279 0 0 65279 0 0 65279 0 0 65279 0 0 65279 0 0 65279 0 0 65279 0 0 65279 0 0 65279 0 0 65279 0 0 65279 0 0 65279 0 0 65279 0 0 65279 0 0 65279 0 0 65279 0 0 65279 0 0 65279 0 0 65279 0 0 65279 0 0 65279 0 0 65279 0 0 65279 0 0 65279 0 0 65279 0 0 65279 0 0 65279 0 0 65279 0 0 65279 0 0 65279 0 0 65279 0 0 65279 0 0 65279 0 0 65279 0 0 65279 0 0 65279 0 0 65279 0 0 65279 0 0 65279 0 0 65279 0 0 65279 0 0 65279 0 0 65279 0 0 65279 0 0 65279 0 0 65279 0 0 65279 0 0 65279 0 0 65279 0 0 65279 0 0 65279 0 0 65279 0 0 65279 0 0 65279 0 0 65279 0 0 65279 0 0 65279 0 0 65279 0 0 65279 0 0 65279 0 0 65279 0 0 65279 0 0 65279 0 0 65279 0 0 65279 0 0 65279 0 0 65279 0 0 65279 0 0 65279 0 0 65279 0 0 65279 0 0 65279 0 0 65279 0 0 65279 0 0 65279 0 0 65279 0 0 65279 0 0 65279 0 0 65279 0 0 65279 0 0 65279 0 0 65279 0 0 65279 0 0 65279 0 0 65279 0 0 65279 0 0 65279 0 0 65279 0 0 65279 0 0 65279 0 0 65279 0 0 65279 0 0 65279 0 0 65279 0 0 65279 0 0 65279 0 0 65279 0 0 65279 0 0 65279 0 0 65279 0 0 65279 0 0 65279 0 0 65279 0 0 65279 0 0 65279 0 0 65279 0 0 65279 0 0 65279 0 0 65279 0 0 65279 0 0 65279 0 0 65279 0 0 65279 0 0 65279 0 0 65279 0 0 65279 0 0 65279 0 0 65279 0 0 65279 0 0 65279 0 0 65279 0 0 65279 0 0 65279 0 0 65279 0 0 65279 0 0 65279 0 0 65279 0 0 65279 0 0 65279 0 0 65279 0 0 65279 0 0 65279 0 0 65279 0 0 65279 0 0 65279 0 0 65279 0 0 65279 0 0 65279 0 0 65279 0 0 65279 0 0 65279 0 0 65279 0 0 65279 0 0 65279 0 0 65279 0 0 65279 0 0 65279 0 0 65279 0 0 65279 0 0 65279 0 0 65279 0 0 65279 0 0 65279 0 0 65279 0 0 65279 0 0 65279 0 0 65279 0 0 65279 0 0 65279 0 0 65279 0 0 65279 0 0 65279 0 0 65279 0 0 65279 0 0 65279 0 0 65279 0 0 65279 0 0 65279 0 0 65279 0 0 65279 0 0 65279 0 0 65279 0 0 65279 0 0 65279 0 0 65279 0 0 65279 0 0 65279 0 0 65279 0 0 65279 0 0 65279 0 0 65279 0 0 65279 0 0 65279 0 0 65279 0 0 65279 0 0 65279 0 0 65279 0 0 65279 0 0 65279 0 0 65279 0 0 65279 0 0 65279 0 0 65279 0 0 65279 0 0 65279 0 0 65279 0 0 65279 0 0 65279 0 0 65279 0 0 65279 0 0 65279 0 0 65279 0 0 65279 0 0 65279 0 0 65279 0 0 65279 0 0 65279 0 0 65279 0 0 65279 0 0 65279 0 0 65279 0 0 65279 0 0 65279 0 0 65279 0 0 65279 0 0 65279 0 0 65279 0 0 65279 0 0 65279 0 0 65279 0 0 65279 0 0 65279 0 0 65279 0 0 65279 0 0 65279 0 0 65279 0 0 65279 0 0 65279 0 0 65279 0 0 65279 0 0 65279 0 0 65279 0 0 65279 0 0 65279 0 0 65279 0 0 65279 0 0 65279 0 0 65279 0 0 65279 0 0 65279 0 0 65279 0 0 65279 0 0 65279 0 0 65279 0 0 65279 0 0 65279 0 0 65279 0 0 65279 0 0 65279 0 0 65279 0 0 65279 0 0 65279 0 0 65279 0 0 65279 0 0 65279 0 0 65279 0 0 65279 0 0 65279 0 0 65279 0 0 65279 0 0 65279 0 0 65279 0 0 65279 0 0 65279 0 0 65279 0 0 65279 0 0 65279 0 0 65279 0 0 65279 0 0 65279 0 0 65279 0 0 65279 0 0 65279 0 0 65279 0 0 65279 0 0 65279 0 0 65279 0 0 65279 0 0 65279 0 0 65279 0 0 65279 0 0 65279 0 0 65279 0 0 65279 0 0 65279 0 0 65279 0 0 65279 0 0 65279 0 0 65279 0 0 65279 0 0 65279 0 0 65279 0 0 65279 0 0 65279 0 0 65279 0 0 65279 0 0 65279 0 0 65279 0 0 65279 0 0 65279 0 0 65279 0 0 65279 0 0 65279 0 0 65279 0 0 65279 0 0 65279 0 0 65279 0 0 65279 0 0 65279 0 0 65279 0 0 65279 0 0 65279 0 0 65279 0 0 65279 0 0 65279 0 0 65279 0 0 65279 0 0 65279 0 0 65279 0 0 65279 0 0 65279 0 0 65279 0 0 65279 0 0 65279 0 0 65279 0 0 65279 0 0 65279 0 0 65279 0 0 65279 0 0 65279 0 0 65279 0 0 65279 0 0 65279 0 0 65279 0 0 65279 0 0 65279 0 0 65279 0 0 65279 0 0 65279 0 0 65279 0 0 65279 0 0 65279 0 0 65279 0 0 65279 0 0 65279 0 0 65279 0 0 65279 0 0 65279 0 0 65279 0 0 65279 0 0 65279 0 0 65279 0 0 65279 0 0 65279 0 0 65279 0 0 65279 0 0 65279 0 0 65279 0 0 65279 0 0 65279 0 0 65279 0 0 65279 0 0 65279 0 0 65279 0 0 65279 0 0 65279 0 0 65279 0 0 65279 0 0 65279 0 0 65279 0 0 65279 0 0 65279 0 0 65279 0 0 65279 0 0 65279 0 0 65279 0 0 65279 0 0 65279 0 0 65279 0 0 65279 0 0 65279 0 0 65279 0 0 65279 0 0 65279 0 0 65279 0 0 65279 0 0 65279 0 0 65279 0 0 65279 0 0 65279 0 0 65279 0 0 65279 0 0 65279 0 0 65279 0 0 65279 0 0 65279 0 0 65279 0 0 65279 0 0 65279 0 0 65279 0 0 65279 0 0 65279 0 0 65279 0 0 65279 0 0 65279 0 0 65279 0 0 65279 0 0 65279 0 0 65279 0 0 65279 0 0 65279 0 0 65279 0 0 65279 0 0 65279 0 0 65279 0 0 65279 0 0 65279 0 0 65279 0 0 65279 0 0 65279 0 0 65279 0 0 65279 0 0 65279 0 0 65279 0 0 65279 0 0 65279 0 0 65279 0 0 65279 0 0 65279 0 0 65279 0 0 65279 0 0 65279 0 0 65279 0 0 65279 0 0 65279 0 0 65279 0 0 65279 0 0 65279 0 0 65279 0 0 65279 0 0 65279 0 0 65279 0 0 65279 0 0 65279 0 0 65279 0 0 65279 0 0 65279 0 0 65279 0 0 65279 0 0 65279 0 0 65279 0 0 65279 0 0 65279 0 0 65279 0 0 65279 0 0 65279 0 0 65279 0 0 65279 0 0 65279 0 0 65279 0 0 65279 0 0 65279 0 0 65279 0 0 65279 0 0 65279 0 0 65279 0 0 65279 0 0 65279 0 0 65279 0 0 65279 0 0 65279 0 0 65279 0 0 65279 0 0 65279 0 0 65279 0 0 65279 0 0 65279 0 0 65279 0 0 65279 0 0 65279 0 0 65279 0 0 65279 0 0 65279 0 0 65279 0 0 65279 0 0 65279 0 0 65279 0 0 65279 0 0 65279 0 0 65279 0 0 65279 0 0 65279 0 0 65279 0 0 65279 0 0 65279 0 0 65279 0 0 65279 0 0 65279 0 0 65279 0 0 65279 0 0 65279 0 0 65279 0 0 65279 0 0 65279 0 0 65279 0 0 65279 0 0 65279 0 0 65279 0 0 65279 0 0 65279 0 0 65279 0 0 65279 0 0 65279 0 0 65279 0 0 65279 0 0 65279 0 0 65279 0 0 65279 0 0 65279 0 0 65279 0 0 65279 0 0 65279 0 0 65279 0 0 65279 0 0 65279 0 0 65279 0 0 65279 0 0 65279 0 0 65279 0 0 65279 0 0 65279 0 0 65279 0 0 65279 0 0 65279 0 0 65279 0 0 65279 0 0 65279 0 0 65279 0 0 65279 0 0 65279 0 0 65279 0 0 65279 0 0 65279 0 0 65279 0 0 65279 0 0 65279 0 0 65279 0 0 65279 0 0 65279 0 0 65279 0 0 65279 0 0 65279 0 0 65279 0 0 65279 0 0 65279 0 0 65279 0 0 65279 0 0 65279 0 0 65279 0 0 65279 0 0 65279 0 0 65279 0 0 65279 0 0 65279 0 0 65279 0 0 65279 0 0 65279 0 0 65279 0 0 65279 0 0 65279 0 0 65279 0 0 65279 0 0 65279 0 0 65279 0 0 65279 0 0 65279 0 0 65279 0 0 65279 0 0 65279 0 0 65279 0 0 65279 0 0 65279 0 0 65279 0 0 65279 0 0 65279 0 0 65279 0 0 65279 0 0 65279 0 0 65279 0 0 65279 0 0 65279 0 0 65279 0 0 65279 0 0 65279 0 0 65279 0 0 65279 0 0 65279 0 0 65279 0 0 65279 0 0 65279 0 0 65279 0 0 65279 0 0 65279 0 0 65279 0 0 65279 0 0 65279 0 0 65279 0 0 65279 0 0 65279 0 0 65279 0 0 65279 0 0 65279 0 0 65279 0 0 65279 0 0 65279 0 0 65279 0 0 65279 0 0 65279 0 0 65279 0 0 65279 0 0 65279 0 0 65279 0 0 65279 0 0 65279 0 0 65279 0 0 65279 0 0 65279 0 0 65279 0 0 65279 0 0 65279 0 0 65279 0 0 65279 0 0 65279 0 0 65279 0 0 65279 0 0 65279 0 0 65279 0 0 65279 0 0 65279 0 0 65279 0 0 65279 0 0 65279 0 0 65279 0 0 65279 0 0 65279 0 0 65279 0 0 65279 0 0 65279 0 0 65279 0 0 65279 0 0 65279 0 0 65279 0 0 65279 0 0 65279 0 0 65279 0 0 65279 0 0 65279 0 0 65279 0 0 65279 0 0 65279 0 0 65279 0 0 65279 0 0 65279 0 0 65279 0 0 65279 0 0 65279 0 0 65279 0 0 65279 0 0 65279 0 0 65279 0 0 65279 0 0 65279 0 0 65279 0 0 65279 0 0 65279 0 0 65279 0 0 65279 0 0 65279 0 0 65279 0 0 65279 0 0 65279 0 0 65279 0 0 65279 0 0 65279 0 0 65279 0 0 65279 0 0 65279 0 0 65279 0 0 65279 0 0 65279 0 0 65279 0 0 65279 0 0 65279 0 0 65279 0 0 65279 0 0 65279 0 0 65279 0 0 65279 0 0 65279 0 0 65279 0 0 65279 0 0 65279 0 0 65279 0 0 65279 0 0 65279 0 0 65279 0 0 65279 0 0 65279 0 0 65279 0 0 65279 0 0 65279 0 0 65279 0 0 65279 0 0 65279 0 0 65279 0 0 65279 0 0 65279 0 0 65279 0 0 65279 0 0 65279 0 0 65279 0 0 65279 0 0 65279 0 0 65279 0 0 65279 0 0 65279 0 0 65279 0 0 65279 0 0 65279 0 0 65279 0 0 65279 0 0 65279 0 0 65279 0 0 65279 0 0 65279 0 0 65279 0 0 65279 0 0 65279 0 0 65279 0 0 65279 0 0 65279 0 0 65279 0 0 65279 0 0 65279 0 0 65279 0 0 65279 0 0 65279 0 0 65279 0 0 65279 0 0 65279 0 0 65279 0 0 65279 0 0 65279 0 0 65279 0 0 65279 0 0 65279 0 0 65279 0 0 65279 0 0 65279 0 0 65279 0 0 65279 0 0 65279 0 0 65279 0 0 65279 0 0 65279 0 0 65279 0 0 65279 0 0 65279 0 0 65279 0 0 65279 0 0 65279 0 0 65279 0 0 65279 0 0 65279 0 0 65279 0 0 65279 0 0 65279 0 0 65279 0 0 65279 0 0 65279 0 0 65279 0 0 65279 0 0 65279 0 0 65279 0 0 65279 0 0 65279 0 0 65279 0 0 65279 0 0 65279 0 0 65279 0 0 65279 0 0 65279 0 0 65279 0 0 65279 0 0 65279 0 0 65279 0 0 65279 0 0 65279 0 0 65279 0 0 65279 0 0 65279 0 0 65279 0 0 65279 0 0 65279 0 0 65279 0 0 65279 0 0 65279 0 0 65279 0 0 65279 0 0 65279 0 0 65279 0 0 65279 0 0 65279 0 0 65279 0 0 65279 0 0 65279 0 0 65279 0 0 65279 0 0 65279 0 0 65279 0 0 65279 0 0 65279 0 0 65279 0 0 65279 0 0 65279 0 0 65279 0 0 65279 0 0 65279 0 0 65279 0 0 65279 0 0 65279 0 0 65279 0 0 65279 0 0 65279 0 0 65279 0 0 65279 0 0 65279 0 0 65279 0 0 65279 0 0 65279 0 0 65279 0 0 65279 0 0 65279 0 0 65279 0 0 65279 0 0 65279 0 0 65279 0 0 65279 0 0 65279 0 0 65279 0 0 65279 0 0 65279 0 0 65279 0 0 65279 0 0 65279 0 0 65279 0 0 65279 0 0 65279 0 0 65279 0 0 65279 0 0 65279 0 0 65279 0 0 65279 0 0 65279 0 0 65279 0 0 65279 0 0 65279 0 0 65279 0 0 65279 0 0 65279 0 0 65279 0 0 65279 0 0 65279 0 0 65279 0 0 65279 0 0 65279 0 0 65279 0 0 65279 0 0 65279 0 0 65279 0 0 65279 0 0 65279 0 0 65279 0 0 65279 0 0 65279 0 0 65279 0 0 65279 0 0 65279 0 0 65279 0 0 65279 0 0 65279 0 0 65279 0 0 65279 0 0 65279 0 0 65279 0 0 65279 0 0 65279 0 0 65279 0 0 65279 0 0 65279 0 0 65279 0 0 65279 0 0 65279 0 0 65279 0 0 65279 0 0 65279 0 0 65279 0 0 65279 0 0 65279 0 0 65279 0 0 65279 0 0 65279 0 0 65279 0 0 65279 0 0 65279 0 0 65279 0 0 65279 0 0 65279 0 0 65279 0 0 65279 0 0 65279 0 0 65279 0 0 65279 0 0 65279 0 0 65279 0 0 65279 0 0 65279 0 0 65279 0 0 65279 0 0 65279 0 0 65279 0 0 65279 0 0 65279 0 0 65279 0 0 65279 0 0 65279 0 0 65279 0 0 65279 0 0 65279 0 0 65279 0 0 65279 0 0 65279 0 0 65279 0 0 65279 0 0 65279 0 0 65279 0 0 65279 0 0 65279 0 0 65279 0 0 65279 0 0 65279 0 0 65279 0 0 65279 0 0 65279 0 0 65279 0 0 65279 0 0 65279 0 0 65279 0 0 65279 0 0 65279 0 0 65279 0 0 65279 0 0 65279 0 0 65279 0 0 65279 0 0 65279 0 0 65279 0 0 65279 0 0 65279 0 0 65279 0 0 65279 0 0 65279 0 0 65279 0 0 65279 0 0 65279 0 0 65279 0 0 65279 0 0 65279 0 0 65279 0 0 65279 0 0 65279 0 0 65279 0 0 65279 0 0 65279 0 0 65279 0 0 65279 0 0 65279 0 0 65279 0 0 65279 0 0 65279 0 0 65279 0 0 65279 0 0 65279 0 0 65279 0 0 65279 0 0 65279 0 0 65279 0 0 65279 0 0 65279 0 0 65279 0 0 65279 0 0 65279 0 0 65279 0 0 65279 0 0 65279 0 0 65279 0 0 65279 0 0 65279 0 0 65279 0 0 65279 0 0 65279 0 0 65279 0 0 65279 0 0 65279 0 0 65279 0 0 65279 0 0 65279 0 0 65279 0 0 65279 0 0 65279 0 0 65279 0 0 65279 0 0 65279 0 0 65279 0 0 65279 0 0 65279 0 0 65279 0 0 65279 0 0 65279 0 0 65279 0 0 65279 0 0 65279 0 0 65279 0 0 65279 0 0 65279 0 0 65279 0 0 65279 0 0 65279 0 0 65279 0 0 65279 0 0 65279 0 0 65279 0 0 65279 0 0 65279 0 0 65279 0 0 65279 0 0 65279 0 0 65279 0 0 65279 0 0 65279 0 0 65279 0 0 65279 0 0 65279 0 0 65279 0 0 65279 0 0 65279 0 0 65279 0 0 65279 0 0 65279 0 0 65279 0 0 65279 0 0 65279 0 0 65279 0 0 65279 0 0 65279 0 0 65279 0 0 65279 0 0 65279 0 0 65279 0 0 65279 0 0 65279 0 0 65279 0 0 65279 0 0 65279 0 0 65279 0 0 65279 0 0 65279 0 0 65279 0 0 65279 0 0 65279 0 0 65279 0 0 65279 0 0 65279 0 0 65279 0 0 65279 0 0 65279 0 0 65279 0 0 65279 0 0 65279 0 0 65279 0 0 65279 0 0 65279 0 0 65279 0 0 65279 0 0 65279 0 0 65279 0 0 65279 0 0 65279 0 0 65279 0 0 65279 0 0 65279 0 0 65279 0 0 65279 0 0 65279 0 0 65279 0 0 65279 0 0 65279 0 0 65279 0 0 65279 0 0 65279 0 0 65279 0 0 65279 0 0 65279 0 0 65279 0 0 65279 0 0 65279 0 0 65279 0 0 65279 0 0 65279 0 0 65279 0 0 65279 0 0 65279 0 0 65279 0 0 65279 0 0 65279 0 0 65279 0 0 65279 0 0 65279 0 0 65279 0 0 65279 0 0 65279 0 0 65279 0 0 65279 0 0 65279 0 0 65279 0 0 65279 0 0 65279 0 0 65279 0 0 65279 0 0 65279 0 0 65279 0 0 65279 0 0 65279 0 0 65279 0 0 65279 0 0 65279 0 0 65279 0 0 65279 0 0 65279 0 0 65279 0 0 65279 0 0 65279 0 0 65279 0 0 65279 0 0 65279 0 0 65279 0 0 65279 0 0 65279 0 0 65279 0 0 65279 0 0 65279 0 0 65279 0 0 65279 0 0 65279 0 0 65279 0 0 65279 0 0 65279 0 0 65279 0 0 65279 0 0 65279 0 0 65279 0 0 65279 0 0 65279 0 0 65279 0 0 65279 0 0 65279 0 0 65279 0 0 65279 0 0 65279 0 0 65279 0 0 65279 0 0 65279 0 0 65279 0 0 65279 0 0 65279 0 0 65279 0 0 65279 0 0 65279 0 0 65279 0 0 65279 0 0 65279 0 0 65279 0 0 65279 0 0 65279 0 0 65279 0 0 65279 0 0 65279 0 0 65279 0 0 65279 0 0 65279 0 0 65279 0 0 65279 0 0 65279 0 0 65279 0 0 65279 0 0 65279 0 0 65279 0 0 65279 0 0 65279 0 0 65279 0 0 65279 0 0 65279 0 0 65279 0 0 65279 0 0 65279 0 0 65279 0 0 65279 0 0 65279 0 0 65279 0 0 65279 0 0 65279 0 0 65279 0 0 65279 0 0 65279 0 0 65279 0 0 65279 0 0 65279 0 0 65279 0 0 65279 0 0 65279 0 0 65279 0 0 65279 0 0 65279 0 0 65279 0 0 65279 0 0 65279 0 0 65279 0 0 65279 0 0 65279 0 0 65279 0 0 65279 0 0 65279 0 0 65279 0 0 65279 0 0 65279 0 0 65279 0 0 65279 0 0 65279 0 0 65279 0 0 65279 0 0 65279 0 0 65279 0 0 65279 0 0 65279 0 0 65279 0 0 65279 0 0 65279 0 0 65279 0 0 65279 0 0 65279 0 0 65279 0 0 65279 0 0 65279 0 0 65279 0 0 65279 0 0 65279 0 0 65279 0 0 65279 0 0 65279 0 0 65279 0 0 65279 0 0 65279 0 0 65279 0 0 65279 0 0 65279 0 0 65279 0 0 65279 0 0 65279 0 0 65279 0 0 65279 0 0 65279 0 0 65279 0 0 65279 0 0 65279 0 0 65279 0 0 65279 0 0 65279 0 0 65279 0 0 65279 0 0 65279 0 0 65279 0 0 65279 0 0 65279 0 0 65279 0 0 65279 0 0 65279 0 0 65279 0 0 65279 0 0 65279 0 0 65279 0 0 65279 0 0 65279 0 0 65279 0 0 65279 0 0 65279 0 0 65279 0 0 65279 0 0 65279 0 0 65279 0 0 65279 0 0 65279 0 0 65279 0 0 65279 0 0 65279 0 0 65279 0 0 65279 0 0 65279 0 0 65279 0 0 65279 0 0 65279 0 0 65279 0 0 65279 0 0 65279 0 0 65279 0 0 65279 0 0 65279 0 0 65279 0 0 65279 0 0 65279 0 0 65279 0 0 65279 0 0 65279 0 0 65279 0 0 65279 0 0 65279 0 0 65279 0 0 65279 0 0 65279 0 0 65279 0 0 65279 0 0 65279 0 0 65279 0 0 65279 0 0 65279 0 0 65279 0 0 65279 0 0 65279 0 0 65279 0 0 65279 0 0 65279 0 0 65279 0 0 65279 0 0 65279 0 0 65279 0 0 65279 0 0 65279 0 0 65279 0 0 65279 0 0 65279 0 0 65279 0 0 65279 0 0 65279 0 0 65279 0 0 65279 0 0 65279 0 0 65279 0 0 65279 0 0 65279 0 0 65279 0 0 65279 0 0 65279 0 0 65279 0 0 65279 0 0 65279 0 0 65279 0 0 65279 0 0 65279 0 0 65279 0 0 65279 0 0 65279 0 0 65279 0 0 65279 0 0 65279 0 0 65279 0 0 65279 0 0 65279 0 0 65279 0 0 65279 0 0 65279 0 0 65279 0 0 65279 0 0 65279 0 0 65279 0 0 65279 0 0 65279 0 0 65279 0 0 65279 0 0 65279 0 0 65279 0 0 65279 0 0 65279 0 0 65279 0 0 65279 0 0 65279 0 0 65279 0 0 65279 0 0 65279 0 0 65279 0 0 65279 0 0 65279 0 0 65279 0 0 65279 0 0 65279 0 0 65279 0 0 65279 0 0 65279 0 0 65279 0 0 65279 0 0 65279 0 0 65279 0 0 65279 0 0 65279 0 0 65279 0 0 65279 0 0 65279 0 0 65279 0 0 65279 0 0 65279 0 0 65279 0 0 65279 0 0 65279 0 0 65279 0 0 65279 0 0 65279 0 0 65279 0 0 65279 0 0 65279 0 0 65279 0 0 65279 0 0 65279 0 0 65279 0 0 65279 0 0 65279 0 0 65279 0 0 65279 0 0 65279 0 0 65279 0 0 65279 0 0 65279 0 0 65279 0 0 65279 0 0 65279 0 0 65279 0 0 65279 0 0 65279 0 0 65279 0 0 65279 0 0 65279 0 0 65279 0 0 65279 0 0 65279 0 0 65279 0 0 65279 0 0 65279 0 0 65279 0 0 65279 0 0 65279 0 0 65279 0 0 65279 0 0 65279 0 0 65279 0 0 65279 0 0 65279 0 0 65279 0 0 65279 0 0 65279 0 0 65279 0 0 65279 0 0 65279 0 0 65279 0 0 65279 0 0 65279 0 0 65279 0 0 65279 0 0 65279 0 0 65279 0 0 65279 0 0 65279 0 0 65279 0 0 65279 0 0 65279 0 0 65279 0 0 65279 0 0 65279 0 0 65279 0 0 65279 0 0 65279 0 0 65279 0 0 65279 0 0 65279 0 0 65279 0 0 65279 0 0 65279 0 0 65279 0 0 65279 0 0 65279 0 0 65279 0 0 65279 0 0 65279 0 0 65279 0 0 65279 0 0 65279 0 0 65279 0 0 65279 0 0 65279 0 0 65279 0 0 65279 0 0 65279 0 0 65279 0 0 65279 0 0 65279 0 0 65279 0 0 65279 0 0 65279 0 0 65279 0 0 65279 0 0 65279 0 0 65279 0 0 65279 0 0 65279 0 0 65279 0 0 65279 0 0 65279 0 0 65279 0 0 65279 0 0 65279 0 0 65279 0 0 65279 0 0 65279 0 0 65279 0 0 65279 0 0 65279 0 0 65279 0 0 65279 0 0 65279 0 0 65279 0 0 65279 0 0 65279 0 0 65279 0 0 65279 0 0 65279 0 0 65279 0 0 65279 0 0 65279 0 0 65279 0 0 65279 0 0 65279 0 0 65279 0 0 65279 0 0 65279 0 0 65279 0 0 65279 0 0 65279 0 0 65279 0 0 65279 0 0 65279 0 0 65279 0 0 65279 0 0 65279 0 0 65279 0 0 65279 0 0 65279 0 0 65279 0 0 65279 0 0 65279 0 0 65279 0 0 65279 0 0 65279 0 0 65279 0 0 65279 0 0 65279 0 0 65279 0 0 65279 0 0 65279 0 0 65279 0 0 65279 0 0 65279 0 0 65279 0 0 65279 0 0 65279 0 0 65279 0 0 65279 0 0 65279 0 0 65279 0 0 65279 0 0 65279 0 0 65279 0 0 65279 0 0 65279 0 0 65279 0 0 65279 0 0 65279 0 0 65279 0 0 65279 0 0 65279 0 0 65279 0 0 65279 0 0 65279 0 0 65279 0 0 65279 0 0 65279 0 0 65279 0 0 65279 0 0 65279 0 0 65279 0 0 65279 0 0 65279 0 0 65279 0 0 65279 0 0 65279 0 0 65279 0 0 65279 0 0 65279 0 0 65279 0 0 65279 0 0 65279 0 0 65279 0 0 65279 0 0 65279 0 0 65279 0 0 65279 0 0 65279 0 0 65279 0 0 65279 0 0 65279 0 0 65279 0 0 65279 0 0 65279 0 0 65279 0 0 65279 0 0 65279 0 0 65279 0 0 65279 0 0 65279 0 0 65279 0 0 65279 0 0 65279 0 0 65279 0 0 65279 0 0 65279 0 0 65279 0 0 65279 0 0 65279 0 0 65279 0 0 65279 0 0 65279 0 0 65279 0 0 65279 0 0 65279 0 0 65279 0 0 65279 0 0 65279 0 0 65279 0 0 65279 0 0 65279 0 0 65279 0 0 65279 0 0 65279 0 0 65279 0 0 65279 0 0 65279 0 0 65279 0 0 65279 0 0 65279 0 0 65279 0 0 65279 0 0 65279 0 0 65279 0 0 65279 0 0 65279 0 0 65279 0 0 65279 0 0 65279 0 0 65279 0 0 65279 0 0 65279 0 0 65279 0 0 65279 0 0 65279 0 0 65279 0 0 65279 0 0 65279 0 0 65279 0 0 65279 0 0 65279 0 0 65279 0 0 65279 0 0 65279 0 0 65279 0 0 65279 0 0 65279 0 0 65279 0 0 65279 0 0 65279 0 0 65279 0 0 65279 0 0 65279 0 0 65279 0 0 65279 0 0 65279 0 0 65279 0 0 65279 0 0 65279 0 0 65279 0 0 65279 0 0 65279 0 0 65279 0 0 65279 0 0 65279 0 0 65279 0 0 65279 0 0 65279 0 0 65279 0 0 65279 0 0 65279 0 0 65279 0 0 65279 0 0 65279 0 0 65279 0 0 65279 0 0 65279 0 0 65279 0 0 65279 0 0 65279 0 0 65279 0 0 65279 0 0 65279 0 0 65279 0 0 65279 0 0 65279 0 0 65279 0 0 65279 0 0 65279 0 0 65279 0 0 65279 0 0 65279 0 0 65279 0 0 65279 0 0 65279 0 0 65279 0 0 65279 0 0 65279 0 0 65279 0 0 65279 0 0 65279 0 0 65279 0 0 65279 0 0 65279 0 0 65279 0 0 65279 0 0 65279 0 0 65279 0 0 65279 0 0 65279 0 0 65279 0 0 65279 0 0 65279 0 0 65279 0 0 65279 0 0 65279 0 0 65279 0 0 65279 0 0 65279 0 0 65279 0 0 65279 0 0 65279 0 0 65279 0 0 65279 0 0 65279 0 0 65279 0 0 65279 0 0 65279 0 0 65279 0 0 65279 0 0 65279 0 0 65279 0 0 65279 0 0 65279 0 0 65279 0 0 65279 0 0 65279 0 0 65279 0 0 65279 0 0 65279 0 0 65279 0 0 65279 0 0 65279 0 0 65279 0 0 65279 0 0 65279 0 0 65279 0 0 65279 0 0 65279 0 0 65279 0 0 65279 0 0 65279 0 0 65279 0 0 65279 0 0 65279 0 0 65279 0 0 65279 0 0 65279 0 0 65279 0 0 65279 0 0 65279 0 0 65279 0 0 65279 0 0 65279 0 0 65279 0 0 65279 0 0 65279 0 0 65279 0 0 65279 0 0 65279 0 0 65279 0 0 65279 0 0 65279 0 0 65279 0 0 65279 0 0 65279 0 0 65279 0 0 65279 0 0 65279 0 0 65279 0 0 65279 0 0 65279 0 0 65279 0 0 65279 0 0 65279 0 0 65279 0 0 65279 0 0 65279 0 0 65279 0 0 65279 0 0 65279 0 0 65279 0 0 65279 0 0 65279 0 0 65279 0 0 65279 0 0 65279 0 0 65279 0 0 65279 0 0 65279 0 0 65279 0 0 65279 0 0 65279 0 0 65279 0 0 65279 0 0 65279 0 0 65279 0 0 65279 0 0 65279 0 0 65279 0 0 65279 0 0 65279 0 0 65279 0 0 65279 0 0 65279 0 0 65279 0 0 65279 0 0 65279 0 0 65279 0 0 65279 0 0 65279 0 0 65279 0 0 65279 0 0 65279 0 0 65279 0 0 65279 0 0 65279 0 0 65279 0 0 65279 0 0 65279 0 0 65279 0 0 65279 0 0 65279 0 0 65279 0 0 65279 0 0 65279 0 0 65279 0 0 65279 0 0 65279 0 0 65279 0 0 65279 0 0 65279 0 0 65279 0 0 65279 0 0 65279 0 0 65279 0 0 65279 0 0 65279 0 0 65279 0 0 65279 0 0 65279 0 0 65279 0 0 65279 0 0 65279 0 0 65279 0 0 65279 0 0 65279 0 0 65279 0 0 65279 0 0 65279 0 0 65279 0 0 65279 0 0 65279 0 0 65279 0 0 65279 0 0 65279 0 0 65279 0 0 65279 0 0 65279 0 0 65279 0 0 65279 0 0 65279 0 0 65279 0 0 65279 0 0 65279 0 0 65279 0 0 65279 0 0 65279 0 0 65279 0 0 65279 0 0 65279 0 0 65279 0 0 65279 0 0 65279 0 0 65279 0 0 65279 0 0 65279 0 0 65279 0 0 65279 0 0 65279 0 0 65279 0 0 65279 0 0 65279 0 0 65279 0 0 65279 0 0 65279 0 0 65279 0 0 65279 0 0 65279 0 0 65279 0 0 65279 0 0 65279 0 0 65279 0 0 65279 0 0 65279 0 0 65279 0 0 65279 0 0 65279 0 0 65279 0 0 65279 0 0 65279 0 0 65279 0 0 65279 0 0 65279 0 0 65279 0 0 65279 0 0 65279 0 0 65279 0 0 65279 0 0 65279 0 0 65279 0 0 65279 0 0 65279 0 0 65279 0 0 65279 0 0 65279 0 0 65279 0 0 65279 0 0 65279 0 0 65279 0 0 65279 0 0 65279 0 0 65279 0 0 65279 0 0 65279 0 0 65279 0 0 65279 0 0 65279 0 0 65279 0 0 65279 0 0 65279 0 0 65279 0 0 65279 0 0 65279 0 0 65279 0 0 65279 0 0 65279 0 0 65279 0 0 65279 0 0 65279 0 0 65279 0 0 65279 0 0 65279 0 0 65279 0 0 65279 0 0 65279 0 0 65279 0 0 65279 0 0 65279 0 0 65279 0 0 65279 0 0 65279 0 0 65279 0 0 65279 0 0 65279 0 0 65279 0 0 65279 0 0 65279 0 0 65279 0 0 65279 0 0 65279 0 0 65279 0 0 65279 0 0 65279 0 0 65279 0 0 65279 0 0 65279 0 0 65279 0 0 65279 0 0 65279 0 0 65279 0 0 65279 0 0 65279 0 0 65279 0 0 65279 0 0 65279 0 0 65279 0 0 65279 0 0 65279 0 0 65279 0 0 65279 0 0 65279 0 0 65279 0 0 65279 0 0 65279 0 0 65279 0 0 65279 0 0 65279 0 0 65279 0 0 65279 0 0 65279 0 0 65279 0 0 65279 0 0 65279 0 0 65279 0 0 65279 0 0 65279 0 0 65279 0 0 65279 0 0 65279 0 0 65279 0 0 65279 0 0 65279 0 0 65279 0 0 65279 0 0 65279 0 0 65279 0 0 65279 0 0 65279 0 0 65279 0 0 65279 0 0 65279 0 0 65279 0 0 65279 0 0 65279 0 0 65279 0 0 65279 0 0 65279 0 0 65279 0 0 65279 0 0 65279 0 0 65279 0 0 65279 0 0 65279 0 0 65279 0 0 65279 0 0 65279 0 0 65279 0 0 65279 0 0 65279 0 0 65279 0 0 65279 0 0 65279 0 0 65279 0 0 65279 0 0 65279 0 0 65279 0 0 65279 0 0 65279 0 0 65279 0 0 65279 0 0 65279 0 0 65279 0 0 65279 0 0 65279 0 0 65279 0 0 65279 0 0 65279 0 0 65279 0 0 65279 0 0 65279 0 0 65279 0 0 65279 0 0 65279 0 0 65279 0 0 65279 0 0 65279 0 0 65279 0 0 65279 0 0 65279 0 0 65279 0 0 65279 0 0 65279 0 0 65279 0 0 65279 0 0 65279 0 0 65279 0 0 65279 0 0 65279 0 0 65279 0 0 65279 0 0 65279 0 0 65279 0 0 65279 0 0 65279 0 0 65279 0 0 65279 0 0 65279 0 0 65279 0 0 65279 0 0 65279 0 0 65279 0 0 65279 0 0 65279 0 0 65279 0 0 65279 0 0 65279 0 0 65279 0 0 65279 0 0 65279 0 0 65279 0 0 65279 0 0 65279 0 0 65279 0 0 65279 0 0 65279 0 0 65279 0 0 65279 0 0 65279 0 0 65279 0 0 65279 0 0 65279 0 0 65279 0 0 65279 0 0 65279 0 0 65279 0 0 65279 0 0 65279 0 0 65279 0 0 65279 0 0 65279 0 0 65279 0 0 65279 0 0 65279 0 0 65279 0 0 65279 0 0 65279 0 0 65279 0 0 65279 0 0 65279 0 0 65279 0 0 65279 0 0 65279 0 0 65279 0 0 65279 0 0 65279 0 0 65279 0 0 65279 0 0 65279 0 0 65279 0 0 65279 0 0 65279 0 0 65279 0 0 65279 0 0 65279 0 0 65279 0 0 65279 0 0 65279 0 0 65279 0 0 65279 0 0 65279 0 0 65279 0 0 65279 0 0 65279 0 0 65279 0 0 65279 0 0 65279 0 0 65279 0 0 65279 0 0 65279 0 0 65279 0 0 65279 0 0 65279 0 0 65279 0 0 65279 0 0 65279 0 0 65279 0 0 65279 0 0 65279 0 0 65279 0 0 65279 0 0 65279 0 0 65279 0 0 65279 0 0 65279 0 0 65279 0 0 65279 0 0 65279 0 0 65279 0 0 65279 0 0 65279 0 0 65279 0 0 65279 0 0 65279 0 0 65279 0 0 65279 0 0 65279 0 0 65279 0 0 65279 0 0 65279 0 0 65279 0 0 65279 0 0 65279 0 0 65279 0 0 65279 0 0 65279 0 0 65279 0 0 65279 0 0 65279 0 0 65279 0 0 65279 0 0 65279 0 0 65279 0 0 65279 0 0 65279 0 0 65279 0 0 65279 0 0 65279 0 0 65279 0 0 65279 0 0 65279 0 0 65279 0 0 65279 0 0 65279 0 0 65279 0 0 65279 0 0 65279 0 0 65279 0 0 65279 0 0 65279 0 0 65279 0 0 65279 0 0 65279 0 0 65279 0 0 65279 0 0 65279 0 0 65279 0 0 65279 0 0 65279 0 0 65279 0 0 65279 0 0 65279 0 0 65279 0 0 65279 0 0 65279 0 0 65279 0 0 65279 0 0 65279 0 0 65279 0 0 65279 0 0 65279 0 0 65279 0 0 65279 0 0 65279 0 0 65279 0 0 65279 0 0 65279 0 0 65279 0 0 65279 0 0 65279 0 0 65279 0 0 65279 0 0 65279 0 0 65279 0 0 65279 0 0 65279 0 0 65279 0 0 65279 0 0 65279 0 0 65279 0 0 65279 0 0 65279 0 0 65279 0 0 65279 0 0 65279 0 0 65279 0 0 65279 0 0 65279 0 0 65279 0 0 65279 0 0 65279 0 0 65279 0 0 65279 0 0 65279 0 0 65279 0 0 65279 0 0 65279 0 0 65279 0 0 65279 0 0 65279 0 0 65279 0 0 65279 0 0 65279 0 0 65279 0 0 65279 0 0 65279 0 0 65279 0 0 65279 0 0 65279 0 0 65279 0 0 65279 0 0 65279 0 0 65279 0 0 65279 0 0 65279 0 0 65279 0 0 65279 0 0 65279 0 0 65279 0 0 65279 0 0 65279 0 0 65279 0 0 65279 0 0 65279 0 0 65279 0 0 65279 0 0 65279 0 0 65279 0 0 65279 0 0 65279 0 0 65279 0 0 65279 0 0 65279 0 0 65279 0 0 65279 0 0 65279 0 0 65279 0 0 65279 0 0 65279 0 0 65279 0 0 65279 0 0 65279 0 0 65279 0 0 65279 0 0 65279 0 0 65279 0 0 65279 0 0 65279 0 0 65279 0 0 65279 0 0 65279 0 0 65279 0 0 65279 0 0 65279 0 0 65279 0 0 65279 0 0 65279 0 0 65279 0 0 65279 0 0 65279 0 0 65279 0 0 65279 0 0 65279 0 0 65279 0 0 65279 0 0 65279 0 0 65279 0 0 65279 0 0 65279 0 0 65279 0 0 65279 0 0 65279 0 0 65279 0 0 65279 0 0 65279 0 0 65279 0 0 65279 0 0 65279 0 0 65279 0 0 65279 0 0 65279 0 0 65279 0 0 65279 0 0 65279 0 0 65279 0 0 65279 0 0 65279 0 0 65279 0 0 65279 0 0 65279 0 0 65279 0 0 65279 0 0 65279 0 0 65279 0 0 65279 0 0 65279 0 0 65279 0 0 65279 0 0 65279 0 0 65279 0 0 65279 0 0 65279 0 0 65279 0 0 65279 0 0 65279 0 0 65279 0 0 65279 0 0 65279 0 0 65279 0 0 65279 0 0 65279 0 0 65279 0 0 65279 0 0 65279 0 0 65279 0 0 65279 0 0 65279 0 0 65279 0 0 65279 0 0 65279 0 0 65279 0 0 65279 0 0 65279 0 0 65279 0 0 65279 0 0 65279 0 0 65279 0 0 65279 0 0 65279 0 0 65279 0 0 65279 0 0 65279 0 0 65279 0 0 65279 0 0 65279 0 0 65279 0 0 65279 0 0 65279 0 0 65279 0 0 65279 0 0 65279 0 0 65279 0 0 65279 0 0 65279 0 0 65279 0 0 65279 0 0 65279 0 0 65279 0 0 65279 0 0 65279 0 0 65279 0 0 65279 0 0 65279 0 0 65279 0 0 65279 0 0 65279 0 0 65279 0 0 65279 0 0 65279 0 0 65279 0 0 65279 0 0 65279 0 0 65279 0 0 65279 0 0 65279 0 0 65279 0 0 65279 0 0 65279 0 0 65279 0 0 65279 0 0 65279 0 0 65279 0 0 65279 0 0 65279 0 0 65279 0 0 65279 0 0 65279 0 0 65279 0 0 65279 0 0 65279 0 0 65279 0 0 65279 0 0 65279 0 0 65279 0 0 65279 0 0 65279 0 0 65279 0 0 65279 0 0 65279 0 0 65279 0 0 65279 0 0 65279 0 0 65279 0 0 65279 0 0 65279 0 0 65279 0 0 65279 0 0 65279 0 0 65279 0 0 65279 0 0 65279 0 0 65279 0 0 65279 0 0 65279 0 0 65279 0 0 65279 0 0 65279 0 0 65279 0 0 65279 0 0 65279 0 0 65279 0 0 65279 0 0 65279 0 0 65279 0 0 65279 0 0 65279 0 0 65279 0 0 65279 0 0 65279 0 0 65279 0 0 65279 0 0 65279 0 0 65279 0 0 65279 0 0 65279 0 0 65279 0 0 65279 0 0 65279 0 0 65279 0 0 65279 0 0 65279 0 0 65279 0 0 65279 0 0 65279 0 0 65279 0 0 65279 0 0 65279 0 0 65279 0 0 65279 0 0 65279 0 0 65279 0 0 65279 0 0 65279 0 0 65279 0 0 65279 0 0 65279 0 0 65279 0 0 65279 0 0 65279 0 0 65279 0 0 65279 0 0 65279 0 0 65279 0 0 65279 0 0 65279 0 0 65279 0 0 65279 0 0 65279 0 0 65279 0 0 65279 0 0 65279 0 0 65279 0 0 65279 0 0 65279 0 0 65279 0 0 65279 0 0 65279 0 0 65279 0 0 65279 0 0 65279 0 0 65279 0 0 65279 0 0 65279 0 0 65279 0 0 65279 0 0 65279 0 0 65279 0 0 65279 0 0 65279 0 0 65279 0 0 65279 0 0 65279 0 0 65279 0 0 65279 0 0 65279 0 0 65279 0 0 65279 0 0 65279 0 0 65279 0 0 65279 0 0 65279 0 0 65279 0 0 65279 0 0 65279 0 0 65279 0 0 65279 0 0 65279 0 0 65279 0 0 65279 0 0 65279 0 0 65279 0 0 65279 0 0 65279 0 0 65279 0 0 65279 0 0 65279 0 0 65279 0 0 65279 0 0 65279 0 0 65279 0 0 65279 0 0 65279 0 0 65279 0 0 65279 0 0 65279 0 0 65279 0 0 65279 0 0 65279 0 0 65279 0 0 65279 0 0 65279 0 0 65279 0 0 65279 0 0 65279 0 0 65279 0 0 65279 0 0 65279 0 0 65279 0 0 65279 0 0 65279 0 0 65279 0 0 65279 0 0 65279 0 0 65279 0 0 65279 0 0 65279 0 0 65279 0 0 65279 0 0 65279 0 0 65279 0 0 65279 0 0 65279 0 0 65279 0 0 65279 0 0 65279 0 0 65279 0 0 65279 0 0 65279 0 0 65279 0 0 65279 0 0 65279 0 0 65279 0 0 65279 0 0 65279 0 0 65279 0 0 65279 0 0 65279 0 0 65279 0 0 65279 0 0 65279 0 0 65279 0 0 65279 0 0 65279 0 0 65279 0 0 65279 0 0 65279 0 0 65279 0 0 65279 0 0 65279 0 0 65279 0 0 65279 0 0 65279 0 0 65279 0 0 65279 0 0 65279 0 0 65279 0 0 65279 0 0 65279 0 0 65279 0 0 65279 0 0 65279 0 0 65279 0 0 65279 0 0 65279 0 0 65279 0 0 65279 0 0 65279 0 0 65279 0 0 65279 0 0 65279 0 0 65279 0 0 65279 0 0 65279 0 0 65279 0 0 65279 0 0 65279 0 0 65279 0 0 65279 0 0 65279 0 0 65279 0 0 65279 0 0 65279 0 0 65279 0 0 65279 0 0 65279 0 0 65279 0 0 65279 0 0 65279 0 0 65279 0 0 65279 0 0 65279 0 0 65279 0 0 65279 0 0 65279 0 0 65279 0 0 65279 0 0 65279 0 0 65279 0 0 65279 0 0 65279 0 0 65279 0 0 65279 0 0 65279 0 0 65279 0 0 65279 0 0 65279 0 0 65279 0 0 65279 0 0 65279 0 0 65279 0 0 65279 0 0 65279 0 0 65279 0 0 65279 0 0 65279 0 0 65279 0 0 65279 0 0 65279 0 0 65279 0 0 65279 0 0 65279 0 0 65279 0 0 65279 0 0 65279 0 0 65279 0 0 65279 0 0 65279 0 0 65279 0 0 65279 0 0 65279 0 0 65279 0 0 65279 0 0 65279 0 0 65279 0 0 65279 0 0 65279 0 0 65279 0 0 65279 0 0 65279 0 0 65279 0 0 65279 0 0 65279 0 0 65279 0 0 65279 0 0 65279 0 0 65279 0 0 65279 0 0 65279 0 0 65279 0 0 65279 0 0 65279 0 0 65279 0 0 65279 0 0 65279 0 0 65279 0 0 65279 0 0 65279 0 0 65279 0 0 65279 0 0 65279 0 0 65279 0 0 65279 0 0 65279 0 0 65279 0 0 65279 0 0 65279 0 0 65279 0 0 65279 0 0 65279 0 0 65279 0 0 65279 0 0 65279 0 0 65279 0 0 65279 0 0 65279 0 0 65279 0 0 65279 0 0 65279 0 0 65279 0 0 65279 0 0 65279 0 0 65279 0 0 65279 0 0 65279 0 0 65279 0 0 65279 0 0 65279 0 0 65279 0 0 65279 0 0 65279 0 0 65279 0 0 65279 0 0 65279 0 0 65279 0 0 65279 0 0 65279 0 0 65279 0 0 65279 0 0 65279 0 0 65279 0 0 65279 0 0 65279 0 0 65279 0 0 65279 0 0 65279 0 0 65279 0 0 65279 0 0 65279 0 0 65279 0 0 65279 0 0 65279 0 0 65279 0 0 65279 0 0 65279 0 0 65279 0 0 65279 0 0 65279 0 0 65279 0 0 65279 0 0 65279 0 0 65279 0 0 65279 0 0 65279 0 0 65279 0 0 65279 0 0 65279 0 0 65279 0 0 65279 0 0 65279 0 0 65279 0 0 65279 0 0 65279 0 0 65279 0 0 65279 0 0 65279 0 0 65279 0 0 65279 0 0 65279 0 0 65279 0 0 65279 0 0 65279 0 0 65279 0 0 65279 0 0 65279 0 0 65279 0 0 65279 0 0 65279 0 0 65279 0 0 65279 0 0 65279 0 0 65279 0 0 65279 0 0 65279 0 0 65279 0 0 65279 0 0 65279 0 0 65279 0 0 65279 0 0 65279 0 0 65279 0 0 65279 0 0 65279 0 0 65279 0 0 65279 0 0 65279 0 0 65279 0 0 65279 0 0 65279 0 0 65279 0 0 65279 0 0 65279 0 0 65279 0 0 65279 0 0 65279 0 0 65279 0 0 65279 0 0 65279 0 0 65279 0 0 65279 0 0 65279 0 0 65279 0 0 65279 0 0 65279 0 0 65279 0 0 65279 0 0 65279 0 0 65279 0 0 65279 0 0 65279 0 0 65279 0 0 65279 0 0 65279 0 0 65279 0 0 65279 0 0 65279 0 0 65279 0 0 65279 0 0 65279 0 0 65279 0 0 65279 0 0 65279 0 0 65279 0 0 65279 0 0 65279 0 0 65279 0 0 65279 0 0 65279 0 0 65279 0 0 65279 0 0 65279 0 0 65279 0 0 65279 0 0 65279 0 0 65279 0 0 65279 0 0 65279 0 0 65279 0 0 65279 0 0 65279 0 0 65279 0 0 65279 0 0 65279 0 0 65279 0 0 65279 0 0 65279 0 0 65279 0 0 65279 0 0 65279 0 0 65279 0 0 65279 0 0 65279 0 0 65279 0 0 65279 0 0 65279 0 0 65279 0 0 65279 0 0 65279 0 0 65279 0 0 65279 0 0 65279 0 0 65279 0 0 65279 0 0 65279 0 0 65279 0 0 65279 0 0 65279 0 0 65279 0 0 65279 0 0 65279 0 0 65279 0 0 65279 0 0 65279 0 0 65279 0 0 65279 0 0 65279 0 0 65279 0 0 65279 0 0 65279 0 0 65279 0 0 65279 0 0 65279 0 0 65279 0 0 65279 0 0 65279 0 0 65279 0 0 65279 0 0 65279 0 0 65279 0 0 65279 0 0 65279 0 0 65279 0 0 65279 0 0 65279 0 0 65279 0 0 65279 0 0 65279 0 0 65279 0 0 65279 0 0 65279 0 0 65279 0 0 65279 0 0 65279 0 0 65279 0 0 65279 0 0 65279 0 0 65279 0 0 65279 0 0 65279 0 0 65279 0 0 65279 0 0 65279 0 0 65279 0 0 65279 0 0 65279 0 0 65279 0 0 65279 0 0 65279 0 0 65279 0 0 65279 0 0 65279 0 0 65279 0 0 65279 0 0 65279 0 0 65279 0 0 65279 0 0 65279 0 0 65279 0 0 65279 0 0 65279 0 0 65279 0 0 65279 0 0 65279 0 0 65279 0 0 65279 0 0 65279 0 0 65279 0 0 65279 0 0 65279 0 0 65279 0 0 65279 0 0 65279 0 0 65279 0 0 65279 0 0 65279 0 0 65279 0 0 65279 0 0 65279 0 0 65279 0 0 65279 0 0 65279 0 0 65279 0 0 65279 0 0 65279 0 0 65279 0 0 65279 0 0 65279 0 0 65279 0 0 65279 0 0 65279 0 0 65279 0 0 65279 0 0 65279 0 0 65279 0 0 65279 0 0 65279 0 0 65279 0 0 65279 0 0 65279 0 0 65279 0 0 65279 0 0 65279 0 0 65279 0 0 65279 0 0 65279 0 0 65279 0 0 65279 0 0 65279 0 0 65279 0 0 65279 0 0 65279 0 0 65279 0 0 65279 0 0 65279 0 0 65279 0 0 65279 0 0 65279 0 0 65279 0 0 65279 0 0 65279 0 0 65279 0 0 65279 0 0 65279 0 0 65279 0 0 65279 0 0 65279 0 0 65279 0 0 65279 0 0 65279 0 0 65279 0 0 65279 0 0 65279 0 0 65279 0 0 65279 0 0 65279 0 0 65279 0 0 65279 0 0 65279 0 0 65279 0 0 65279 0 0 65279 0 0 65279 0 0 65279 0 0 65279 0 0 65279 0 0 65279 0 0 65279 0 0 65279 0 0 65279 0 0 65279 0 0 65279 0 0 65279 0 0 65279 0 0 65279 0 0 65279 0 0 65279 0 0 65279 0 0 65279 0 0 65279 0 0 65279 0 0 65279 0 0 65279 0 0 65279 0 0 65279 0 0 65279 0 0 65279 0 0 65279 0 0 65279 0 0 65279 0 0 65279 0 0 65279 0 0 65279 0 0 65279 0 0 65279 0 0 65279 0 0 65279 0 0 65279 0 0 65279 0 0 65279 0 0 65279 0 0 65279 0 0 65279 0 0 65279 0 0 65279 0 0 65279 0 0 65279 0 0 65279 0 0 65279 0 0 65279 0 0 65279 0 0 65279 0 0 65279 0 0 65279 0 0 65279 0 0 65279 0 0 65279 0 0 65279 0 0 65279 0 0 65279 0 0 65279 0 0 65279 0 0 65279 0 0 65279 0 0 65279 0 0 65279 0 0 65279 0 0 65279 0 0 65279 0 0 65279 0 0 65279 0 0 65279 0 0 65279 0 0 65279 0 0 65279 0 0 65279 0 0 65279 0 0 65279 0 0 65279 0 0 65279 0 0 65279 0 0 65279 0 0 65279 0 0 65279 0 0 65279 0 0 65279 0 0 65279 0 0 65279 0 0 65279 0 0 65279 0 0 65279 0 0 65279 0 0 65279 0 0 65279 0 0 65279 0 0 65279 0 0 65279 0 0 65279 0 0 65279 0 0 65279 0 0 65279 0 0 65279 0 0 65279 0 0 65279 0 0 65279 0 0 65279 0 0 65279 0 0 65279 0 0 65279 0 0 65279 0 0 65279 0 0 65279 0 0 65279 0 0 65279 0 0 65279 0 0 65279 0 0 65279 0 0 65279 0 0 65279 0 0 65279 0 0 65279 0 0 65279 0 0 65279 0 0 65279 0 0 65279 0 0 65279 0 0 65279 0 0 65279 0 0 65279 0 0 65279 0 0 65279 0 0 65279 0 0 65279 0 0 65279 0 0 65279 0 0 65279 0 0 65279 0 0 65279 0 0 65279 0 0 65279 0 0 65279 0 0 65279 0 0 65279 0 0 65279 0 0 65279 0 0 65279 0 0 65279 0 0 65279 0 0 65279 0 0 65279 0 0 65279 0 0 65279 0 0 65279 0 0 65279 0 0 65279 0 0 65279 0 0 65279 0 0 65279 0 0 65279 0 0 65279 0 0 65279 0 0 65279 0 0 65279 0 0 65279 0 0 65279 0 0 65279 0 0 65279 0 0 65279 0 0 65279 0 0 65279 0 0 65279 0 0 65279 0 0 65279 0 0 65279 0 0 65279 0 0 65279 0 0 65279 0 0 65279 0 0 65279 0 0 65279 0 0 65279 0 0 65279 0 0 65279 0 0 65279 0 0 65279 0 0 65279 0 0 65279 0 0 65279 0 0 65279 0 0 65279 0 0 65279 0 0 65279 0 0 65279 0 0 65279 0 0 65279 0 0 65279 0 0 65279 0 0 65279 0 0 65279 0 0 65279 0 0 65279 0 0 65279 0 0 65279 0 0 65279 0 0 65279 0 0 65279 0 0 65279 0 0 65279 0 0 65279 0 0 65279 0 0 65279 0 0 65279 0 0 65279 0 0 65279 0 0 65279 0 0 65279 0 0 65279 0 0 65279 0 0 65279 0 0 65279 0 0 65279 0 0 65279 0 0 65279 0 0 65279 0 0 65279 0 0 65279 0 0 65279 0 0 65279 0 0 65279 0 0 65279 0 0 65279 0 0 65279 0 0 65279 0 0 65279 0 0 65279 0 0 65279 0 0 65279 0 0 65279 0 0 65279 0 0 65279 0 0 65279 0 0 65279 0 0 65279 0 0 65279 0 0 65279 0 0 65279 0 0 65279 0 0 65279 0 0 65279 0 0 65279 0 0 65279 0 0 65279 0 0 65279 0 0 65279 0 0 65279 0 0 65279 0 0 65279 0 0 65279 0 0 65279 0 0 65279 0 0 65279 0 0 65279 0 0 65279 0 0 65279 0 0 65279 0 0 65279 0 0 65279 0 0 65279 0 0 65279 0 0 65279 0 0 65279 0 0 65279 0 0 65279 0 0 65279 0 0 65279 0 0 65279 0 0 65279 0 0 65279 0 0 65279 0 0 65279 0 0 65279 0 0 65279 0 0 65279 0 0 65279 0 0 65279 0 0 65279 0 0 65279 0 0 65279 0 0 65279 0 0 65279 0 0 65279 0 0 65279 0 0 65279 0 0 65279 0 0 65279 0 0 65279 0 0 65279 0 0 65279 0 0 65279 0 0 65279 0 0 65279 0 0 65279 0 0 65279 0 0 65279 0 0 65279 0 0 65279 0 0 65279 0 0 65279 0 0 65279 0 0 65279 0 0 65279 0 0 65279 0 0 65279 0 0 65279 0 0 65279 0 0 65279 0 0 65279 0 0 65279 0 0 65279 0 0 65279 0 0 65279 0 0 65279 0 0 65279 0 0 65279 0 0 65279 0 0 65279 0 0 65279 0 0 65279 0 0 65279 0 0 65279 0 0 65279 0 0 65279 0 0 65279 0 0 65279 0 0 65279 0 0 65279 0 0 65279 0 0 65279 0 0 65279 0 0 65279 0 0 65279 0 0 65279 0 0 65279 0 0 65279 0 0 65279 0 0 65279 0 0 65279 0 0 65279 0 0 65279 0 0 65279 0 0 65279 0 0 65279 0 0 65279 0 0 65279 0 0 65279 0 0 65279 0 0 65279 0 0 65279 0 0 65279 0 0 65279 0 0 65279 0 0 65279 0 0 65279 0 0 65279 0 0 65279 0 0 65279 0 0 65279 0 0 65279 0 0 65279 0 0 65279 0 0 65279 0 0 65279 0 0 65279 0 0 65279 0 0 65279 0 0 65279 0 0 65279 0 0 65279 0 0 65279 0 0 65279 0 0 65279 0 0 65279 0 0 65279 0 0 65279 0 0 65279 0 0 65279 0 0 65279 0 0 65279 0 0 65279 0 0 65279 0 0 65279 0 0 65279 0 0 65279 0 0 65279 0 0 65279 0 0 65279 0 0 65279 0 0 65279 0 0 65279 0 0 65279 0 0 65279 0 0 65279 0 0 65279 0 0 65279 0 0 65279 0 0 65279 0 0 65279 0 0 65279 0 0 65279 0 0 65279 0 0 65279 0 0 65279 0 0 65279 0 0 65279 0 0 65279 0 0 65279 0 0 65279 0 0 65279 0 0 65279 0 0 65279 0 0 65279 0 0 65279 0 0 65279 0 0 65279 0 0 65279 0 0 65279 0 0 65279 0 0 65279 0 0 65279 0 0 65279 0 0 65279 0 0 65279 0 0 65279 0 0 65279 0 0 65279 0 0 65279 0 0 65279 0 0 65279 0 0 65279 0 0 65279 0 0 65279 0 0 65279 0 0 65279 0 0 65279 0 0 65279 0 0 65279 0 0 65279 0 0 65279 0 0 65279 0 0 65279 0 0 65279 0 0 65279 0 0 65279 0 0 65279 0 0 65279 0 0 65279 0 0 65279 0 0 65279 0 0 65279 0 0 65279 0 0 65279 0 0 65279 0 0 65279 0 0 65279 0 0 65279 0 0 65279 0 0 65279 0 0 65279 0 0 65279 0 0 65279 0 0 65279 0 0 65279 0 0 65279 0 0 65279 0 0 65279 0 0 65279 0 0 65279 0 0 65279 0 0 65279 0 0 65279 0 0 65279 0 0 65279 0 0 65279 0 0 65279 0 0 65279 0 0 65279 0 0 65279 0 0 65279 0 0 65279 0 0 65279 0 0 65279 0 0 65279 0 0 65279 0 0 65279 0 0 65279 0 0 65279 0 0 65279 0 0 65279 0 0 65279 0 0 65279 0 0 65279 0 0 65279 0 0 65279 0 0 65279 0 0 65279 0 0 65279 0 0 65279 0 0 65279 0 0 65279 0 0 65279 0 0 65279 0 0 65279 0 0 65279 0 0 65279 0 0 65279 0 0 65279 0 0 65279 0 0 65279 0 0 65279 0 0 65279 0 0 65279 0 0 65279 0 0 65279 0 0 65279 0 0 65279 0 0 65279 0 0 65279 0 0 65279 0 0 65279 0 0 65279 0 0 65279 0 0 65279 0 0 65279 0 0 65279 0 0 65279 0 0 65279 0 0 65279 0 0 65279 0 0 65279 0 0 65279 0 0 65279 0 0 65279 0 0 65279 0 0 65279 0 0 65279 0 0 65279 0 0 65279 0 0 65279 0 0 65279 0 0 65279 0 0 65279 0 0 65279 0 0 65279 0 0 65279 0 0 65279 0 0 65279 0 0 65279 0 0 65279 0 0 65279 0 0 65279 0 0 65279 0 0 65279 0 0 65279 0 0 65279 0 0 65279 0 0 65279 0 0 65279 0 0 65279 0 0 65279 0 0 65279 0 0 65279 0 0 65279 0 0 65279 0 0 65279 0 0 65279 0 0 65279 0 0 65279 0 0 65279 0 0 65279 0 0 65279 0 0 65279 0 0 65279 0 0 65279 0 0 65279 0 0 65279 0 0 65279 0 0 65279 0 0 65279 0 0 65279 0 0 65279 0 0 65279 0 0 65279 0 0 65279 0 0 65279 0 0 65279 0 0 65279 0 0 65279 0 0 65279 0 0 65279 0 0 65279 0 0 65279 0 0 65279 0 0 65279 0 0 65279 0 0 65279 0 0 65279 0 0 65279 0 0 65279 0 0 65279 0 0 65279 0 0 65279 0 0 65279 0 0 65279 0 0 65279 0 0 65279 0 0 65279 0 0 65279 0 0 65279 0 0 65279 0 0 65279 0 0 65279 0 0 65279 0 0 65279 0 0 65279 0 0 65279 0 0 65279 0 0 65279 0 0 65279 0 0 65279 0 0 65279 0 0 65279 0 0 65279 0 0 65279 0 0 65279 0 0 65279 0 0 65279 0 0 65279 0 0 65279 0 0 65279 0 0 65279 0 0 65279 0 0 65279 0 0 65279 0 0 65279 0 0 65279 0 0 65279 0 0 65279 0 0 65279 0 0 65279 0 0 65279 0 0 65279 0 0 65279 0 0 65279 0 0 65279 0 0 65279 0 0 65279 0 0 65279 0 0 65279 0 0 65279 0 0 65279 0 0 65279 0 0 65279 0 0 65279 0 0 65279 0 0 65279 0 0 65279 0 0 65279 0 0 65279 0 0 65279 0 0 65279 0 0 65279 0 0 65279 0 0 65279 0 0 65279 0 0 65279 0 0 65279 0 0 65279 0 0 65279 0 0 65279 0 0 65279 0 0 65279 0 0 65279 0 0 65279 0 0 65279 0 0 65279 0 0 65279 0 0 65279 0 0 65279 0 0 65279 0 0 65279 0 0 65279 0 0 65279 0 0 65279 0 0 65279 0 0 65279 0 0 65279 0 0 65279 0 0 65279 0 0 65279 0 0 65279 0 0 65279 0 0 65279 0 0 65279 0 0 65279 0 0 65279 0 0 65279 0 0 65279 0 0 65279 0 0 65279 0 0 65279 0 0 65279 0 0 65279 0 0 65279 0 0 65279 0 0 65279 0 0 65279 0 0 65279 0 0 65279 0 0 65279 0 0 65279 0 0 65279 0 0 65279 0 0 65279 0 0 65279 0 0 65279 0 0 65279 0 0 65279 0 0 65279 0 0 65279 0 0 65279 0 0 65279 0 0 65279 0 0 65279 0 0 65279 0 0 65279 0 0 65279 0 0 65279 0 0 65279 0 0 65279 0 0 65279 0 0 65279 0 0 65279 0 0 65279 0 0 65279 0 0 65279 0 0 65279 0 0 65279 0 0 65279 0 0 65279 0 0 65279 0 0 65279 0 0 65279 0 0 65279 0 0 65279 0 0 65279 0 0 65279 0 0 65279 0 0 65279 0 0 65279 0 0 65279 0 0 65279 0 0 65279 0 0 65279 0 0 65279 0 0 65279 0 0 65279 0 0 65279 0 0 65279 0 0 65279 0 0 65279 0 0 65279 0 0 65279 0 0 65279 0 0 65279 0 0 65279 0 0 65279 0 0 65279 0 0 65279 0 0 65279 0 0 65279 0 0 65279 0 0 65279 0 0 65279 0 0 65279 0 0 65279 0 0 65279 0 0 65279 0 0 65279 0 0 65279 0 0 65279 0 0 65279 0 0 65279 0 0 65279 0 0 65279 0 0 65279 0 0 65279 0 0 65279 0 0 65279 0 0 65279 0 0 65279 0 0 65279 0 0 65279 0 0 65279 0 0 65279 0 0 65279 0 0 65279 0 0 65279 0 0 65279 0 0 65279 0 0 65279 0 0 65279 0 0 65279 0 0 65279 0 0 65279 0 0 65279 0 0 65279 0 0 65279 0 0 65279 0 0 65279 0 0 65279 0 0 65279 0 0 65279 0 0 65279 0 0 65279 0 0 65279 0 0 65279 0 0 65279 0 0 65279 0 0 65279 0 0 65279 0 0 65279 0 0 65279 0 0 65279 0 0 65279 0 0 65279 0 0 65279 0 0 65279 0 0 65279 0 0 65279 0 0 65279 0 0 65279 0 0 65279 0 0 65279 0 0 65279 0 0 65279 0 0 65279 0 0 65279 0 0 65279 0 0 65279 0 0 65279 0 0 65279 0 0 65279 0 0 65279 0 0 65279 0 0 65279 0 0 65279 0 0 65279 0 0 65279 0 0 65279 0 0 65279 0 0 65279 0 0 65279 0 0 65279 0 0 65279 0 0 65279 0 0 65279 0 0 65279 0 0 65279 0 0 65279 0 0 65279 0 0 65279 0 0 65279 0 0 65279 0 0 65279 0 0 65279 0 0 65279 0 0 65279 0 0 65279 0 0 65279 0 0 65279 0 0 65279 0 0 65279 0 0 65279 0 0 65279 0 0 65279 0 0 65279 0 0 65279 0 0 65279 0 0 65279 0 0 65279 0 0 65279 0 0 65279 0 0 65279 0 0 65279 0 0 65279 0 0 65279 0 0 65279 0 0 65279 0 0 65279 0 0 65279 0 0 65279 0 0 65279 0 0 65279 0 0 65279 0 0 65279 0 0 65279 0 0 65279 0 0 65279 0 0 65279 0 0 65279 0 0 65279 0 0 65279 0 0 65279 0 0 65279 0 0 65279 0 0 65279 0 0 65279 0 0 65279 0 0 65279 0 0 65279 0 0 65279 0 0 65279 0 0 65279 0 0 65279 0 0 65279 0 0 65279 0 0 65279 0 0 65279 0 0 65279 0 0 65279 0 0 65279 0 0 65279 0 0 65279 0 0 65279 0 0 65279 0 0 65279 0 0 65279 0 0 65279 0 0 65279 0 0 65279 0 0 65279 0 0 65279 0 0 65279 0 0 65279 0 0 65279 0 0 65279 0 0 65279 0 0 65279 0 0 65279 0 0 65279 0 0 65279 0 0 65279 0 0 65279 0 0 65279 0 0 65279 0 0 65279 0 0 65279 0 0 65279 0 0 65279 0 0 65279 0 0 65279 0 0 65279 0 0 65279 0 0 65279 0 0 65279 0 0 65279 0 0 65279 0 0 65279 0 0 65279 0 0 65279 0 0 65279 0 0 65279 0 0 65279 0 0 65279 0 0 65279 0 0 65279 0 0 65279 0 0 65279 0 0 65279 0 0 65279 0 0 65279 0 0 65279 0 0 65279 0 0 65279 0 0 65279 0 0 65279 0 0 65279 0 0 65279 0 0 65279 0 0 65279 0 0 65279 0 0 65279 0 0 65279 0 0 65279 0 0 65279 0 0 65279 0 0 65279 0 0 65279 0 0 65279 0 0 65279 0 0 65279 0 0 65279 0 0 65279 0 0 65279 0 0 65279 0 0 65279 0 0 65279 0 0 65279 0 0 65279 0 0 65279 0 0 65279 0 0 65279 0 0 65279 0 0 65279 0 0 65279 0 0 65279 0 0 65279 0 0 65279 0 0 65279 0 0 65279 0 0 65279 0 0 65279 0 0 65279 0 0 65279 0 0 65279 0 0 65279 0 0 65279 0 0 65279 0 0 65279 0 0 65279 0 0 65279 0 0 65279 0 0 65279 0 0 65279 0 0 65279 0 0 65279 0 0 65279 0 0 65279 0 0 65279 0 0 65279 0 0 65279 0 0 65279 0 0 65279 0 0 65279 0 0 65279 0 0 65279 0 0 65279 0 0 65279 0 0 65279 0 0 65279 0 0 65279 0 0 65279 0 0 65279 0 0 65279 0 0 65279 0 0 65279 0 0 65279 0 0 65279 0 0 65279 0 0 65279 0 0 65279 0 0 65279 0 0 65279 0 0 65279 0 0 65279 0 0 65279 0 0 65279 0 0 65279 0 0 65279 0 0 65279 0 0 65279 0 0 65279 0 0 65279 0 0 65279 0 0 65279 0 0 65279 0 0 65279 0 0 65279 0 0 65279 0 0 65279 0 0 65279 0 0 65279 0 0 65279 0 0 65279 0 0 65279 0 0 65279 0 0 65279 0 0 65279 0 0 65279 0 0 65279 0 0 65279 0 0 65279 0 0 65279 0 0 65279 0 0 65279 0 0 65279 0 0 65279 0 0 65279 0 0 65279 0 0 65279 0 0 65279 0 0 65279 0 0 65279 0 0 65279 0 0 65279 0 0 65279 0 0 65279 0 0 65279 0 0 65279 0 0 65279 0 0 65279 0 0 65279 0 0 65279 0 0 65279 0 0 65279 0 0 65279 0 0 65279 0 0 65279 0 0 65279 0 0 65279 0 0 65279 0 0 65279 0 0 65279 0 0 65279 0 0 65279 0 0 65279 0 0 65279 0 0 65279 0 0 65279 0 0 65279 0 0 65279 0 0 65279 0 0 65279 0 0 65279 0 0 65279 0 0 65279 0 0 65279 0 0 65279 0 0 65279 0 0 65279 0 0 65279 0 0 65279 0 0 65279 0 0 65279 0 0 65279 0 0 65279 0 0 65279 0 0 65279 0 0 65279 0 0 65279 0 0 65279 0 0 65279 0 0 65279 0 0 65279 0 0 65279 0 0 65279 0 0 65279 0 0 65279 0 0 65279 0 0 65279 0 0 65279 0 0 65279 0 0 65279 0 0 65279 0 0 65279 0 0 65279 0 0 65279 0 0 65279 0 0 65279 0 0 65279 0 0 65279 0 0 65279 0 0 65279 0 0 65279 0 0 65279 0 0 65279 0 0 65279 0 0 65279 0 0 65279 0 0 65279 0 0 65279 0 0 65279 0 0 65279 0 0 65279 0 0 65279 0 0 65279 0 0 65279 0 0 65279 0 0 65279 0 0 65279 0 0 65279 0 0 65279 0 0 65279 0 0 65279 0 0 65279 0 0 65279 0 0 65279 0 0 65279 0 0 65279 0 0 65279 0 0 65279 0 0 65279 0 0 65279 0 0 65279 0 0 65279 0 0 65279 0 0 65279 0 0 65279 0 0 65279 0 0 65279 0 0 65279 0 0 65279 0 0 65279 0 0 65279 0 0 65279 0 0 65279 0 0 65279 0 0 65279 0 0 65279 0 0 65279 0 0 65279 0 0 65279 0 0 65279 0 0 65279 0 0 65279 0 0 65279 0 0 65279 0 0 65279 0 0 65279 0 0 65279 0 0 65279 0 0 65279 0 0 65279 0 0 65279 0 0 65279 0 0 65279 0 0 65279 0 0 65279 0 0 65279 0 0 65279 0 0 65279 0 0 65279 0 0 65279 0 0 65279 0 0 65279 0 0 65279 0 0 65279 0 0 65279 0 0 65279 0 0 65279 0 0 65279 0 0 65279 0 0 65279 0 0 65279 0 0 65279 0 0 65279 0 0 65279 0 0 65279 0 0 65279 0 0 65279 0 0 65279 0 0 65279 0 0 65279 0 0 65279 0 0 65279 0 0 65279 0 0 65279 0 0 65279 0 0 65279 0 0 65279 0 0 65279 0 0 65279 0 0 65279 0 0 65279 0 0 65279 0 0 65279 0 0 65279 0 0 65279 0 0 65279 0 0 65279 0 0 65279 0 0 65279 0 0 65279 0 0 65279 0 0 65279 0 0 65279 0 0 65279 0 0 65279 0 0 65279 0 0 65279 0 0 65279 0 0 65279 0 0 65279 0 0 65279 0 0 65279 0 0 65279 0 0 65279 0 0 65279 0 0 65279 0 0 65279 0 0 65279 0 0 65279 0 0 65279 0 0 65279 0 0 65279 0 0 65279 0 0 65279 0 0 65279 0 0 65279 0 0 65279 0 0 65279 0 0 65279 0 0 65279 0 0 65279 0 0 65279 0 0 65279 0 0 65279 0 0 65279 0 0 65279 0 0 65279 0 0 65279 0 0 65279 0 0 65279 0 0 65279 0 0 65279 0 0 65279 0 0 65279 0 0 65279 0 0 65279 0 0 65279 0 0 65279 0 0 65279 0 0 65279 0 0 65279 0 0 65279 0 0 65279 0 0 65279 0 0 65279 0 0 65279 0 0 65279 0 0 65279 0 0 65279 0 0 65279 0 0 65279 0 0 65279 0 0 65279 0 0 65279 0 0 65279 0 0 65279 0 0 65279 0 0 65279 0 0 65279 0 0 65279 0 0 65279 0 0 65279 0 0 65279 0 0 65279 0 0 65279 0 0 65279 0 0 65279 0 0 65279 0 0 65279 0 0 65279 0 0 65279 0 0 65279 0 0 65279 0 0 65279 0 0 65279 0 0 65279 0 0 65279 0 0 65279 0 0 65279 0 0 65279 0 0 65279 0 0 65279 0 0 65279 0 0 65279 0 0 65279 0 0 65279 0 0 65279 0 0 65279 0 0 65279 0 0 65279 0 0 65279 0 0 65279 0 0 65279 0 0 65279 0 0 65279 0 0 65279 0 0 65279 0 0 65279 0 0 65279 0 0 65279 0 0 65279 0 0 65279 0 0 65279 0 0 65279 0 0 65279 0 0 65279 0 0 65279 0 0 65279 0 0 65279 0 0 65279 0 0 65279 0 0 65279 0 0 65279 0 0 65279 0 0 65279 0 0 65279 0 0 65279 0 0 65279 0 0 65279 0 0 65279 0 0 65279 0 0 65279 0 0 65279 0 0 65279 0 0 65279 0 0 65279 0 0 65279 0 0 65279 0 0 65279 0 0 65279 0 0 65279 0 0 65279 0 0 65279 0 0 65279 0 0 65279 0 0 65279 0 0 65279 0 0 65279 0 0 65279 0 0 65279 0 0 65279 0 0 65279 0 0 65279 0 0 65279 0 0 65279 0 0 65279 0 0 65279 0 0 65279 0 0 65279 0 0 65279 0 0 65279 0 0 65279 0 0 65279 0 0 65279 0 0 65279 0 0 65279 0 0 65279 0 0 65279 0 0 65279 0 0 65279 0 0 65279 0 0 65279 0 0 65279 0 0 65279 0 0 65279 0 0 65279 0 0 65279 0 0 65279 0 0 65279 0 0 65279 0 0 65279 0 0 65279 0 0 65279 0 0 65279 0 0 65279 0 0 65279 0 0 65279 0 0 65279 0 0 65279 0 0 65279 0 0 65279 0 0 65279 0 0 65279 0 0 65279 0 0 65279 0 0 65279 0 0 65279 0 0 65279 0 0 65279 0 0 65279 0 0 65279 0 0 65279 0 0 65279 0 0 65279 0 0 65279 0 0 65279 0 0 65279 0 0 65279 0 0 65279 0 0 65279 0 0 65279 0 0 65279 0 0 65279 0 0 65279 0 0 65279 0 0 65279 0 0 65279 0 0 65279 0 0 65279 0 0 65279 0 0 65279 0 0 65279 0 0 65279 0 0 65279 0 0 65279 0 0 65279 0 0 65279 0 0 65279 0 0 65279 0 0 65279 0 0 65279 0 0 65279 0 0 65279 0 0 65279 0 0 65279 0 0 65279 0 0 65279 0 0 65279 0 0 65279 0 0 65279 0 0 65279 0 0 65279 0 0 65279 0 0 65279 0 0 65279 0 0 65279 0 0 65279 0 0 65279 0 0 65279 0 0 65279 0 0 65279 0 0 65279 0 0 65279 0 0 65279 0 0 65279 0 0 65279 0 0 65279 0 0 65279 0 0 65279 0 0 65279 0 0 65279 0 0 65279 0 0 65279 0 0 65279 0 0 65279 0 0 65279 0 0 65279 0 0 65279 0 0 65279 0 0 65279 0 0 65279 0 0 65279 0 0 65279 0 0 65279 0 0 65279 0 0 65279 0 0 65279 0 0 65279 0 0 65279 0 0 65279 0 0 65279 0 0 65279 0 0 65279 0 0 65279 0 0 65279 0 0 65279 0 0 65279 0 0 65279 0 0 65279 0 0 65279 0 0 65279 0 0 65279 0 0 65279 0 0 65279 0 0 65279 0 0 65279 0 0 65279 0 0 65279 0 0 65279 0 0 65279 0 0 65279 0 0 65279 0 0 65279 0 0 65279 0 0 65279 0 0 65279 0 0 65279 0 0 65279 0 0 65279 0 0 65279 0 0 65279 0 0 65279 0 0 65279 0 0 65279 0 0 65279 0 0 65279 0 0 65279 0 0 65279 0 0 65279 0 0 65279 0 0 65279 0 0 65279 0 0 65279 0 0 65279 0 0 65279 0 0 65279 0 0 65279 0 0 65279 0 0 65279 0 0 65279 0 0 65279 0 0 65279 0 0 65279 0 0 65279 0 0 65279 0 0 65279 0 0 65279 0 0 65279 0 0 65279 0 0 65279 0 0 65279 0 0 65279 0 0 65279 0 0 65279 0 0 65279 0 0 65279 0 0 65279 0 0 65279 0 0 65279 0 0 65279 0 0 65279 0 0 65279 0 0 65279 0 0 65279 0 0 65279 0 0 65279 0 0 65279 0 0 65279 0 0 65279 0 0 65279 0 0 65279 0 0 65279 0 0 65279 0 0 65279 0 0 65279 0 0 65279 0 0 65279 0 0 65279 0 0 65279 0 0 65279 0 0 65279 0 0 65279 0 0 65279 0 0 65279 0 0 65279 0 0 65279 0 0 65279 0 0 65279 0 0 65279 0 0 65279 0 0 65279 0 0 65279 0 0 65279 0 0 65279 0 0 65279 0 0 65279 0 0 65279 0 0 65279 0 0 65279 0 0 65279 0 0 65279 0 0 65279 0 0 65279 0 0 65279 0 0 65279 0 0 65279 0 0 65279 0 0 65279 0 0 65279 0 0 65279 0 0 65279 0 0 65279 0 0 65279 0 0 65279 0 0 65279 0 0 65279 0 0 65279 0 0 65279 0 0 65279 0 0 65279 0 0 65279 0 0 65279 0 0 65279 0 0 65279 0 0 65279 0 0 65279 0 0 65279 0 0 65279 0 0 65279 0 0 65279 0 0 65279 0 0 65279 0 0 65279 0 0 65279 0 0 65279 0 0 65279 0 0 65279 0 0 65279 0 0 65279 0 0 65279 0 0 65279 0 0 65279 0 0 65279 0 0 65279 0 0 65279 0 0 65279 0 0 65279 0 0 65279 0 0 65279 0 0 65279 0 0 65279 0 0 65279 0 0 65279 0 0 65279 0 0 65279 0 0 65279 0 0 65279 0 0 65279 0 0 65279 0 0 65279 0 0 65279 0 0 65279 0 0 65279 0 0 65279 0 0 65279 0 0 65279 0 0 65279 0 0 65279 0 0 65279 0 0 65279 0 0 65279 0 0 65279 0 0 65279 0 0 65279 0 0 65279 0 0 65279 0 0 65279 0 0 65279 0 0 65279 0 0 65279 0 0 65279 0 0 65279 0 0 65279 0 0 65279 0 0 65279 0 0 65279 0 0 65279 0 0 65279 0 0 65279 0 0 65279 0 0 65279 0 0 65279 0 0 65279 0 0 65279 0 0 65279 0 0 65279 0 0 65279 0 0 65279 0 0 65279 0 0 65279 0 0 65279 0 0 65279 0 0 65279 0 0 65279 0 0 65279 0 0 65279 0 0 65279 0 0 65279 0 0 65279 0 0 65279 0 0 65279 0 0 65279 0 0 65279 0 0 65279 0 0 65279 0 0 65279 0 0 65279 0 0 65279 0 0 65279 0 0 65279 0 0 65279 0 0 65279 0 0 65279 0 0 65279 0 0 65279 0 0 65279 0 0 65279 0 0 65279 0 0 65279 0 0 65279 0 0 65279 0 0 65279 0 0 65279 0 0 65279 0 0 65279 0 0 65279 0 0 65279 0 0 65279 0 0 65279 0 0 65279 0 0 65279 0 0 65279 0 0 65279 0 0 65279 0 0 65279 0 0 65279 0 0 65279 0 0 65279 0 0 65279 0 0 65279 0 0 65279 0 0 65279 0 0 65279 0 0 65279 0 0 65279 0 0 65279 0 0 65279 0 0 65279 0 0 65279 0 0 65279 0 0 65279 0 0 65279 0 0 65279 0 0 65279 0 0 65279 0 0 65279 0 0 65279 0 0 65279 0 0 65279 0 0 65279 0 0 65279 0 0 65279 0 0 65279 0 0 65279 0 0 65279 0 0 65279 0 0 65279 0 0 65279 0 0 65279 0 0 65279 0 0 65279 0 0 65279 0 0 65279 0 0 65279 0 0 65279 0 0 65279 0 0 65279 0 0 65279 0 0 65279 0 0 65279 0 0 65279 0 0 65279 0 0 65279 0 0 65279 0 0 65279 0 0 65279 0 0 65279 0 0 65279 0 0 65279 0 0 65279 0 0 65279 0 0 65279 0 0 65279 0 0 65279 0 0 65279 0 0 65279 0 0 65279 0 0 65279 0 0 65279 0 0 65279 0 0 65279 0 0 65279 0 0 65279 0 0 65279 0 0 65279 0 0 65279 0 0 65279 0 0 65279 0 0 65279 0 0 65279 0 0 65279 0 0 65279 0 0 65279 0 0 65279 0 0 65279 0 0 65279 0 0 65279 0 0 65279 0 0 65279 0 0 65279 0 0 65279 0 0 65279 0 0 65279 0 0 65279 0 0 65279 0 0 65279 0 0 65279 0 0 65279 0 0 65279 0 0 65279 0 0 65279 0 0 65279 0 0 65279 0 0 65279 0 0 65279 0 0 65279 0 0 65279 0 0 65279 0 0 65279 0 0 65279 0 0 65279 0 0 65279 0 0 65279 0 0 65279 0 0 65279 0 0 65279 0 0 65279 0 0 65279 0 0 65279 0 0 65279 0 0 65279 0 0 65279 0 0 65279 0 0 65279 0 0 65279 0 0 65279 0 0 65279 0 0 65279 0 0 65279 0 0 65279 0 0 65279 0 0 65279 0 0 65279 0 0 65279 0 0 65279 0 0 65279 0 0 65279 0 0 65279 0 0 65279 0 0 65279 0 0 65279 0 0 65279 0 0 65279 0 0 65279 0 0 65279 0 0 65279 0 0 65279 0 0 65279 0 0 65279 0 0 65279 0 0 65279 0 0 65279 0 0 65279 0 0 65279 0 0 65279 0 0 65279 0 0 65279 0 0 65279 0 0 65279 0 0 65279 0 0 65279 0 0 65279 0 0 65279 0 0 65279 0 0 65279 0 0 65279 0 0 65279 0 0 65279 0 0 65279 0 0 65279 0 0 65279 0 0 65279 0 0 65279 0 0 65279 0 0 65279 0 0 65279 0 0 65279 0 0 65279 0 0 65279 0 0 65279 0 0 65279 0 0 65279 0 0 65279 0 0 65279 0 0 65279 0 0 65279 0 0 65279 0 0 65279 0 0 65279 0 0 65279 0 0 65279 0 0 65279 0 0 65279 0 0 65279 0 0 65279 0 0 65279 0 0 65279 0 0 65279 0 0 65279 0 0 65279 0 0 65279 0 0 65279 0 0 65279 0 0 65279 0 0 65279 0 0 65279 0 0 65279 0 0 65279 0 0 65279 0 0 65279 0 0 65279 0 0 65279 0 0 65279 0 0 65279 0 0 65279 0 0 65279 0 0 65279 0 0 65279 0 0 65279 0 0 65279 0 0 65279 0 0 65279 0 0 65279 0 0 65279 0 0 65279 0 0 65279 0 0 65279 0 0 65279 0 0 65279 0 0 65279 0 0 65279 0 0 65279 0 0 65279 0 0 65279 0 0 65279 0 0 65279 0 0 65279 0 0 65279 0 0 65279 0 0 65279 0 0 65279 0 0 65279 0 0 65279 0 0 65279 0 0 65279 0 0 65279 0 0 65279 0 0 65279 0 0 65279 0 0 65279 0 0 65279 0 0 65279 0 0 65279 0 0 65279 0 0 65279 0 0 65279 0 0 65279 0 0 65279 0 0 65279 0 0 65279 0 0 65279 0 0 65279 0 0 65279 0 0 65279 0 0 65279 0 0 65279 0 0 65279 0 0 65279 0 0 65279 0 0 65279 0 0 65279 0 0 65279 0 0 65279 0 0 65279 0 0 65279 0 0 65279 0 0 65279 0 0 65279 0 0 65279 0 0 65279 0 0 65279 0 0 65279 0 0 65279 0 0 65279 0 0 65279 0 0 65279 0 0 65279 0 0 65279 0 0 65279 0 0 65279 0 0 65279 0 0 65279 0 0 65279 0 0 65279 0 0 65279 0 0 65279 0 0 65279 0 0 65279 0 0 65279 0 0 65279 0 0 65279 0 0 65279 0 0 65279 0 0 65279 0 0 65279 0 0 65279 0 0 65279 0 0 65279 0 0 65279 0 0 65279 0 0 65279 0 0 65279 0 0 65279 0 0 65279 0 0 65279 0 0 65279 0 0 65279 0 0 65279 0 0 65279 0 0 65279 0 0 65279 0 0 65279 0 0 65279 0 0 65279 0 0 65279 0 0 65279 0 0 65279 0 0 65279 0 0 65279 0 0 65279 0 0 65279 0 0 65279 0 0 65279 0 0 65279 0 0 65279 0 0 65279 0 0 65279 0 0 65279 0 0 65279 0 0 65279 0 0 65279 0 0 65279 0 0 65279 0 0 65279 0 0 65279 0 0 65279 0 0 65279 0 0 65279 0 0 65279 0 0 65279 0 0 65279 0 0 65279 0 0 65279 0 0 65279 0 0 65279 0 0 65279 0 0 65279 0 0 65279 0 0 65279 0 0 65279 0 0 65279 0 0 65279 0 0 65279 0 0 65279 0 0 65279 0 0 65279 0 0 65279 0 0 65279 0 0 65279 0 0 65279 0 0 65279 0 0 65279 0 0 65279 0 0 65279 0 0 65279 0 0 65279 0 0 65279 0 0 65279 0 0 65279 0 0 65279 0 0 65279 0 0 65279 0 0 65279 0 0 65279 0 0 65279 0 0 65279 0 0 65279 0 0 65279 0 0 65279 0 0 65279 0 0 65279 0 0 65279 0 0 65279 0 0 65279 0 0 65279 0 0 65279 0 0 65279 0 0 65279 0 0 65279 0 0 65279 0 0 65279 0 0 65279 0 0 65279 0 0 65279 0 0 65279 0 0 65279 0 0 65279 0 0 65279 0 0 65279 0 0 65279 0 0 65279 0 0 65279 0 0 65279 0 0 65279 0 0 65279 0 0 65279 0 0 65279 0 0 65279 0 0 65279 0 0 65279 0 0 65279 0 0 65279 0 0 65279 0 0 65279 0 0 65279 0 0 65279 0 0 65279 0 0 65279 0 0 65279 0 0 65279 0 0 65279 0 0 65279 0 0 65279 0 0 65279 0 0 65279 0 0 65279 0 0 65279 0 0 65279 0 0 65279 0 0 65279 0 0 65279 0 0 65279 0 0 65279 0 0 65279 0 0 65279 0 0 65279 0 0 65279 0 0 65279 0 0 65279 0 0 65279 0 0 65279 0 0 65279 0 0 65279 0 0 65279 0 0 65279 0 0 65279 0 0 65279 0 0 65279 0 0 65279 0 0 65279 0 0 65279 0 0 65279 0 0 65279 0 0 65279 0 0 65279 0 0 65279 0 0 65279 0 0 65279 0 0 65279 0 0 65279 0 0 65279 0 0 65279 0 0 65279 0 0 65279 0 0 65279 0 0 65279 0 0 65279 0 0 65279 0 0 65279 0 0 65279 0 0 65279 0 0 65279 0 0 65279 0 0 65279 0 0 65279 0 0 65279 0 0 65279 0 0 65279 0 0 65279 0 0 65279 0 0 65279 0 0 65279 0 0 65279 0 0 65279 0 0 65279 0 0 65279 0 0 65279 0 0 65279 0 0 65279 0 0 65279 0 0 65279 0 0 65279 0 0 65279 0 0 65279 0 0 65279 0 0 65279 0 0 65279 0 0 65279 0 0 65279 0 0 65279 0 0 65279 0 0 65279 0 0 65279 0 0 65279 0 0 65279 0 0 65279 0 0 65279 0 0 65279 0 0 65279 0 0 65279 0 0 65279 0 0 65279 0 0 65279 0 0 65279 0 0 65279 0 0 65279 0 0 65279 0 0 65279 0 0 65279 0 0 65279 0 0 65279 0 0 65279 0 0 65279 0 0 65279 0 0 65279 0 0 65279 0 0 65279 0 0 65279 0 0 65279 0 0 65279 0 0 65279 0 0 65279 0 0 65279 0 0 65279 0 0 65279 0 0 65279 0 0 65279 0 0 65279 0 0 65279 0 0 65279 0 0 65279 0 0 65279 0 0 65279 0 0 65279 0 0 65279 0 0 65279 0 0 65279 0 0 65279 0 0 65279 0 0 65279 0 0 65279 0 0 65279 0 0 65279 0 0 65279 0 0 65279 0 0 65279 0 0 65279 0 0 65279 0 0 65279 0 0 65279 0 0 65279 0 0 65279 0 0 65279 0 0 65279 0 0 65279 0 0 65279 0 0 65279 0 0 65279 0 0 65279 0 0 65279 0 0 65279 0 0 65279 0 0 65279 0 0 65279 0 0 65279 0 0 65279 0 0 65279 0 0 65279 0 0 65279 0 0 65279 0 0 65279 0 0 65279 0 0 65279 0 0 65279 0 0 65279 0 0 65279 0 0 65279 0 0 65279 0 0 65279 0 0 65279 0 0 65279 0 0 65279 0 0 65279 0 0 65279 0 0 65279 0 0 65279 0 0 65279 0 0 65279 0 0 65279 0 0 65279 0 0 65279 0 0 65279 0 0 65279 0 0 65279 0 0 65279 0 0 65279 0 0 65279 0 0 65279 0 0 65279 0 0 65279 0 0 65279 0 0 65279 0 0 65279 0 0 65279 0 0 65279 0 0 65279 0 0 65279 0 0 65279 0 0 65279 0 0 65279 0 0 65279 0 0 65279 0 0 65279 0 0 65279 0 0 65279 0 0 65279 0 0 65279 0 0 65279 0 0 65279 0 0 65279 0 0 65279 0 0 65279 0 0 65279 0 0 65279 0 0 65279 0 0 65279 0 0 65279 0 0 65279 0 0 65279 0 0 65279 0 0 65279 0 0 65279 0 0 65279 0 0 65279 0 0 65279 0 0 65279 0 0 65279 0 0 65279 0 0 65279 0 0 65279 0 0 65279 0 0 65279 0 0 65279 0 0 65279 0 0 65279 0 0 65279 0 0 65279 0 0 65279 0 0 65279 0 0 65279 0 0 65279 0 0 65279 0 0 65279 0 0 65279 0 0 65279 0 0 65279 0 0 65279 0 0 65279 0 0 65279 0 0 65279 0 0 65279 0 0 65279 0 0 65279 0 0 65279 0 0 65279 0 0 65279 0 0 65279 0 0 65279 0 0 65279 0 0 65279 0 0 65279 0 0 65279 0 0 65279 0 0 65279 0 0 65279 0 0 65279 0 0 65279 0 0 65279 0 0 65279 0 0 65279 0 0 65279 0 0 65279 0 0 65279 0 0 65279 0 0 65279 0 0 65279 0 0 65279 0 0 65279 0 0 65279 0 0 65279 0 0 65279 0 0 65279 0 0 65279 0 0 65279 0 0 65279 0 0 65279 0 0 65279 0 0 65279 0 0 65279 0 0 65279 0 0 65279 0 0 65279 0 0 65279 0 0 65279 0 0 65279 0 0 65279 0 0 65279 0 0 65279 0 0 65279 0 0 65279 0 0 65279 0 0 65279 0 0 65279 0 0 65279 0 0 65279 0 0 65279 0 0 65279 0 0 65279 0 0 65279 0 0 65279 0 0 65279 0 0 65279 0 0 65279 0 0 65279 0 0 65279 0 0 65279 0 0 65279 0 0 65279 0 0 65279 0 0 65279 0 0 65279 0 0 65279 0 0 65279 0 0 65279 0 0 65279 0 0 65279 0 0 65279 0 0 65279 0 0 65279 0 0 65279 0 0 65279 0 0 65279 0 0 65279 0 0 65279 0 0 65279 0 0 65279 0 0 65279 0 0 65279 0 0 65279 0 0 65279 0 0 65279 0 0 65279 0 0 65279 0 0 65279 0 0 65279 0 0 65279 0 0 65279 0 0 65279 0 0 65279 0 0 65279 0 0 65279 0 0 65279 0 0 65279 0 0 65279 0 0 65279 0 0 65279 0 0 65279 0 0 65279 0 0 65279 0 0 65279 0 0 65279 0 0 65279 0 0 65279 0 0 65279 0 0 65279 0 0 65279 0 0 65279 0 0 65279 0 0 65279 0 0 65279 0 0 65279 0 0 65279 0 0 65279 0 0 65279 0 0 65279 0 0 65279 0 0 65279 0 0 65279 0 0 65279 0 0 65279 0 0 65279 0 0 65279 0 0 65279 0 0 65279 0 0 65279 0 0 65279 0 0 65279 0 0 65279 0 0 65279 0 0 65279 0 0 65279 0 0 65279 0 0 65279 0 0 65279 0 0 65279 0 0 65279 0 0 65279 0 0 65279 0 0 65279 0 0 65279 0 0 65279 0 0 65279 0 0 65279 0 0 65279 0 0 65279 0 0 65279 0 0 65279 0 0 65279 0 0 65279 0 0 65279 0 0 65279 0 0 65279 0 0 65279 0 0 65279 0 0 65279 0 0 65279 0 0 65279 0 0 65279 0 0 65279 0 0 65279 0 0 65279 0 0 65279 0 0 65279 0 0 65279 0 0 65279 0 0 65279 0 0 65279 0 0 65279 0 0 65279 0 0 65279 0 0 65279 0 0 65279 0 0 65279 0 0 65279 0 0 65279 0 0 65279 0 0 65279 0 0 65279 0 0 65279 0 0 65279 0 0 65279 0 0 65279 0 0 65279 0 0 65279 0 0 65279 0 0 65279 0 0 65279 0 0 65279 0 0 65279 0 0 65279 0 0 65279 0 0 65279 0 0 65279 0 0 65279 0 0 65279 0 0 65279 0 0 65279 0 0 65279 0 0 65279 0 0 65279 0 0 65279 0 0 65279 0 0 65279 0 0 65279 0 0 65279 0 0 65279 0 0 65279 0 0 65279 0 0 65279 0 0 65279 0 0 65279 0 0 65279 0 0 65279 0 0 65279 0 0 65279 0 0 65279 0 0 65279 0 0 65279 0 0 65279 0 0 65279 0 0 65279 0 0 65279 0 0 65279 0 0 65279 0 0 65279 0 0 65279 0 0 65279 0 0 65279 0 0 65279 0 0 65279 0 0 65279 0 0 65279 0 0 65279 0 0 65279 0 0 65279 0 0 65279 0 0 65279 0 0 65279 0 0 65279 0 0 65279 0 0 65279 0 0 65279 0 0 65279 0 0 65279 0 0 65279 0 0 65279 0 0 65279 0 0 65279 0 0 65279 0 0 65279 0 0 65279 0 0 65279 0 0 65279 0 0 65279 0 0 65279 0 0 65279 0 0 65279 0 0 65279 0 0 65279 0 0 65279 0 0 65279 0 0 65279 0 0 65279 0 0 65279 0 0 65279 0 0 65279 0 0 65279 0 0 65279 0 0 65279 0 0 65279 0 0 65279 0 0 65279 0 0 65279 0 0 65279 0 0 65279 0 0 65279 0 0 65279 0 0 65279 0 0 65279 0 0 65279 0 0 65279 0 0 65279 0 0 65279 0 0 65279 0 0 65279 0 0 65279 0 0 65279 0 0 65279 0 0 65279 0 0 65279 0 0 65279 0 0 65279 0 0 65279 0 0 65279 0 0 65279 0 0 65279 0 0 65279 0 0 65279 0 0 65279 0 0 65279 0 0 65279 0 0 65279 0 0 65279 0 0 65279 0 0 65279 0 0 65279 0 0 65279 0 0 65279 0 0 65279 0 0 65279 0 0 65279 0 0 65279 0 0 65279 0 0 65279 0 0 65279 0 0 65279 0 0 65279 0 0 65279 0 0 65279 0 0 65279 0 0 65279 0 0 65279 0 0 65279 0 0 65279 0 0 65279 0 0 65279 0 0 65279 0 0 65279 0 0 65279 0 0 65279 0 0 65279 0 0 65279 0 0 65279 0 0 65279 0 0 65279 0 0 65279 0 0 65279 0 0 65279 0 0 65279 0 0 65279 0 0 65279 0 0 65279 0 0 65279 0 0 65279 0 0 65279 0 0 65279 0 0 65279 0 0 65279 0 0 65279 0 0 65279 0 0 65279 0 0 65279 0 0 65279 0 0 65279 0 0 65279 0 0 65279 0 0 65279 0 0 65279 0 0 65279 0 0 65279 0 0 65279 0 0 65279 0 0 65279 0 0 65279 0 0 65279 0 0 65279 0 0 65279 0 0 65279 0 0 65279 0 0 65279 0 0 65279 0 0 65279 0 0 65279 0 0 65279 0 0 65279 0 0 65279 0 0 65279 0 0 65279 0 0 65279 0 0 65279 0 0 65279 0 0 65279 0 0 65279 0 0 65279 0 0 65279 0 0 65279 0 0 65279 0 0 65279 0 0 65279 0 0 65279 0 0 65279 0 0 65279 0 0 65279 0 0 65279 0 0 65279 0 0 65279 0 0 65279 0 0 65279 0 0 65279 0 0 65279 0 0 65279 0 0 65279 0 0 65279 0 0 65279 0 0 65279 0 0 65279 0 0 65279 0 0 65279 0 0 65279 0 0 65279 0 0 65279 0 0 65279 0 0 65279 0 0 65279 0 0 65279 0 0 65279 0 0 65279 0 0 65279 0 0 65279 0 0 65279 0 0 65279 0 0 65279 0 0 65279 0 0 65279 0 0 65279 0 0 65279 0 0 65279 0 0 65279 0 0 65279 0 0 65279 0 0 65279 0 0 65279 0 0 65279 0 0 65279 0 0 65279 0 0 65279 0 0 65279 0 0 65279 0 0 65279 0 0 65279 0 0 65279 0 0 65279 0 0 65279 0 0 65279 0 0 65279 0 0 65279 0 0 65279 0 0 65279 0 0 65279 0 0 65279 0 0 65279 0 0 65279 0 0 65279 0 0 65279 0 0 65279 0 0 65279 0 0 65279 0 0 65279 0 0 65279 0 0 65279 0 0 65279 0 0 65279 0 0 65279 0 0 65279 0 0 65279 0 0 65279 0 0 65279 0 0 65279 0 0 65279 0 0 65279 0 0 65279 0 0 65279 0 0 65279 0 0 65279 0 0 65279 0 0 65279 0 0 65279 0 0 65279 0 0 65279 0 0 65279 0 0 65279 0 0 65279 0 0 65279 0 0 65279 0 0 65279 0 0 65279 0 0 65279 0 0 65279 0 0 65279 0 0 65279 0 0 65279 0 0 65279 0 0 65279 0 0 65279 0 0 65279 0 0 65279 0 0 65279 0 0 65279 0 0 65279 0 0 65279 0 0 65279 0 0 65279 0 0 65279 0 0 65279 0 0 65279 0 0 65279 0 0 65279 0 0 65279 0 0 65279 0 0 65279 0 0 65279 0 0 65279 0 0 65279 0 0 65279 0 0 65279 0 0 65279 0 0 65279 0 0 65279 0 0 65279 0 0 65279 0 0 65279 0 0 65279 0 0 65279 0 0 65279 0 0 65279 0 0 65279 0 0 65279 0 0 65279 0 0 65279 0 0 65279 0 0 65279 0 0 65279 0 0 65279 0 0 65279 0 0 65279 0 0 65279 0 0 65279 0 0 65279 0 0 65279 0 0 65279 0 0 65279 0 0 65279 0 0 65279 0 0 65279 0 0 65279 0 0 65279 0 0 65279 0 0 65279 0 0 65279 0 0 65279 0 0 65279 0 0 65279 0 0 65279 0 0 65279 0 0 65279 0 0 65279 0 0 65279 0 0 65279 0 0 65279 0 0 65279 0 0 65279 0 0 65279 0 0 65279 0 0 65279 0 0 65279 0 0 65279 0 0 65279 0 0 65279 0 0 65279 0 0 65279 0 0 65279 0 0 65279 0 0 65279 0 0 65279 0 0 65279 0 0 65279 0 0 65279 0 0 65279 0 0 65279 0 0 65279 0 0 65279 0 0 65279 0 0 65279 0 0 65279 0 0 65279 0 0 65279 0 0 65279 0 0 65279 0 0 65279 0 0 65279 0 0 65279 0 0 65279 0 0 65279 0 0 65279 0 0 65279 0 0 65279 0 0 65279 0 0 65279 0 0 65279 0 0 65279 0 0 65279 0 0 65279 0 0 65279 0 0 65279 0 0 65279 0 0 65279 0 0 65279 0 0 65279 0 0 65279 0 0 65279 0 0 65279 0 0 65279 0 0 65279 0 0 65279 0 0 65279 0 0 65279 0 0 65279 0 0 65279 0 0 65279 0 0 65279 0 0 65279 0 0 65279 0 0 65279 0 0 65279 0 0 65279 0 0 65279 0 0 65279 0 0 65279 0 0 65279 0 0 65279 0 0 65279 0 0 65279 0 0 65279 0 0 65279 0 0 65279 0 0 65279 0 0 65279 0 0 65279 0 0 65279 0 0 65279 0 0 65279 0 0 65279 0 0 65279 0 0 65279 0 0 65279 0 0 65279 0 0 65279 0 0 65279 0 0 65279 0 0 65279 0 0 65279 0 0 65279 0 0 65279 0 0 65279 0 0 65279 0 0 65279 0 0 65279 0 0 65279 0 0 65279 0 0 65279 0 0 65279 0 0 65279 0 0 65279 0 0 65279 0 0 65279 0 0 65279 0 0 65279 0 0 65279 0 0 65279 0 0 65279 0 0 65279 0 0 65279 0 0 65279 0 0 65279 0 0 65279 0 0 65279 0 0 65279 0 0 65279 0 0 65279 0 0 65279 0 0 65279 0 0 65279 0 0 65279 0 0 65279 0 0 65279 0 0 65279 0 0 65279 0 0 65279 0 0 65279 0 0 65279 0 0 65279 0 0 65279 0 0 65279 0 0 65279 0 0 65279 0 0 65279 0 0 65279 0 0 65279 0 0 65279 0 0 65279 0 0 65279 0 0 65279 0 0 65279 0 0 65279 0 0 65279 0 0 65279 0 0 65279 0 0 65279 0 0 65279 0 0 65279 0 0 65279 0 0 65279 0 0 65279 0 0 65279 0 0 65279 0 0 65279 0 0 65279 0 0 65279 0 0 65279 0 0 65279 0 0 65279 0 0 65279 0 0 65279 0 0 65279 0 0 65279 0 0 65279 0 0 65279 0 0 65279 0 0 65279 0 0 65279 0 0 65279 0 0 65279 0 0 65279 0 0 65279 0 0 65279 0 0 65279 0 0 65279 0 0 65279 0 0 65279 0 0 65279 0 0 65279 0 0 65279 0 0 65279 0 0 65279 0 0 65279 0 0 65279 0 0 65279 0 0 65279 0 0 65279 0 0 65279 0 0 65279 0 0 65279 0 0 65279 0 0 65279 0 0 65279 0 0 65279 0 0 65279 0 0 65279 0 0 65279 0 0 65279 0 0 65279 0 0 65279 0 0 65279 0 0 65279 0 0 65279 0 0 65279 0 0 65279 0 0 65279 0 0 65279 0 0 65279 0 0 65279 0 0 65279 0 0 65279 0 0 65279 0 0 65279 0 0 65279 0 0 65279 0 0 65279 0 0 65279 0 0 65279 0 0 65279 0 0 65279 0 0 65279 0 0 65279 0 0 65279 0 0 65279 0 0 65279 0 0 65279 0 0 65279 0 0 65279 0 0 65279 0 0 65279 0 0 65279 0 0 65279 0 0 65279 0 0 65279 0 0 65279 0 0 65279 0 0 65279 0 0 65279 0 0 65279 0 0 65279 0 0 65279 0 0 65279 0 0 65279 0 0 65279 0 0 65279 0 0 65279 0 0 65279 0 0 65279 0 0 65279 0 0 65279 0 0 65279 0 0 65279 0 0 65279 0 0 65279 0 0 65279 0 0 65279 0 0 65279 0 0 65279 0 0 65279 0 0 65279 0 0 65279 0 0 65279 0 0 65279 0 0 65279 0 0 65279 0 0 65279 0 0 65279 0 0 65279 0 0 65279 0 0 65279 0 0 65279 0 0 65279 0 0 65279 0 0 65279 0 0 65279 0 0 65279 0 0 65279 0 0 65279 0 0 65279 0 0 65279 0 0 65279 0 0 65279 0 0 65279 0 0 65279 0 0 65279 0 0 65279 0 0 65279 0 0 65279 0 0 65279 0 0 65279 0 0 65279 0 0 65279 0 0 65279 0 0 65279 0 0 65279 0 0 65279 0 0 65279 0 0 65279 0 0 65279 0 0 65279 0 0 65279 0 0 65279 0 0 65279 0 0 65279 0 0 65279 0 0 65279 0 0 65279 0 0 65279 0 0 65279 0 0 65279 0 0 65279 0 0 65279 0 0 65279 0 0 65279 0 0 65279 0 0 65279 0 0 65279 0 0 65279 0 0 65279 0 0 65279 0 0 65279 0 0 65279 0 0 65279 0 0 65279 0 0 65279 0 0 65279 0 0 65279 0 0 65279 0 0 65279 0 0 65279 0 0 65279 0 0 65279 0 0 65279 0 0 65279 0 0 65279 0 0 65279 0 0 65279 0 0 65279 0 0 65279 0 0 65279 0 0 65279 0 0 65279 0 0 65279 0 0 65279 0 0 65279 0 0 65279 0 0 65279 0 0 65279 0 0 65279 0 0 65279 0 0 65279 0 0 65279 0 0 65279 0 0 65279 0 0 65279 0 0 65279 0 0 65279 0 0 65279 0 0 65279 0 0 65279 0 0 65279 0 0 65279 0 0 65279 0 0 65279 0 0 65279 0 0 65279 0 0 65279 0 0 65279 0 0 65279 0 0 65279 0 0 65279 0 0 65279 0 0 65279 0 0 65279 0 0 65279 0 0 65279 0 0 65279 0 0 65279 0 0 65279 0 0 65279 0 0 65279 0 0 65279 0 0 65279 0 0 65279 0 0 65279 0 0 65279 0 0 65279 0 0 65279 0 0 65279 0 0 65279 0 0 65279 0 0 65279 0 0 65279 0 0 65279 0 0 65279 0 0 65279 0 0 65279 0 0 65279 0 0 65279 0 0 65279 0 0 65279 0 0 65279 0 0 65279 0 0 65279 0 0 65279 0 0 65279 0 0 65279 0 0 65279 0 0 65279 0 0 65279 0 0 65279 0 0 65279 0 0 65279 0 0 65279 0 0 65279 0 0 65279 0 0 65279 0 0 65279 0 0 65279 0 0 65279 0 0 65279 0 0 65279 0 0 65279 0 0 65279 0 0 65279 0 0 65279 0 0 65279 0 0 65279 0 0 65279 0 0 65279 0 0 65279 0 0 65279 0 0 65279 0 0 65279 0 0 65279 0 0 65279 0 0 65279 0 0 65279 0 0 65279 0 0 65279 0 0 65279 0 0 65279 0 0 65279 0 0 65279 0 0 65279 0 0 65279 0 0 65279 0 0 65279 0 0 65279 0 0 65279 0 0 65279 0 0 65279 0 0 65279 0 0 65279 0 0 65279 0 0 65279 0 0 65279 0 0 65279 0 0 65279 0 0 65279 0 0 65279 0 0 65279 0 0 65279 0 0 65279 0 0 65279 0 0 65279 0 0 65279 0 0 65279 0 0 65279 0 0 65279 0 0 65279 0 0 65279 0 0 65279 0 0 65279 0 0 65279 0 0 65279 0 0 65279 0 0 65279 0 0 65279 0 0 65279 0 0 65279 0 0 65279 0 0 65279 0 0 65279 0 0 65279 0 0 65279 0 0 65279 0 0 65279 0 0 65279 0 0 65279 0 0 65279 0 0 65279 0 0 65279 0 0 65279 0 0 65279 0 0 65279 0 0 65279 0 0 65279 0 0 65279 0 0 65279 0 0 65279 0 0 65279 0 0 65279 0 0 65279 0 0 65279 0 0 65279 0 0 65279 0 0 65279 0 0 65279 0 0 65279 0 0 65279 0 0 65279 0 0 65279 0 0 65279 0 0 65279 0 0 65279 0 0 65279 0 0 65279 0 0 65279 0 0 65279 0 0 65279 0 0 65279 0 0 65279 0 0 65279 0 0 65279 0 0 65279 0 0 65279 0 0 65279 0 0 65279 0 0 65279 0 0 65279 0 0 65279 0 0 65279 0 0 65279 0 0 65279 0 0 65279 0 0 65279 0 0 65279 0 0 65279 0 0 65279 0 0 65279 0 0 65279 0 0 65279 0 0 65279 0 0 65279 0 0 65279 0 0 65279 0 0 65279 0 0 65279 0 0 65279 0 0 65279 0 0 65279 0 0 65279 0 0 65279 0 0 65279 0 0 65279 0 0 65279 0 0 65279 0 0 65279 0 0 65279 0 0 65279 0 0 65279 0 0 65279 0 0 65279 0 0 65279 0 0 65279 0 0 65279 0 0 65279 0 0 65279 0 0 65279 0 0 65279 0 0 65279 0 0 65279 0 0 65279 0 0 65279 0 0 65279 0 0 65279 0 0 65279 0 0 65279 0 0 65279 0 0 65279 0 0 65279 0 0 65279 0 0 65279 0 0 65279 0 0 65279 0 0 65279 0 0 65279 0 0 65279 0 0 65279 0 0 65279 0 0 65279 0 0 65279 0 0 65279 0 0 65279 0 0 65279 0 0 65279 0 0 65279 0 0 65279 0 0 65279 0 0 65279 0 0 65279 0 0 65279 0 0 65279 0 0 65279 0 0 65279 0 0 65279 0 0 65279 0 0 65279 0 0 65279 0 0 65279 0 0 65279 0 0 65279 0 0 65279 0 0 65279 0 0 65279 0 0 65279 0 0 65279 0 0 65279 0 0 65279 0 0 65279 0 0 65279 0 0 65279 0 0 65279 0 0 65279 0 0 65279 0 0 65279 0 0 65279 0 0 65279 0 0 65279 0 0 65279 0 0 65279 0 0 65279 0 0 65279 0 0 65279 0 0 65279 0 0 65279 0 0 65279 0 0 65279 0 0 65279 0 0 65279 0 0 65279 0 0 65279 0 0 65279 0 0 65279 0 0 65279 0 0 65279 0 0 65279 0 0 65279 0 0 65279 0 0 65279 0 0 65279 0 0 65279 0 0 65279 0 0 65279 0 0 65279 0 0 65279 0 0 65279 0 0 65279 0 0 65279 0 0 65279 0 0 65279 0 0 65279 0 0 65279 0 0 65279 0 0 65279 0 0 65279 0 0 65279 0 0 65279 0 0 65279 0 0 65279 0 0 65279 0 0 65279 0 0 65279 0 0 65279 0 0 65279 0 0 65279 0 0 65279 0 0 65279 0 0 65279 0 0 65279 0 0 65279 0 0 65279 0 0 65279 0 0 65279 0 0 65279 0 0 65279 0 0 65279 0 0 65279 0 0 65279 0 0 65279 0 0 65279 0 0 65279 0 0 65279 0 0 65279 0 0 65279 0 0 65279 0 0 65279 0 0 65279 0 0 65279 0 0 65279 0 0 65279 0 0 65279 0 0 65279 0 0 65279 0 0 65279 0 0 65279 0 0 65279 0 0 65279 0 0 65279 0 0 65279 0 0 65279 0 0 65279 0 0 65279 0 0 65279 0 0 65279 0 0 65279 0 0 65279 0 0 65279 0 0 65279 0 0 65279 0 0 65279 0 0 65279 0 0 65279 0 0 65279 0 0 65279 0 0 65279 0 0 65279 0 0 65279 0 0 65279 0 0 65279 0 0 65279 0 0 65279 0 0 65279 0 0 65279 0 0 65279 0 0 65279 0 0 65279 0 0 65279 0 0 65279 0 0 65279 0 0 65279 0 0 65279 0 0 65279 0 0 65279 0 0 65279 0 0 65279 0 0 65279 0 0 65279 0 0 65279 0 0 65279 0 0 65279 0 0 65279 0 0 65279 0 0 65279 0 0 65279 0 0 65279 0 0 65279 0 0 65279 0 0 65279 0 0 65279 0 0 65279 0 0 65279 0 0 65279 0 0 65279 0 0 65279 0 0 65279 0 0 65279 0 0 65279 0 0 65279 0 0 65279 0 0 65279 0 0 65279 0 0 65279 0 0 65279 0 0 65279 0 0 65279 0 0 65279 0 0 65279 0 0 65279 0 0 65279 0 0 65279 0 0 65279 0 0 65279 0 0 65279 0 0 65279 0 0 65279 0 0 65279 0 0 65279 0 0 65279 0 0 65279 0 0 65279 0 0 65279 0 0 65279 0 0 65279 0 0 65279 0 0 65279 0 0 65279 0 0 65279 0 0 65279 0 0 65279 0 0 65279 0 0 65279 0 0 65279 0 0 65279 0 0 65279 0 0 65279 0 0 65279 0 0 65279 0 0 65279 0 0 65279 0 0 65279 0 0 65279 0 0 65279 0 0 65279 0 0 65279 0 0 65279 0 0 65279 0 0 65279 0 0 65279 0 0 65279 0 0 65279 0 0 65279 0 0 65279 0 0 65279 0 0 65279 0 0 65279 0 0 65279 0 0 65279 0 0 65279 0 0 65279 0 0 65279 0 0 65279 0 0 65279 0 0 65279 0 0 65279 0 0 65279 0 0 65279 0 0 65279 0 0 65279 0 0 65279 0 0 65279 0 0 65279 0 0 65279 0 0 65279 0 0 65279 0 0 65279 0 0 65279 0 0 65279 0 0 65279 0 0 65279 0 0 65279 0 0 65279 0 0 65279 0 0 65279 0 0 65279 0 0 65279 0 0 65279 0 0 65279 0 0 65279 0 0 65279 0 0 65279 0 0 65279 0 0 65279 0 0 65279 0 0 65279 0 0 65279 0 0 65279 0 0 65279 0 0 65279 0 0 65279 0 0 65279 0 0 65279 0 0 65279 0 0 65279 0 0 65279 0 0 65279 0 0 65279 0 0 65279 0 0 65279 0 0 65279 0 0 65279 0 0 65279 0 0 65279 0 0 65279 0 0 65279 0 0 65279 0 0 65279 0 0 65279 0 0 65279 0 0 65279 0 0 65279 0 0 65279 0 0 65279 0 0 65279 0 0 65279 0 0 65279 0 0 65279 0 0 65279 0 0 65279 0 0 65279 0 0 65279 0 0 65279 0 0 65279 0 0 65279 0 0 65279 0 0 65279 0 0 65279 0 0 65279 0 0 65279 0 0 65279 0 0 65279 0 0 65279 0 0 65279 0 0 65279 0 0 65279 0 0 65279 0 0 65279 0 0 65279 0 0 65279 0 0 65279 0 0 65279 0 0 65279 0 0 65279 0 0 65279 0 0 65279 0 0 65279 0 0 65279 0 0 65279 0 0 65279 0 0 65279 0 0 65279 0 0 65279 0 0 65279 0 0 65279 0 0 65279 0 0 65279 0 0 65279 0 0 65279 0 0 65279 0 0 65279 0 0 65279 0 0 65279 0 0 65279 0 0 65279 0 0 65279 0 0 65279 0 0 65279 0 0 65279 0 0 65279 0 0 65279 0 0 65279 0 0 65279 0 0 65279 0 0 65279 0 0 65279 0 0 65279 0 0 65279 0 0 65279 0 0 65279 0 0 65279 0 0 65279 0 0 65279 0 0 65279 0 0 65279 0 0 65279 0 0 65279 0 0 65279 0 0 65279 0 0 65279 0 0 65279 0 0 65279 0 0 65279 0 0 65279 0 0 65279 0 0 65279 0 0 65279 0 0 65279 0 0 65279 0 0 65279 0 0 65279 0 0 65279 0 0 65279 0 0 65279 0 0 65279 0 0 65279 0 0 65279 0 0 65279 0 0 65279 0 0 65279 0 0 65279 0 0 65279 0 0 65279 0 0 65279 0 0 65279 0 0 65279 0 0 65279 0 0 65279 0 0 65279 0 0 65279 0 0 65279 0 0 65279 0 0 65279 0 0 65279 0 0 65279 0 0 65279 0 0 65279 0 0 65279 0 0 65279 0 0 65279 0 0 65279 0 0 65279 0 0 65279 0 0 65279 0 0 65279 0 0 65279 0 0 65279 0 0 65279 0 0 65279 0 0 65279 0 0 65279 0 0 65279 0 0 65279 0 0 65279 0 0 65279 0 0 65279 0 0 65279 0 0 65279 0 0 65279 0 0 65279 0 0 65279 0 0 65279 0 0 65279 0 0 65279 0 0 65279 0 0 65279 0 0 65279 0 0 65279 0 0 65279 0 0 65279 0 0 65279 0 0 65279 0 0 65279 0 0 65279 0 0 65279 0 0 65279 0 0 65279 0 0 65279 0 0 65279 0 0 65279 0 0 65279 0 0 65279 0 0 65279 0 0 65279 0 0 65279 0 0 65279 0 0 65279 0 0 65279 0 0 65279 0 0 65279 0 0 65279 0 0 65279 0 0 65279 0 0 65279 0 0 65279 0 0 65279 0 0 65279 0 0 65279 0 0 65279 0 0 65279 0 0 65279 0 0 65279 0 0 65279 0 0 65279 0 0 65279 0 0 65279 0 0 65279 0 0 65279 0 0 65279 0 0 65279 0 0 65279 0 0 65279 0 0 65279 0 0 65279 0 0 65279 0 0 65279 0 0 65279 0 0 65279 0 0 65279 0 0 65279 0 0 65279 0 0 65279 0 0 65279 0 0 65279 0 0 65279 0 0 65279 0 0 65279 0 0 65279 0 0 65279 0 0 65279 0 0 65279 0 0 65279 0 0 65279 0 0 65279 0 0 65279 0 0 65279 0 0 65279 0 0 65279 0 0 65279 0 0 65279 0 0 65279 0 0 65279 0 0 65279 0 0 65279 0 0 65279 0 0 65279 0 0 65279 0 0 65279 0 0 65279 0 0 65279 0 0 65279 0 0 65279 0 0 65279 0 0 65279 0 0 65279 0 0 65279 0 0 65279 0 0 65279 0 0 65279 0 0 65279 0 0 65279 0 0 65279 0 0 65279 0 0 65279 0 0 65279 0 0 65279 0 0 65279 0 0 65279 0 0 65279 0 0 65279 0 0 65279 0 0 65279 0 0 65279 0 0 65279 0 0 65279 0 0 65279 0 0 65279 0 0 65279 0 0 65279 0 0 65279 0 0 65279 0 0 65279 0 0 65279 0 0 65279 0 0 65279 0 0 65279 0 0 65279 0 0 65279 0 0 65279 0 0 65279 0 0 65279 0 0 65279 0 0 65279 0 0 65279 0 0 65279 0 0 65279 0 0 65279 0 0 65279 0 0 65279 0 0 65279 0 0 65279 0 0 65279 0 0 65279 0 0 65279 0 0 65279 0 0 65279 0 0 65279 0 0 65279 0 0 65279 0 0 65279 0 0 65279 0 0 65279 0 0 65279 0 0 65279 0 0 65279 0 0 65279 0 0 65279 0 0 65279 0 0 65279 0 0 65279 0 0 65279 0 0 65279 0 0 65279 0 0 65279 0 0 65279 0 0 65279 0 0 65279 0 0 65279 0 0 65279 0 0 65279 0 0 65279 0 0 65279 0 0 65279 0 0 65279 0 0 65279 0 0 65279 0 0 65279 0 0 65279 0 0 65279 0 0 65279 0 0 65279 0 0 65279 0 0 65279 0 0 65279 0 0 65279 0 0 65279 0 0 65279 0 0 65279 0 0 65279 0 0 65279 0 0 65279 0 0 65279 0 0 65279 0 0 65279 0 0 65279 0 0 65279 0 0 65279 0 0 65279 0 0 65279 0 0 65279 0 0 65279 0 0 65279 0 0 65279 0 0 65279 0 0 65279 0 0 65279 0 0 65279 0 0 65279 0 0 65279 0 0 65279 0 0 65279 0 0 65279 0 0 65279 0 0 65279 0 0 65279 0 0 65279 0 0 65279 0 0 65279 0 0 65279 0 0 65279 0 0 65279 0 0 65279 0 0 65279 0 0 65279 0 0 65279 0 0 65279 0 0 65279 0 0 65279 0 0 65279 0 0 65279 0 0 65279 0 0 65279 0 0 65279 0 0 65279 0 0 65279 0 0 65279 0 0 65279 0 0 65279 0 0 65279 0 0 65279 0 0 65279 0 0 65279 0 0 65279 0 0 65279 0 0 65279 0 0 65279 0 0 65279 0 0 65279 0 0 65279 0 0 65279 0 0 65279 0 0 65279 0 0 65279 0 0 65279 0 0 65279 0 0 65279 0 0 65279 0 0 65279 0 0 65279 0 0 65279 0 0 65279 0 0 65279 0 0 65279 0 0 65279 0 0 65279 0 0 65279 0 0 65279 0 0 65279 0 0 65279 0 0 65279 0 0 65279 0 0 65279 0 0 65279 0 0 65279 0 0 65279 0 0 65279 0 0 65279 0 0 65279 0 0 65279 0 0 65279 0 0 65279 0 0 65279 0 0 65279 0 0 65279 0 0 65279 0 0 65279 0 0 65279 0 0 65279 0 0 65279 0 0 65279 0 0 65279 0 0 65279 0 0 65279 0 0 65279 0 0 65279 0 0 65279 0 0 65279 0 0 65279 0 0 65279 0 0 65279 0 0 65279 0 0 65279 0 0 65279 0 0 65279 0 0 65279 0 0 65279 0 0 65279 0 0 65279 0 0 65279 0 0 65279 0 0 65279 0 0 65279 0 0 65279 0 0 65279 0 0 65279 0 0 65279 0 0 65279 0 0 65279 0 0 65279 0 0 65279 0 0 65279 0 0 65279 0 0 65279 0 0 65279 0 0 65279 0 0 65279 0 0 65279 0 0 65279 0 0 65279 0 0 65279 0 0 65279 0 0 65279 0 0 65279 0 0 65279 0 0 65279 0 0 65279 0 0 65279 0 0 65279 0 0 65279 0 0 65279 0 0 65279 0 0 65279 0 0 65279 0 0 65279 0 0 65279 0 0 65279 0 0 65279 0 0 65279 0 0 65279 0 0 65279 0 0 65279 0 0 65279 0 0 65279 0 0 65279 0 0 65279 0 0 65279 0 0 65279 0 0 65279 0 0 65279 0 0 65279 0 0 65279 0 0 65279 0 0 65279 0 0 65279 0 0 65279 0 0 65279 0 0 65279 0 0 65279 0 0 65279 0 0 65279 0 0 65279 0 0 65279 0 0 65279 0 0 65279 0 0 65279 0 0 65279 0 0 65279 0 0 65279 0 0 65279 0 0 65279 0 0 65279 0 0 65279 0 0 65279 0 0 65279 0 0 65279 0 0 65279 0 0 65279 0 0 65279 0 0 65279 0 0 65279 0 0 65279 0 0 65279 0 0 65279 0 0 65279 0 0 65279 0 0 65279 0 0 65279 0 0 65279 0 0 65279 0 0 65279 0 0 65279 0 0 65279 0 0 65279 0 0 65279 0 0 65279 0 0 65279 0 0 65279 0 0 65279 0 0 65279 0 0 65279 0 0 65279 0 0 65279 0 0 65279 0 0 65279 0 0 65279 0 0 65279 0 0 65279 0 0 65279 0 0 65279 0 0 65279 0 0 65279 0 0 65279 0 0 65279 0 0 65279 0 0 65279 0 0 65279 0 0 65279 0 0 65279 0 0 65279 0 0 65279 0 0 65279 0 0 65279 0 0 65279 0 0 65279 0 0 65279 0 0 65279 0 0 65279 0 0 65279 0 0 65279 0 0 65279 0 0 65279 0 0 65279 0 0 65279 0 0 65279 0 0 65279 0 0 65279 0 0 65279 0 0 65279 0 0 65279 0 0 65279 0 0 65279 0 0 65279 0 0 65279 0 0 65279 0 0 65279 0 0 65279 0 0 65279 0 0 65279 0 0 65279 0 0 65279 0 0 65279 0 0 65279 0 0 65279 0 0 65279 0 0 65279 0 0 65279 0 0 65279 0 0 65279 0 0 65279 0 0 65279 0 0 65279 0 0 65279 0 0 65279 0 0 65279 0 0 65279 0 0 65279 0 0 65279 0 0 65279 0 0 65279 0 0 65279 0 0 65279 0 0 65279 0 0 65279 0 0 65279 0 0 65279 0 0 65279 0 0 65279 0 0 65279 0 0 65279 0 0 65279 0 0 65279 0 0 65279 0 0 65279 0 0 65279 0 0 65279 0 0 65279 0 0 65279 0 0 65279 0 0 65279 0 0 65279 0 0 65279 0 0 65279 0 0 65279 0 0 65279 0 0 65279 0 0 65279 0 0 65279 0 0 65279 0 0 65279 0 0 65279 0 0 65279 0 0 65279 0 0 65279 0 0 65279 0 0 65279 0 0 65279 0 0 65279 0 0 65279 0 0 65279 0 0 65279 0 0 65279 0 0 65279 0 0 65279 0 0 65279 0 0 65279 0 0 65279 0 0 65279 0 0 65279 0 0 65279 0 0 65279 0 0 65279 0 0 65279 0 0 65279 0 0 65279 0 0 65279 0 0 65279 0 0 65279 0 0 65279 0 0 65279 0 0 65279 0 0 65279 0 0 65279 0 0 65279 0 0 65279 0 0 65279 0 0 65279 0 0 65279 0 0 65279 0 0 65279 0 0 65279 0 0 65279 0 0 65279 0 0 65279 0 0 65279 0 0 65279 0 0 65279 0 0 65279 0 0 65279 0 0 65279 0 0 65279 0 0 65279 0 0 65279 0 0 65279 0 0 65279 0 0 65279 0 0 65279 0 0 65279 0 0 65279 0 0 65279 0 0 65279 0 0 65279 0 0 65279 0 0 65279 0 0 65279 0 0 65279 0 0 65279 0 0 65279 0 0 65279 0 0 65279 0 0 65279 0 0 65279 0 0 65279 0 0 65279 0 0 65279 0 0 65279 0 0 65279 0 0 65279 0 0 65279 0 0 65279 0 0 65279 0 0 65279 0 0 65279 0 0 65279 0 0 65279 0 0 65279 0 0 65279 0 0 65279 0 0 65279 0 0 65279 0 0 65279 0 0 65279 0 0 65279 0 0 65279 0 0 65279 0 0 65279 0 0 65279 0 0 65279 0 0 65279 0 0 65279 0 0 65279 0 0 65279 0 0 65279 0 0 65279 0 0 65279 0 0 65279 0 0 65279 0 0 65279 0 0 65279 0 0 65279 0 0 65279 0 0 65279 0 0 65279 0 0 65279 0 0 65279 0 0 65279 0 0 65279 0 0 65279 0 0 65279 0 0 65279 0 0 65279 0 0 65279 0 0 65279 0 0 65279 0 0 65279 0 0 65279 0 0 65279 0 0 65279 0 0 65279 0 0 65279 0 0 65279 0 0 65279 0 0 65279 0 0 65279 0 0 65279 0 0 65279 0 0 65279 0 0 65279 0 0 65279 0 0 65279 0 0 65279 0 0 65279 0 0 65279 0 0 65279 0 0 65279 0 0 65279 0 0 65279 0 0 65279 0 0 65279 0 0 65279 0 0 65279 0 0 65279 0 0 65279 0 0 65279 0 0 65279 0 0 65279 0 0 65279 0 0 65279 0 0 65279 0 0 65279 0 0 65279 0 0 65279 0 0 65279 0 0 65279 0 0 65279 0 0 65279 0 0 65279 0 0 65279 0 0 65279 0 0 65279 0 0 65279 0 0 65279 0 0 65279 0 0 65279 0 0 65279 0 0 65279 0 0 65279 0 0 65279 0 0 65279 0 0 65279 0 0 65279 0 0 65279 0 0 65279 0 0 65279 0 0 65279 0 0 65279 0 0 65279 0 0 65279 0 0 65279 0 0 65279 0 0 65279 0 0 65279 0 0 65279 0 0 65279 0 0 65279 0 0 65279 0 0 65279 0 0 65279 0 0 65279 0 0 65279 0 0 65279 0 0 65279 0 0 65279 0 0 65279 0 0 65279 0 0 65279 0 0 65279 0 0 65279 0 0 65279 0 0 65279 0 0 65279 0 0 65279 0 0 65279 0 0 65279 0 0 65279 0 0 65279 0 0 65279 0 0 65279 0 0 65279 0 0 65279 0 0 65279 0 0 65279 0 0 65279 0 0 65279 0 0 65279 0 0 65279 0 0 65279 0 0 65279 0 0 65279 0 0 65279 0 0 65279 0 0 65279 0 0 65279 0 0 65279 0 0 65279 0 0 65279 0 0 65279 0 0 65279 0 0 65279 0 0 65279 0 0 65279 0 0 65279 0 0 65279 0 0 65279 0 0 65279 0 0 65279 0 0 65279 0 0 65279 0 0 65279 0 0 65279 0 0 65279 0 0 65279 0 0 65279 0 0 65279 0 0 65279 0 0 65279 0 0 65279 0 0 65279 0 0 65279 0 0 65279 0 0 65279 0 0 65279 0 0 65279 0 0 65279 0 0 65279 0 0 65279 0 0 65279 0 0 65279 0 0 65279 0 0 65279 0 0 65279 0 0 65279 0 0 65279 0 0 65279 0 0 65279 0 0 65279 0 0 65279 0 0 65279 0 0 65279 0 0 65279 0 0 65279 0 0 65279 0 0 65279 0 0 65279 0 0 65279 0 0 65279 0 0 65279 0 0 65279 0 0 65279 0 0 65279 0 0 65279 0 0 65279 0 0 65279 0 0 65279 0 0 65279 0 0 65279 0 0 65279 0 0 65279 0 0 65279 0 0 65279 0 0 65279 0 0 65279 0 0 65279 0 0 65279 0 0 65279 0 0 65279 0 0 65279 0 0 65279 0 0 65279 0 0 65279 0 0 65279 0 0 65279 0 0 65279 0 0 65279 0 0 65279 0 0 65279 0 0 65279 0 0 65279 0 0 65279 0 0 65279 0 0 65279 0 0 65279 0 0 65279 0 0 65279 0 0 65279 0 0 65279 0 0 65279 0 0 65279 0 0 65279 0 0 65279 0 0 65279 0 0 65279 0 0 65279 0 0 65279 0 0 65279 0 0 65279 0 0 65279 0 0 65279 0 0 65279 0 0 65279 0 0 65279 0 0 65279 0 0 65279 0 0 65279 0 0 65279 0 0 65279 0 0 65279 0 0 65279 0 0 65279 0 0 65279 0 0 65279 0 0 65279 0 0 65279 0 0 65279 0 0 65279 0 0 65279 0 0 65279 0 0 65279 0 0 65279 0 0 65279 0 0 65279 0 0 65279 0 0 65279 0 0 65279 0 0 65279 0 0 65279 0 0 65279 0 0 65279 0 0 65279 0 0 65279 0 0 65279 0 0 65279 0 0 65279 0 0 65279 0 0 65279 0 0 65279 0 0 65279 0 0 65279 0 0 65279 0 0 65279 0 0 65279 0 0 65279 0 0 65279 0 0 65279 0 0 65279 0 0 65279 0 0 65279 0 0 65279 0 0 65279 0 0 65279 0 0 65279 0 0 65279 0 0 65279 0 0 65279 0 0 65279 0 0 65279 0 0 65279 0 0 65279 0 0 65279 0 0 65279 0 0 65279 0 0 65279 0 0 65279 0 0 65279 0 0 65279 0 0 65279 0 0 65279 0 0 65279 0 0 65279 0 0 65279 0 0 65279 0 0 65279 0 0 65279 0 0 65279 0 0 65279 0 0 65279 0 0 65279 0 0 65279 0 0 65279 0 0 65279 0 0 65279 0 0 65279 0 0 65279 0 0 65279 0 0 65279 0 0 65279 0 0 65279 0 0 65279 0 0 65279 0 0 65279 0 0 65279 0 0 65279 0 0 65279 0 0 65279 0 0 65279 0 0 65279 0 0 65279 0 0 65279 0 0 65279 0 0 65279 0 0 65279 0 0 65279 0 0 65279 0 0 65279 0 0 65279 0 0 65279 0 0 65279 0 0 65279 0 0 65279 0 0 65279 0 0 65279 0 0 65279 0 0 65279 0 0 65279 0 0 65279 0 0 65279 0 0 65279 0 0 65279 0 0 65279 0 0 65279 0 0 65279 0 0 65279 0 0 65279 0 0 65279 0 0 65279 0 0 65279 0 0 65279 0 0 65279 0 0 65279 0 0 65279 0 0 65279 0 0 65279 0 0 65279 0 0 65279 0 0 65279 0 0 65279 0 0 65279 0 0 65279 0 0 65279 0 0 65279 0 0 65279 0 0 65279 0 0 65279 0 0 65279 0 0 65279 0 0 65279 0 0 65279 0 0 65279 0 0 65279 0 0 65279 0 0 65279 0 0 65279 0 0 65279 0 0 65279 0 0 65279 0 0 65279 0 0 65279 0 0 65279 0 0 65279 0 0 65279 0 0 65279 0 0 65279 0 0 65279 0 0 65279 0 0 65279 0 0 65279 0 0 65279 0 0 65279 0 0 65279 0 0 65279 0 0 65279 0 0 65279 0 0 65279 0 0 65279 0 0 65279 0 0 65279 0 0 65279 0 0 65279 0 0 65279 0 0 65279 0 0 65279 0 0 65279 0 0 65279 0 0 65279 0 0 65279 0 0 65279 0 0 65279 0 0 65279 0 0 65279 0 0 65279 0 0 65279 0 0 65279 0 0 65279 0 0 65279 0 0 65279 0 0 65279 0 0 65279 0 0 65279 0 0 65279 0 0 65279 0 0 65279 0 0 65279 0 0 65279 0 0 65279 0 0 65279 0 0 65279 0 0 65279 0 0 65279 0 0 65279 0 0 65279 0 0 65279 0 0 65279 0 0 65279 0 0 65279 0 0 65279 0 0 65279 0 0 65279 0 0 65279 0 0 65279 0 0 65279 0 0 65279 0 0 65279 0 0 65279 0 0 65279 0 0 65279 0 0 65279 0 0 65279 0 0 65279 0 0 65279 0 0 65279 0 0 65279 0 0 65279 0 0 65279 0 0 65279 0 0 65279 0 0 65279 0 0 65279 0 0 65279 0 0 65279 0 0 65279 0 0 65279 0 0 65279 0 0 65279 0 0 65279 0 0 65279 0 0 65279 0 0 65279 0 0 65279 0 0 65279 0 0 65279 0 0 65279 0 0 65279 0 0 65279 0 0 65279 0 0 65279 0 0 65279 0 0 65279 0 0 65279 0 0 65279 0 0 65279 0 0 65279 0 0 65279 0 0 65279 0 0 65279 0 0 65279 0 0 65279 0 0 65279 0 0 65279 0 0 65279 0 0 65279 0 0 65279 0 0 65279 0 0 65279 0 0 65279 0 0 65279 0 0 65279 0 0 65279 0 0 65279 0 0 65279 0 0 65279 0 0 65279 0 0 65279 0 0 65279 0 0 65279 0 0 65279 0 0 65279 0 0 65279 0 0 65279 0 0 65279 0 0 65279 0 0 65279 0 0 65279 0 0 65279 0 0 65279 0 0 65279 0 0 65279 0 0 65279 0 0 65279 0 0 65279 0 0 65279 0 0 65279 0 0 65279 0 0 65279 0 0 65279 0 0 65279 0 0 65279 0 0 65279 0 0 65279 0 0 65279 0 0 65279 0 0 65279 0 0 65279 0 0 65279 0 0 65279 0 0 65279 0 0 65279 0 0 65279 0 0 65279 0 0 65279 0 0 65279 0 0 65279 0 0 65279 0 0 65279 0 0 65279 0 0 65279 0 0 65279 0 0 65279 0 0 65279 0 0 65279 0 0 65279 0 0 65279 0 0 65279 0 0 65279 0 0 65279 0 0 65279 0 0 65279 0 0 65279 0 0 65279 0 0 65279 0 0 65279 0 0 65279 0 0 65279 0 0 65279 0 0 65279 0 0 65279 0 0 65279 0 0 65279 0 0 65279 0 0 65279 0 0 65279 0 0 65279 0 0 65279 0 0 65279 0 0 65279 0 0 65279 0 0 65279 0 0 65279 0 0 65279 0 0 65279 0 0 65279 0 0 65279 0 0 65279 0 0 65279 0 0 65279 0 0 65279 0 0 65279 0 0 65279 0 0 65279 0 0 65279 0 0 65279 0 0 65279 0 0 65279 0 0 65279 0 0 65279 0 0 65279 0 0 65279 0 0 65279 0 0 65279 0 0 65279 0 0 65279 0 0 65279 0 0 65279 0 0 65279 0 0 65279 0 0 65279 0 0 65279 0 0 65279 0 0 65279 0 0 65279 0 0 65279 0 0 65279 0 0 65279 0 0 65279 0 0 65279 0 0 65279 0 0 65279 0 0 65279 0 0 65279 0 0 65279 0 0 65279 0 0 65279 0 0 65279 0 0 65279 0 0 65279 0 0 65279 0 0 65279 0 0 65279 0 0 65279 0 0 65279 0 0 65279 0 0 65279 0 0 65279 0 0 65279 0 0 65279 0 0 65279 0 0 65279 0 0 65279 0 0 65279 0 0 65279 0 0 65279 0 0 65279 0 0 65279 0 0 65279 0 0 65279 0 0 65279 0 0 65279 0 0 65279 0 0 65279 0 0 65279 0 0 65279 0 0 65279 0 0 65279 0 0 65279 0 0 65279 0 0 65279 0 0 65279 0 0 65279 0 0 65279 0 0 65279 0 0 65279 0 0 65279 0 0 65279 0 0 65279 0 0 65279 0 0 65279 0 0 65279 0 0 65279 0 0 65279 0 0 65279 0 0 65279 0 0 65279 0 0 65279 0 0 65279 0 0 65279 0 0 65279 0 0 65279 0 0 65279 0 0 65279 0 0 65279 0 0 65279 0 0 65279 0 0 65279 0 0 65279 0 0 65279 0 0 65279 0 0 65279 0 0 65279 0 0 65279 0 0 65279 0 0 65279 0 0 65279 0 0 65279 0 0 65279 0 0 65279 0 0 65279 0 0 65279 0 0 65279 0 0 65279 0 0 65279 0 0 65279 0 0 65279 0 0 65279 0 0 65279 0 0 65279 0 0 65279 0 0 65279 0 0 65279 0 0 65279 0 0 65279 0 0 65279 0 0 65279 0 0 65279 0 0 65279 0 0 65279 0 0 65279 0 0 65279 0 0 65279 0 0 65279 0 0 65279 0 0 65279 0 0 65279 0 0 65279 0 0 65279 0 0 65279 0 0 65279 0 0 65279 0 0 65279 0 0 65279 0 0 65279 0 0 65279 0 0 65279 0 0 65279 0 0 65279 0 0 65279 0 0 65279 0 0 65279 0 0 65279 0 0 65279 0 0 65279 0 0 65279 0 0 65279 0 0 65279 0 0 65279 0 0 65279 0 0 65279 0 0 65279 0 0 65279 0 0 65279 0 0 65279 0 0 65279 0 0 65279 0 0 65279 0 0 65279 0 0 65279 0 0 65279 0 0 65279 0 0 65279 0 0 65279 0 0 65279 0 0 65279 0 0 65279 0 0 65279 0 0 65279 0 0 65279 0 0 65279 0 0 65279 0 0 65279 0 0 65279 0 0 65279 0 0 65279 0 0 65279 0 0 65279 0 0 65279 0 0 65279 0 0 65279 0 0 65279 0 0 65279 0 0 65279 0 0 65279 0 0 65279 0 0 65279 0 0 65279 0 0 65279 0 0 65279 0 0 65279 0 0 65279 0 0 65279 0 0 65279 0 0 65279 0 0 65279 0 0 65279 0 0 65279 0 0 65279 0 0 65279 0 0 65279 0 0 65279 0 0 65279 0 0 65279 0 0 65279 0 0 65279 0 0 65279 0 0 65279 0 0 65279 0 0 65279 0 0 65279 0 0 65279 0 0 65279 0 0 65279 0 0 65279 0 0 65279 0 0 65279 0 0 65279 0 0 65279 0 0 65279 0 0 65279 0 0 65279 0 0 65279 0 0 65279 0 0 65279 0 0 65279 0 0 65279 0 0 65279 0 0 65279 0 0 65279 0 0 65279 0 0 65279 0 0 65279 0 0 65279 0 0 65279 0 0 65279 0 0 65279 0 0 65279 0 0 65279 0 0 65279 0 0 65279 0 0 65279 0 0 65279 0 0 65279 0 0 65279 0 0 65279 0 0 65279 0 0 65279 0 0 65279 0 0 65279 0 0 65279 0 0 65279 0 0 65279 0 0 65279 0 0 65279 0 0 65279 0 0 65279 0 0 65279 0 0 65279 0 0 65279 0 0 65279 0 0 65279 0 0 65279 0 0 65279 0 0 65279 0 0 65279 0 0 65279 0 0 65279 0 0 65279 0 0 65279 0 0 65279 0 0 65279 0 0 65279 0 0 65279 0 0 65279 0 0 65279 0 0 65279 0 0 65279 0 0 65279 0 0 65279 0 0 65279 0 0 65279 0 0 65279 0 0 65279 0 0 65279 0 0 65279 0 0 65279 0 0 65279 0 0 65279 0 0 65279 0 0 65279 0 0 65279 0 0 65279 0 0 65279 0 0 65279 0 0 65279 0 0 65279 0 0 65279 0 0 65279 0 0 65279 0 0 65279 0 0 65279 0 0 65279 0 0 65279 0 0 65279 0 0 65279 0 0 65279 0 0 65279 0 0 65279 0 0 65279 0 0 65279 0 0 65279 0 0 65279 0 0 65279 0 0 65279 0 0 65279 0 0 65279 0 0 65279 0 0 65279 0 0 65279 0 0 65279 0 0 65279 0 0 65279 0 0 65279 0 0 65279 0 0 65279 0 0 65279 0 0 65279 0 0 65279 0 0 65279 0 0 65279 0 0 65279 0 0 65279 0 0 65279 0 0 65279 0 0 65279 0 0 65279 0 0 65279 0 0 65279 0 0 65279 0 0 65279 0 0 65279 0 0 65279 0 0 65279 0 0 65279 0 0 65279 0 0 65279 0 0 65279 0 0 65279 0 0 65279 0 0 65279 0 0 65279 0 0 65279 0 0 65279 0 0 65279 0 0 65279 0 0 65279 0 0 65279 0 0 65279 0 0 65279 0 0 65279 0 0 65279 0 0 65279 0 0 65279 0 0 65279 0 0 65279 0 0 65279 0 0 65279 0 0 65279 0 0 65279 0 0 65279 0 0 65279 0 0 65279 0 0 65279 0 0 65279 0 0 65279 0 0 65279 0 0 65279 0 0 65279 0 0 65279 0 0 65279 0 0 65279 0 0 65279 0 0 65279 0 0 65279 0 0 65279 0 0 65279 0 0 65279 0 0 65279 0 0 65279 0 0 65279 0 0 65279 0 0 65279 0 0 65279 0 0 65279 0 0 65279 0 0 65279 0 0 65279 0 0 65279 0 0 65279 0 0 65279 0 0 65279 0 0 65279 0 0 65279 0 0 65279 0 0 65279 0 0 65279 0 0 65279 0 0 65279 0 0 65279 0 0 65279 0 0 65279 0 0 65279 0 0 65279 0 0 65279 0 0 65279 0 0 65279 0 0 65279 0 0 65279 0 0 65279 0 0 65279 0 0 65279 0 0 65279 0 0 65279 0 0 65279 0 0 65279 0 0 65279 0 0 65279 0 0 65279 0 0 65279 0 0 65279 0 0 65279 0 0 65279 0 0 65279 0 0 65279 0 0 65279 0 0 65279 0 0 65279 0 0 65279 0 0 65279 0 0 65279 0 0 65279 0 0 65279 0 0 65279 0 0 65279 0 0 65279 0 0 65279 0 0 65279 0 0 65279 0 0 65279 0 0 65279 0 0 65279 0 0 65279 0 0 65279 0 0 65279 0 0 65279 0 0 65279 0 0 65279 0 0 65279 0 0 65279 0 0 65279 0 0 65279 0 0 65279 0 0 65279 0 0 65279 0 0 65279 0 0 65279 0 0 65279 0 0 65279 0 0 65279 0 0 65279 0 0 65279 0 0 65279 0 0 65279 0 0 65279 0 0 65279 0 0 65279 0 0 65279 0 0 65279 0 0 65279 0 0 65279 0 0 65279 0 0 65279 0 0 65279 0 0 65279 0 0 65279 0 0 65279 0 0 65279 0 0 65279 0 0 65279 0 0 65279 0 0 65279 0 0 65279 0 0 65279 0 0 65279 0 0 65279 0 0 65279 0 0 65279 0 0 65279 0 0 65279 0 0 65279 0 0 65279 0 0 65279 0 0 65279 0 0 65279 0 0 65279 0 0 65279 0 0 65279 0 0 65279 0 0 65279 0 0 65279 0 0 65279 0 0 65279 0 0 65279 0 0 65279 0 0 65279 0 0 65279 0 0 65279 0 0 65279 0 0 65279 0 0 65279 0 0 65279 0 0 65279 0 0 65279 0 0 65279 0 0 65279 0 0 65279 0 0 65279 0 0 65279 0 0 65279 0 0 65279 0 0 65279 0 0 65279 0 0 65279 0 0 65279 0 0 65279 0 0 65279 0 0 65279 0 0 65279 0 0 65279 0 0 65279 0 0 65279 0 0 65279 0 0 65279 0 0 65279 0 0 65279 0 0 65279 0 0 65279 0 0 65279 0 0 65279 0 0 65279 0 0 65279 0 0 65279 0 0 65279 0 0 65279 0 0 65279 0 0 65279 0 0 65279 0 0 65279 0 0 65279 0 0 65279 0 0 65279 0 0 65279 0 0 65279 0 0 65279 0 0 65279 0 0 65279 0 0 65279 0 0 65279 0 0 65279 0 0 65279 0 0 65279 0 0 65279 0 0 65279 0 0 65279 0 0 65279 0 0 65279 0 0 65279 0 0 65279 0 0 65279 0 0 65279 0 0 65279 0 0 65279 0 0 65279 0 0 65279 0 0 65279 0 0 65279 0 0 65279 0 0 65279 0 0 65279 0 0 65279 0 0 65279 0 0 65279 0 0 65279 0 0 65279 0 0 65279 0 0 65279 0 0 65279 0 0 65279 0 0 65279 0 0 65279 0 0 65279 0 0 65279 0 0 65279 0 0 65279 0 0 65279 0 0 65279 0 0 65279 0 0 65279 0 0 65279 0 0 65279 0 0 65279 0 0 65279 0 0 65279 0 0 65279 0 0 65279 0 0 65279 0 0 65279 0 0 65279 0 0 65279 0 0 65279 0 0 65279 0 0 65279 0 0 65279 0 0 65279 0 0 65279 0 0 65279 0 0 65279 0 0 65279 0 0 65279 0 0 65279 0 0 65279 0 0 65279 0 0 65279 0 0 65279 0 0 65279 0 0 65279 0 0 65279 0 0 65279 0 0 65279 0 0 65279 0 0 65279 0 0 65279 0 0 65279 0 0 65279 0 0 65279 0 0 65279 0 0 65279 0 0 65279 0 0 65279 0 0 65279 0 0 65279 0 0 65279 0 0 65279 0 0 65279 0 0 65279 0 0 65279 0 0 65279 0 0 65279 0 0 65279 0 0 65279 0 0 65279 0 0 65279 0 0 65279 0 0 65279 0 0 65279 0 0 65279 0 0 65279 0 0 65279 0 0 65279 0 0 65279 0 0 65279 0 0 65279 0 0 65279 0 0 65279 0 0 65279 0 0 65279 0 0 65279 0 0 65279 0 0 65279 0 0 65279 0 0 65279 0 0 65279 0 0 65279 0 0 65279 0 0 65279 0 0 65279 0 0 65279 0 0 65279 0 0 65279 0 0 65279 0 0 65279 0 0 65279 0 0 65279 0 0 65279 0 0 65279 0 0 65279 0 0 65279 0 0 65279 0 0 65279 0 0 65279 0 0 65279 0 0 65279 0 0 65279 0 0 65279 0 0 65279 0 0 65279 0 0 65279 0 0 65279 0 0 65279 0 0 65279 0 0 65279 0 0 65279 0 0 65279 0 0 65279 0 0 65279 0 0 65279 0 0 65279 0 0 65279 0 0 65279 0 0 65279 0 0 65279 0 0 65279 0 0 65279 0 0 65279 0 0 65279 0 0 65279 0 0 65279 0 0 65279 0 0 65279 0 0 65279 0 0 65279 0 0 65279 0 0 65279 0 0 65279 0 0 65279 0 0 65279 0 0 65279 0 0 65279 0 0 65279 0 0 65279 0 0 65279 0 0 65279 0 0 65279 0 0 65279 0 0 65279 0 0 65279 0 0 65279 0 0 65279 0 0 65279 0 0 65279 0 0 65279 0 0 65279 0 0 65279 0 0 65279 0 0 65279 0 0 65279 0 0 65279 0 0 65279 0 0 65279 0 0 65279 0 0 65279 0 0 65279 0 0 65279 0 0 65279 0 0 65279 0 0 65279 0 0 65279 0 0 65279 0 0 65279 0 0 65279 0 0 65279 0 0 65279 0 0 65279 0 0 65279 0 0 65279 0 0 65279 0 0 65279 0 0 65279 0 0 65279 0 0 65279 0 0 65279 0 0 65279 0 0 65279 0 0 65279 0 0 65279 0 0 65279 0 0 65279 0 0 65279 0 0 65279 0 0 65279 0 0 65279 0 0 65279 0 0 65279 0 0 65279 0 0 65279 0 0 65279 0 0 65279 0 0 65279 0 0 65279 0 0 65279 0 0 65279 0 0 65279 0 0 65279 0 0 65279 0 0 65279 0 0 65279 0 0 65279 0 0 65279 0 0 65279 0 0 65279 0 0 65279 0 0 65279 0 0 65279 0 0 65279 0 0 65279 0 0 65279 0 0 65279 0 0 65279 0 0 65279 0 0 65279 0 0 65279 0 0 65279 0 0 65279 0 0 65279 0 0 65279 0 0 65279 0 0 65279 0 0 65279 0 0 65279 0 0 65279 0 0 65279 0 0 65279 0 0 65279 0 0 65279 0 0 65279 0 0 65279 0 0 65279 0 0 65279 0 0 65279 0 0 65279 0 0 65279 0 0 65279 0 0 65279 0 0 65279 0 0 65279 0 0 65279 0 0 65279 0 0 65279 0 0 65279 0 0 65279 0 0 65279 0 0 65279 0 0 65279 0 0 65279 0 0 65279 0 0 65279 0 0 65279 0 0 65279 0 0 65279 0 0 65279 0 0 65279 0 0 65279 0 0 65279 0 0 65279 0 0 65279 0 0 65279 0 0 65279 0 0 65279 0 0 65279 0 0 65279 0 0 65279 0 0 65279 0 0 65279 0 0 65279 0 0 65279 0 0 65279 0 0 65279 0 0 65279 0 0 65279 0 0 65279 0 0 65279 0 0 65279 0 0 65279 0 0 65279 0 0 65279 0 0 65279 0 0 65279 0 0 65279 0 0 65279 0 0 65279 0 0 65279 0 0 65279 0 0 65279 0 0 65279 0 0 65279 0 0 65279 0 0 65279 0 0 65279 0 0 65279 0 0 65279 0 0 65279 0 0 65279 0 0 65279 0 0 65279 0 0 65279 0 0 65279 0 0 65279 0 0 65279 0 0 65279 0 0 65279 0 0 65279 0 0 65279 0 0 65279 0 0 65279 0 0 65279 0 0 65279 0 0 65279 0 0 65279 0 0 65279 0 0 65279 0 0 65279 0 0 65279 0 0 65279 0 0 65279 0 0 65279 0 0 65279 0 0 65279 0 0 65279 0 0 65279 0 0 65279 0 0 65279 0 0 65279 0 0 65279 0 0 65279 0 0 65279 0 0 65279 0 0 65279 0 0 65279 0 0 65279 0 0 65279 0 0 65279 0 0 65279 0 0 65279 0 0 65279 0 0 65279 0 0 65279 0 0 65279 0 0 65279 0 0 65279 0 0 65279 0 0 65279 0 0 65279 0 0 65279 0 0 65279 0 0 65279 0 0 65279 0 0 65279 0 0 65279 0 0 65279 0 0 65279 0 0 65279 0 0 65279 0 0 65279 0 0 65279 0 0 65279 0 0 65279 0 0 65279 0 0 65279 0 0 65279 0 0 65279 0 0 65279 0 0 65279 0 0 65279 0 0 65279 0 0 65279 0 0 65279 0 0 65279 0 0 65279 0 0 65279 0 0 65279 0 0 65279 0 0 65279 0 0 65279 0 0 65279 0 0 65279 0 0 65279 0 0 65279 0 0 65279 0 0 65279 0 0 65279 0 0 65279 0 0 65279 0 0 65279 0 0 65279 0 0 65279 0 0 65279 0 0 65279 0 0 65279 0 0 65279 0 0 65279 0 0 65279 0 0 65279 0 0 65279 0 0 65279 0 0 65279 0 0 65279 0 0 65279 0 0 65279 0 0 65279 0 0 65279 0 0 65279 0 0 65279 0 0 65279 0 0 65279 0 0 65279 0 0 65279 0 0 65279 0 0 65279 0 0 65279 0 0 65279 0 0 65279 0 0 65279 0 0 65279 0 0 65279 0 0 65279 0 0 65279 0 0 65279 0 0 65279 0 0 65279 0 0 65279 0 0 65279 0 0 65279 0 0 65279 0 0 65279 0 0 65279 0 0 65279 0 0 65279 0 0 65279 0 0 65279 0 0 65279 0 0 65279 0 0 65279 0 0 65279 0 0 65279 0 0 65279 0 0 65279 0 0 65279 0 0 65279 0 0 65279 0 0 65279 0 0 65279 0 0 65279 0 0 65279 0 0 65279 0 0 65279 0 0 65279 0 0 65279 0 0 65279 0 0 65279 0 0 65279 0 0 65279 0 0 65279 0 0 65279 0 0 65279 0 0 65279 0 0 65279 0 0 65279 0 0 65279 0 0 65279 0 0 65279 0 0 65279 0 0 65279 0 0 65279 0 0 65279 0 0 65279 0 0 65279 0 0 65279 0 0 65279 0 0 65279 0 0 65279 0 0 65279 0 0 65279 0 0 65279 0 0 65279 0 0 65279 0 0 65279 0 0 65279 0 0 65279 0 0 65279 0 0 65279 0 0 65279 0 0 65279 0 0 65279 0 0 65279 0 0 65279 0 0 65279 0 0 65279 0 0 65279 0 0 65279 0 0 65279 0 0 65279 0 0 65279 0 0 65279 0 0 65279 0 0 65279 0 0 65279 0 0 65279 0 0 65279 0 0 65279 0 0 65279 0 0 65279 0 0 65279 0 0 65279 0 0 65279 0 0 65279 0 0 65279 0 0 65279 0 0 65279 0 0 65279 0 0 65279 0 0 65279 0 0 65279 0 0 65279 0 0 65279 0 0 65279 0 0 65279 0 0 65279 0 0 65279 0 0 65279 0 0 65279 0 0 65279 0 0 65279 0 0 65279 0 0 65279 0 0 65279 0 0 65279 0 0 65279 0 0 65279 0 0 65279 0 0 65279 0 0 65279 0 0 65279 0 0 65279 0 0 65279 0 0 65279 0 0 65279 0 0 65279 0 0 65279 0 0 65279 0 0 65279 0 0 65279 0 0 65279 0 0 65279 0 0 65279 0 0 65279 0 0 65279 0 0 65279 0 0 65279 0 0 65279 0 0 65279 0 0 65279 0 0 65279 0 0 65279 0 0 65279 0 0 65279 0 0 65279 0 0 65279 0 0 65279 0 0 65279 0 0 65279 0 0 65279 0 0 65279 0 0 65279 0 0 65279 0 0 65279 0 0 65279 0 0 65279 0 0 65279 0 0 65279 0 0 65279 0 0 65279 0 0 65279 0 0 65279 0 0 65279 0 0 65279 0 0 65279 0 0 65279 0 0 65279 0 0 65279 0 0 65279 0 0 65279 0 0 65279 0 0 65279 0 0 65279 0 0 65279 0 0 65279 0 0 65279 0 0 65279 0 0 65279 0 0 65279 0 0 65279 0 0 65279 0 0 65279 0 0 65279 0 0 65279 0 0 65279 0 0 65279 0 0 65279 0 0 65279 0 0 65279 0 0 65279 0 0 65279 0 0 65279 0 0 65279 0 0 65279 0 0 65279 0 0 65279 0 0 65279 0 0 65279 0 0 65279 0 0 65279 0 0 65279 0 0 65279 0 0 65279 0 0 65279 0 0 65279 0 0 65279 0 0 65279 0 0 65279 0 0 65279 0 0 65279 0 0 65279 0 0 65279 0 0 65279 0 0 65279 0 0 65279 0 0 65279 0 0 65279 0 0 65279 0 0 65279 0 0 65279 0 0 65279 0 0 65279 0 0 65279 0 0 65279 0 0 65279 0 0 65279 0 0 65279 0 0 65279 0 0 65279 0 0 65279 0 0 65279 0 0 65279 0 0 65279 0 0 65279 0 0 65279 0 0 65279 0 0 65279 0 0 65279 0 0 65279 0 0 65279 0 0 65279 0 0 65279 0 0 65279 0 0 65279 0 0 65279 0 0 65279 0 0 65279 0 0 65279 0 0 65279 0 0 65279 0 0 65279 0 0 65279 0 0 65279 0 0 65279 0 0 65279 0 0 65279 0 0 65279 0 0 65279 0 0 65279 0 0 65279 0 0 65279 0 0 65279 0 0 65279 0 0 65279 0 0 65279 0 0 65279 0 0 65279 0 0 65279 0 0 65279 0 0 65279 0 0 65279 0 0 65279 0 0 65279 0 0 65279 0 0 65279 0 0 65279 0 0 65279 0 0 65279 0 0 65279 0 0 65279 0 0 65279 0 0 65279 0 0 65279 0 0 65279 0 0 65279 0 0 65279 0 0 65279 0 0 65279 0 0 65279 0 0 65279 0 0 65279 0 0 65279 0 0 65279 0 0 65279 0 0 65279 0 0 65279 0 0 65279 0 0 65279 0 0 65279 0 0 65279 0 0 65279 0 0 65279 0 0 65279 0 0 65279 0 0 65279 0 0 65279 0 0 65279 0 0 65279 0 0 65279 0 0 65279 0 0 65279 0 0 65279 0 0 65279 0 0 65279 0 0 65279 0 0 65279 0 0 65279 0 0 65279 0 0 65279 0 0 65279 0 0 65279 0 0 65279 0 0 65279 0 0 65279 0 0 65279 0 0 65279 0 0 65279 0 0 65279 0 0 65279 0 0 65279 0 0 65279 0 0 65279 0 0 65279 0 0 65279 0 0 65279 0 0 65279 0 0 65279 0 0 65279 0 0 65279 0 0 65279 0 0 65279 0 0 65279 0 0 65279 0 0 65279 0 0 65279 0 0 65279 0 0 65279 0 0 65279 0 0 65279 0 0 65279 0 0 65279 0 0 65279 0 0 65279 0 0 65279 0 0 65279 0 0 65279 0 0 65279 0 0 65279 0 0 65279 0 0 65279 0 0 65279 0 0 65279 0 0 65279 0 0 65279 0 0 65279 0 0 65279 0 0 65279 0 0 65279 0 0 65279 0 0 65279 0 0 65279 0 0 65279 0 0 65279 0 0 65279 0 0 65279 0 0 65279 0 0 65279 0 0 65279 0 0 65279 0 0 65279 0 0 65279 0 0 65279 0 0 65279 0 0 65279 0 0 65279 0 0 65279 0 0 65279 0 0 65279 0 0 65279 0 0 65279 0 0 65279 0 0 65279 0 0 65279 0 0 65279 0 0 65279 0 0 65279 0 0 65279 0 0 65279 0 0 65279 0 0 65279 0 0 65279 0 0 65279 0 0 65279 0 0 65279 0 0 65279 0 0 65279 0 0 65279 0 0 65279 0 0 65279 0 0 65279 0 0 65279 0 0 65279 0 0 65279 0 0 65279 0 0 65279 0 0 65279 0 0 65279 0 0 65279 0 0 65279 0 0 65279 0 0 65279 0 0 65279 0 0 65279 0 0 65279 0 0 65279 0 0 65279 0 0 65279 0 0 65279 0 0 65279 0 0 65279 0 0 65279 0 0 65279 0 0 65279 0 0 65279 0 0 65279 0 0 65279 0 0 65279 0 0 65279 0 0 65279 0 0 65279 0 0 65279 0 0 65279 0 0 65279 0 0 65279 0 0 65279 0 0 65279 0 0 65279 0 0 65279 0 0 65279 0 0 65279 0 0 65279 0 0 65279 0 0 65279 0 0 65279 0 0 65279 0 0 65279 0 0 65279 0 0 65279 0 0 65279 0 0 65279 0 0 65279 0 0 65279 0 0 65279 0 0 65279 0 0 65279 0 0 65279 0 0 65279 0 0 65279 0 0 65279 0 0 65279 0 0 65279 0 0 65279 0 0 65279 0 0 65279 0 0 65279 0 0 65279 0 0 65279 0 0 65279 0 0 65279 0 0 65279 0 0 65279 0 0 65279 0 0 65279 0 0 65279 0 0 65279 0 0 65279 0 0 65279 0 0 65279 0 0 65279 0 0 65279 0 0 65279 0 0 65279 0 0 65279 0 0 65279 0 0 65279 0 0 65279 0 0 65279 0 0 65279 0 0 65279 0 0 65279 0 0 65279 0 0 65279 0 0 65279 0 0 65279 0 0 65279 0 0 65279 0 0 65279 0 0 65279 0 0 65279 0 0 65279 0 0 65279 0 0 65279 0 0 65279 0 0 65279 0 0 65279 0 0 65279 0 0 65279 0 0 65279 0 0 65279 0 0 65279 0 0 65279 0 0 65279 0 0 65279 0 0 65279 0 0 65279 0 0 65279 0 0 65279 0 0 65279 0 0 65279 0 0 65279 0 0 65279 0 0 65279 0 0 65279 0 0 65279 0 0 65279 0 0 65279 0 0 65279 0 0 65279 0 0 65279 0 0 65279 0 0 65279 0 0 65279 0 0 65279 0 0 65279 0 0 65279 0 0 65279 0 0 65279 0 0 65279 0 0 65279 0 0 65279 0 0 65279 0 0 65279 0 0 65279 0 0 65279 0 0 65279 0 0 65279 0 0 65279 0 0 65279 0 0 65279 0 0 65279 0 0 65279 0 0 65279 0 0 65279 0 0 65279 0 0 65279 0 0 65279 0 0 65279 0 0 65279 0 0 65279 0 0 65279 0 0 65279 0 0 65279 0 0 65279 0 0 65279 0 0 65279 0 0 65279 0 0 65279 0 0 65279 0 0 65279 0 0 65279 0 0 65279 0 0 65279 0 0 65279 0 0 65279 0 0 65279 0 0 65279 0 0 65279 0 0 65279 0 0 65279 0 0 65279 0 0 65279 0 0 65279 0 0 65279 0 0 65279 0 0 65279 0 0 65279 0 0 65279 0 0 65279 0 0 65279 0 0 65279 0 0 65279 0 0 65279 0 0 65279 0 0 65279 0 0 65279 0 0 65279 0 0 65279 0 0 65279 0 0 65279 0 0 65279 0 0 65279 0 0 65279 0 0 65279 0 0 65279 0 0 65279 0 0 65279 0 0 65279 0 0 65279 0 0 65279 0 0 65279 0 0 65279 0 0 65279 0 0 65279 0 0 65279 0 0 65279 0 0 65279 0 0 65279 0 0 65279 0 0 65279 0 0 65279 0 0 65279 0 0 65279 0 0 65279 0 0 65279 0 0 65279 0 0 65279 0 0 65279 0 0 65279 0 0 65279 0 0 65279 0 0 65279 0 0 65279 0 0 65279 0 0 65279 0 0 65279 0 0 65279 0 0 65279 0 0 65279 0 0 65279 0 0 65279 0 0 65279 0 0 65279 0 0 65279 0 0 65279 0 0 65279 0 0 65279 0 0 65279 0 0 65279 0 0 65279 0 0 65279 0 0 65279 0 0 65279 0 0 65279 0 0 65279 0 0 65279 0 0 65279 0 0 65279 0 0 65279 0 0 65279 0 0 65279 0 0 65279 0 0 65279 0 0 65279 0 0 65279 0 0 65279 0 0 65279 0 0 65279 0 0 65279 0 0 65279 0 0 65279 0 0 65279 0 0 65279 0 0 65279 0 0 65279 0 0 65279 0 0 65279 0 0 65279 0 0 65279 0 0 65279 0 0 65279 0 0 65279 0 0 65279 0 0 65279 0 0 65279 0 0 65279 0 0 65279 0 0 65279 0 0 65279 0 0 65279 0 0 65279 0 0 65279 0 0 65279 0 0 65279 0 0 65279 0 0 65279 0 0 65279 0 0 65279 0 0 65279 0 0 65279 0 0 65279 0 0 65279 0 0 65279 0 0 65279 0 0 65279 0 0 65279 0 0 65279 0 0 65279 0 0 65279 0 0 65279 0 0 65279 0 0 65279 0 0 65279 0 0 65279 0 0 65279 0 0 65279 0 0 65279 0 0 65279 0 0 65279 0 0 65279 0 0 65279 0 0 65279 0 0 65279 0 0 65279 0 0 65279 0 0 65279 0 0 65279 0 0 65279 0 0 65279 0 0 65279 0 0 65279 0 0 65279 0 0 65279 0 0 65279 0 0 65279 0 0 65279 0 0 65279 0 0 65279 0 0 65279 0 0 65279 0 0 65279 0 0 65279 0 0 65279 0 0 65279 0 0 65279 0 0 65279 0 0 65279 0 0 65279 0 0 65279 0 0 65279 0 0 65279 0 0 65279 0 0 65279 0 0 65279 0 0 65279 0 0 65279 0 0 65279 0 0 65279 0 0 65279 0 0 65279 0 0 65279 0 0 65279 0 0 65279 0 0 65279 0 0 65279 0 0 65279 0 0 65279 0 0 65279 0 0 65279 0 0 65279 0 0 65279 0 0 65279 0 0 65279 0 0 65279 0 0 65279 0 0 65279 0 0 65279 0 0 65279 0 0 65279 0 0 65279 0 0 65279 0 0 65279 0 0 65279 0 0 65279 0 0 65279 0 0 65279 0 0 65279 0 0 65279 0 0 65279 0 0 65279 0 0 65279 0 0 65279 0 0 65279 0 0 65279 0 0 65279 0 0 65279 0 0 65279 0 0 65279 0 0 65279 0 0 65279 0 0 65279 0 0 65279 0 0 65279 0 0 65279 0 0 65279 0 0 65279 0 0 65279 0 0 65279 0 0 65279 0 0 65279 0 0 65279 0 0 65279 0 0 65279 0 0 65279 0 0 65279 0 0 65279 0 0 65279 0 0 65279 0 0 65279 0 0 65279 0 0 65279 0 0 65279 0 0 65279 0 0 65279 0 0 65279 0 0 65279 0 0 65279 0 0 65279 0 0 65279 0 0 65279 0 0 65279 0 0 65279 0 0 65279 0 0 65279 0 0 65279 0 0 65279 0 0 65279 0 0 65279 0 0 65279 0 0 65279 0 0 65279 0 0 65279 0 0 65279 0 0 65279 0 0 65279 0 0 65279 0 0 65279 0 0 65279 0 0 65279 0 0 65279 0 0 65279 0 0 65279 0 0 65279 0 0 65279 0 0 65279 0 0 65279 0 0 65279 0 0 65279 0 0 65279 0 0 65279 0 0 65279 0 0 65279 0 0 65279 0 0 65279 0 0 65279 0 0 65279 0 0 65279 0 0 65279 0 0 65279 0 0 65279 0 0 65279 0 0 65279 0 0 65279 0 0 65279 0 0 65279 0 0 65279 0 0 65279 0 0 65279 0 0 65279 0 0 65279 0 0 65279 0 0 65279 0 0 65279 0 0 65279 0 0 65279 0 0 65279 0 0 65279 0 0 65279 0 0 65279 0 0 65279 0 0 65279 0 0 65279 0 0 65279 0 0 65279 0 0 65279 0 0 65279 0 0 65279 0 0 65279 0 0 65279 0 0 65279 0 0 65279 0 0 65279 0 0 65279 0 0 65279 0 0 65279 0 0 65279 0 0 65279 0 0 65279 0 0 65279 0 0 65279 0 0 65279 0 0 65279 0 0 65279 0 0 65279 0 0 65279 0 0 65279 0 0 65279 0 0 65279 0 0 65279 0 0 65279 0 0 65279 0 0 65279 0 0 65279 0 0 65279 0 0 65279 0 0 65279 0 0 65279 0 0 65279 0 0 65279 0 0 65279 0 0 65279 0 0 65279 0 0 65279 0 0 65279 0 0 65279 0 0 65279 0 0 65279 0 0 65279 0 0 65279 0 0 65279 0 0 65279 0 0 65279 0 0 65279 0 0 65279 0 0 65279 0 0 65279 0 0 65279 0 0 65279 0 0 65279 0 0 65279 0 0 65279 0 0 65279 0 0 65279 0 0 65279 0 0 65279 0 0 65279 0 0 65279 0 0 65279 0 0 65279 0 0 65279 0 0 65279 0 0 65279 0 0 65279 0 0 65279 0 0 65279 0 0 65279 0 0 65279 0 0 65279 0 0 65279 0 0 65279 0 0 65279 0 0 65279 0 0 65279 0 0 65279 0 0 65279 0 0 65279 0 0 65279 0 0 65279 0 0 65279 0 0 65279 0 0 65279 0 0 65279 0 0 65279 0 0 65279 0 0 65279 0 0 65279 0 0 65279 0 0 65279 0 0 65279 0 0 65279 0 0 65279 0 0 65279 0 0 65279 0 0 65279 0 0 65279 0 0 65279 0 0 65279 0 0 65279 0 0 65279 0 0 65279 0 0 65279 0 0 65279 0 0 65279 0 0 65279 0 0 65279 0 0 65279 0 0 65279 0 0 65279 0 0 65279 0 0 65279 0 0 65279 0 0 65279 0 0 65279 0 0 65279 0 0 65279 0 0 65279 0 0 65279 0 0 65279 0 0 65279 0 0 65279 0 0 65279 0 0 65279 0 0 65279 0 0 65279 0 0 65279 0 0 65279 0 0 65279 0 0 65279 0 0 65279 0 0 65279 0 0 65279 0 0 65279 0 0 65279 0 0 65279 0 0 65279 0 0 65279 0 0 65279 0 0 65279 0 0 65279 0 0 65279 0 0 65279 0 0 65279 0 0 65279 0 0 65279 0 0 65279 0 0 65279 0 0 65279 0 0 65279 0 0 65279 0 0 65279 0 0 65279 0 0 65279 0 0 65279 0 0 65279 0 0 65279 0 0 65279 0 0 65279 0 0 65279 0 0 65279 0 0 65279 0 0 65279 0 0 65279 0 0 65279 0 0 65279 0 0 65279 0 0 65279 0 0 65279 0 0 65279 0 0 65279 0 0 65279 0 0 65279 0 0 65279 0 0 65279 0 0 65279 0 0 65279 0 0 65279 0 0 65279 0 0 65279 0 0 65279 0 0 65279 0 0 65279 0 0 65279 0 0 65279 0 0 65279 0 0 65279 0 0 65279 0 0 65279 0 0 65279 0 0 65279 0 0 65279 0 0 65279 0 0 65279 0 0 65279 0 0 65279 0 0 65279 0 0 65279 0 0 65279 0 0 65279 0 0 65279 0 0 65279 0 0 65279 0 0 65279 0 0 65279 0 0 65279 0 0 65279 0 0 65279 0 0 65279 0 0 65279 0 0 65279 0 0 65279 0 0 65279 0 0 65279 0 0 65279 0 0 65279 0 0 65279 0 0 65279 0 0 65279 0 0 65279 0 0 65279 0 0 65279 0 0 65279 0 0 65279 0 0 65279 0 0 65279 0 0 65279 0 0 65279 0 0 65279 0 0 65279 0 0 65279 0 0 65279 0 0 65279 0 0 65279 0 0 65279 0 0 65279 0 0 65279 0 0 65279 0 0 65279 0 0 65279 0 0 65279 0 0 65279 0 0 65279 0 0 65279 0 0 65279 0 0 65279 0 0 65279 0 0 65279 0 0 65279 0 0 65279 0 0 65279 0 0 65279 0 0 65279 0 0 65279 0 0 65279 0 0 65279 0 0 65279 0 0 65279 0 0 65279 0 0 65279 0 0 65279 0 0 65279 0 0 65279 0 0 65279 0 0 65279 0 0 65279 0 0 65279 0 0 65279 0 0 65279 0 0 65279 0 0 65279 0 0 65279 0 0 65279 0 0 65279 0 0 65279 0 0 65279 0 0 65279 0 0 65279 0 0 65279 0 0 65279 0 0 65279 0 0 65279 0 0 65279 0 0 65279 0 0 65279 0 0 65279 0 0 65279 0 0 65279 0 0 65279 0 0 65279 0 0 65279 0 0 65279 0 0 65279 0 0 65279 0 0 65279 0 0 65279 0 0 65279 0 0 65279 0 0 65279 0 0 65279 0 0 65279 0 0 65279 0 0 65279 0 0 65279 0 0 65279 0 0 65279 0 0 65279 0 0 65279 0 0 65279 0 0 65279 0 0 65279 0 0 65279 0 0 65279 0 0 65279 0 0 65279 0 0 65279 0 0 65279 0 0 65279 0 0 65279 0 0 65279 0 0 65279 0 0 65279 0 0 65279 0 0 65279 0 0 65279 0 0 65279 0 0 65279 0 0 65279 0 0 65279 0 0 65279 0 0 65279 0 0 65279 0 0 65279 0 0 65279 0 0 65279 0 0 65279 0 0 65279 0 0 65279 0 0 65279 0 0 65279 0 0 65279 0 0 65279 0 0 65279 0 0 65279 0 0 65279 0 0 65279 0 0 65279 0 0 65279 0 0 65279 0 0 65279 0 0 65279 0 0 65279 0 0 65279 0 0 65279 0 0 65279 0 0 65279 0 0 65279 0 0 65279 0 0 65279 0 0 65279 0 0 65279 0 0 65279 0 0 65279 0 0 65279 0 0 65279 0 0 65279 0 0 65279 0 0 65279 0 0 65279 0 0 65279 0 0 65279 0 0 65279 0 0 65279 0 0 65279 0 0 65279 0 0 65279 0 0 65279 0 0 65279 0 0 65279 0 0 65279 0 0 65279 0 0 65279 0 0 65279 0 0 65279 0 0 65279 0 0 65279 0 0 65279 0 0 65279 0 0 65279 0 0 65279 0 0 65279 0 0 65279 0 0 65279 0 0 65279 0 0 65279 0 0 65279 0 0 65279 0 0 65279 0 0 65279 0 0 65279 0 0 65279 0 0 65279 0 0 65279 0 0 65279 0 0 65279 0 0 65279 0 0 65279 0 0 65279 0 0 65279 0 0 65279 0 0 65279 0 0 65279 0 0 65279 0 0 65279 0 0 65279 0 0 65279 0 0 65279 0 0 65279 0 0 65279 0 0 65279 0 0 65279 0 0 65279 0 0 65279 0 0 65279 0 0 65279 0 0 65279 0 0 65279 0 0 65279 0 0 65279 0 0 65279 0 0 65279 0 0 65279 0 0 65279 0 0 65279 0 0 65279 0 0 65279 0 0 65279 0 0 65279 0 0 65279 0 0 65279 0 0 65279 0 0 65279 0 0 65279 0 0 65279 0 0 65279 0 0 65279 0 0 65279 0 0 65279 0 0 65279 0 0 65279 0 0 65279 0 0 65279 0 0 65279 0 0 65279 0 0 65279 0 0 65279 0 0 65279 0 0 65279 0 0 65279 0 0 65279 0 0 65279 0 0 65279 0 0 65279 0 0 65279 0 0 65279 0 0 65279 0 0 65279 0 0 65279 0 0 65279 0 0 65279 0 0 65279 0 0 65279 0 0 65279 0 0 65279 0 0 65279 0 0 65279 0 0 65279 0 0 65279 0 0 65279 0 0 65279 0 0 65279 0 0 65279 0 0 65279 0 0 65279 0 0 65279 0 0 65279 0 0 65279 0 0 65279 0 0 65279 0 0 65279 0 0 65279 0 0 65279 0 0 65279 0 0 65279 0 0 65279 0 0 65279 0 0 65279 0 0 65279 0 0 65279 0 0 65279 0 0 65279 0 0 65279 0 0 65279 0 0 65279 0 0 65279 0 0 65279 0 0 65279 0 0 65279 0 0 65279 0 0 65279 0 0 65279 0 0 65279 0 0 65279 0 0 65279 0 0 65279 0 0 65279 0 0 65279 0 0 65279 0 0 65279 0 0 65279 0 0 65279 0 0 65279 0 0 65279 0 0 65279 0 0 65279 0 0 65279 0 0 65279 0 0 65279 0 0 65279 0 0 65279 0 0 65279 0 0 65279 0 0 65279 0 0 65279 0 0 65279 0 0 65279 0 0 65279 0 0 65279 0 0 65279 0 0 65279 0 0 65279 0 0 65279 0 0 65279 0 0 65279 0 0 65279 0 0 65279 0 0 65279 0 0 65279 0 0 65279 0 0 65279 0 0 65279 0 0 65279 0 0 65279 0 0 65279 0 0 65279 0 0 65279 0 0 65279 0 0 65279 0 0 65279 0 0 65279 0 0 65279 0 0 65279 0 0 65279 0 0 65279 0 0 65279 0 0 65279 0 0 65279 0 0 65279 0 0 65279 0 0 65279 0 0 65279 0 0 65279 0 0 65279 0 0 65279 0 0 65279 0 0 65279 0 0 65279 0 0 65279 0 0 65279 0 0 65279 0 0 65279 0 0 65279 0 0 65279 0 0 65279 0 0 65279 0 0 65279 0 0 65279 0 0 65279 0 0 65279 0 0 65279 0 0 65279 0 0 65279 0 0 65279 0 0 65279 0 0 65279 0 0 65279 0 0 65279 0 0 65279 0 0 65279 0 0 65279 0 0 65279 0 0 65279 0 0 65279 0 0 65279 0 0 65279 0 0 65279 0 0 65279 0 0 65279 0 0 65279 0 0 65279 0 0 65279 0 0 65279 0 0 65279 0 0 65279 0 0 65279 0 0 65279 0 0 65279 0 0 65279 0 0 65279 0 0 65279 0 0 65279 0 0 65279 0 0 65279 0 0 65279 0 0 65279 0 0 65279 0 0 65279 0 0 65279 0 0 65279 0 0 65279 0 0 65279 0 0 65279 0 0 65279 0 0 65279 0 0 65279 0 0 65279 0 0 65279 0 0 65279 0 0 65279 0 0 65279 0 0 65279 0 0 65279 0 0 65279 0 0 65279 0 0 65279 0 0 65279 0 0 65279 0 0 65279 0 0 65279 0 0 65279 0 0 65279 0 0 65279 0 0 65279 0 0 65279 0 0 65279 0 0 65279 0 0 65279 0 0 65279 0 0 65279 0 0 65279 0 0 65279 0 0 65279 0 0 65279 0 0 65279 0 0 65279 0 0 65279 0 0 65279 0 0 65279 0 0 65279 0 0 65279 0 0 65279 0 0 65279 0 0 65279 0 0 65279 0 0 65279 0 0 65279 0 0 65279 0 0 65279 0 0 65279 0 0 65279 0 0 65279 0 0 65279 0 0 65279 0 0 65279 0 0 65279 0 0 65279 0 0 65279 0 0 65279 0 0 65279 0 0 65279 0 0 65279 0 0 65279 0 0 65279 0 0 65279 0 0 65279 0 0 65279 0 0 65279 0 0 65279 0 0 65279 0 0 65279 0 0 65279 0 0 65279 0 0 65279 0 0 65279 0 0 65279 0 0 65279 0 0 65279 0 0 65279 0 0 65279 0 0 65279 0 0 65279 0 0 65279 0 0 65279 0 0 65279 0 0 65279 0 0 65279 0 0 65279 0 0 65279 0 0 65279 0 0 65279 0 0 65279 0 0 65279 0 0 65279 0 0 65279 0 0 65279 0 0 65279 0 0 65279 0 0 65279 0 0 65279 0 0 65279 0 0 65279 0 0 65279 0 0 65279 0 0 65279 0 0 65279 0 0 65279 0 0 65279 0 0 65279 0 0 65279 0 0 65279 0 0 65279 0 0 65279 0 0 65279 0 0 65279 0 0 65279 0 0 65279 0 0 65279 0 0 65279 0 0 65279 0 0 65279 0 0 65279 0 0 65279 0 0 65279 0 0 65279 0 0 65279 0 0 65279 0 0 65279 0 0 65279 0 0 65279 0 0 65279 0 0 65279 0 0 65279 0 0 65279 0 0 65279 0 0 65279 0 0 65279 0 0 65279 0 0 65279 0 0 65279 0 0 65279 0 0 65279 0 0 65279 0 0 65279 0 0 65279 0 0 65279 0 0 65279 0 0 65279 0 0 65279 0 0 65279 0 0 65279 0 0 65279 0 0 65279 0 0 65279 0 0 65279 0 0 65279 0 0 65279 0 0 65279 0 0 65279 0 0 65279 0 0 65279 0 0 65279 0 0 65279 0 0 65279 0 0 65279 0 0 65279 0 0 65279 0 0 65279 0 0 65279 0 0 65279 0 0 65279 0 0 65279 0 0 65279 0 0 65279 0 0 65279 0 0 65279 0 0 65279 0 0 65279 0 0 65279 0 0 65279 0 0 65279 0 0 65279 0 0 65279 0 0 65279 0 0 65279 0 0 65279 0 0 65279 0 0 65279 0 0 65279 0 0 65279 0 0 65279 0 0 65279 0 0 65279 0 0 65279 0 0 65279 0 0 65279 0 0 65279 0 0 65279 0 0 65279 0 0 65279 0 0 65279 0 0 65279 0 0 65279 0 0 65279 0 0 65279 0 0 65279 0 0 65279 0 0 65279 0 0 65279 0 0 65279 0 0 65279 0 0 65279 0 0 65279 0 0 65279 0 0 65279 0 0 65279 0 0 65279 0 0 65279 0 0 65279 0 0 65279 0 0 65279 0 0 65279 0 0 65279 0 0 65279 0 0 65279 0 0 65279 0 0 65279 0 0 65279 0 0 65279 0 0 65279 0 0 65279 0 0 65279 0 0 65279 0 0 65279 0 0 65279 0 0 65279 0 0 65279 0 0 65279 0 0 65279 0 0 65279 0 0 65279 0 0 65279 0 0 65279 0 0 65279 0 0 65279 0 0 65279 0 0 65279 0 0 65279 0 0 65279 0 0 65279 0 0 65279 0 0 65279 0 0 65279 0 0 65279 0 0 65279 0 0 65279 0 0 65279 0 0 65279 0 0 65279 0 0 65279 0 0 65279 0 0 65279 0 0 65279 0 0 65279 0 0 65279 0 0 65279 0 0 65279 0 0 65279 0 0 65279 0 0 65279 0 0 65279 0 0 65279 0 0 65279 0 0 65279 0 0 65279 0 0 65279 0 0 65279 0 0 65279 0 0 65279 0 0 65279 0 0 65279 0 0 65279 0 0 65279 0 0 65279 0 0 65279 0 0 65279 0 0 65279 0 0 65279 0 0 65279 0 0 65279 0 0 65279 0 0 65279 0 0 65279 0 0 65279 0 0 65279 0 0 65279 0 0 65279 0 0 65279 0 0 65279 0 0 65279 0 0 65279 0 0 65279 0 0 65279 0 0 65279 0 0 65279 0 0 65279 0 0 65279 0 0 65279 0 0 65279 0 0 65279 0 0 65279 0 0 65279 0 0 65279 0 0 65279 0 0 65279 0 0 65279 0 0 65279 0 0 65279 0 0 65279 0 0 65279 0 0 65279 0 0 65279 0 0 65279 0 0 65279 0 0 65279 0 0 65279 0 0 65279 0 0 65279 0 0 65279 0 0 65279 0 0 65279 0 0 65279 0 0 65279 0 0 65279 0 0 65279 0 0 65279 0 0 65279 0 0 65279 0 0 65279 0 0 65279 0 0 65279 0 0 65279 0 0 65279 0 0 65279 0 0 65279 0 0 65279 0 0 65279 0 0 65279 0 0 65279 0 0 65279 0 0 65279 0 0 65279 0 0 65279 0 0 65279 0 0 65279 0 0 65279 0 0 65279 0 0 65279 0 0 65279 0 0 65279 0 0 65279 0 0 65279 0 0 65279 0 0 65279 0 0 65279 0 0 65279 0 0 65279 0 0 65279 0 0 65279 0 0 65279 0 0 65279 0 0 65279 0 0 65279 0 0 65279 0 0 65279 0 0 65279 0 0 65279 0 0 65279 0 0 65279 0 0 65279 0 0 65279 0 0 65279 0 0 65279 0 0 65279 0 0 65279 0 0 65279 0 0 65279 0 0 65279 0 0 65279 0 0 65279 0 0 65279 0 0 65279 0 0 65279 0 0 65279 0 0 65279 0 0 65279 0 0 65279 0 0 65279 0 0 65279 0 0 65279 0 0 65279 0 0 65279 0 0 65279 0 0 65279 0 0 65279 0 0 65279 0 0 65279 0 0 65279 0 0 65279 0 0 65279 0 0 65279 0 0 65279 0 0 65279 0 0 65279 0 0 65279 0 0 65279 0 0 65279 0 0 65279 0 0 65279 0 0 65279 0 0 65279 0 0 65279 0 0 65279 0 0 65279 0 0 65279 0 0 65279 0 0 65279 0 0 65279 0 0 65279 0 0 65279 0 0 65279 0 0 65279 0 0 65279 0 0 65279 0 0 65279 0 0 65279 0 0 65279 0 0 65279 0 0 65279 0 0 65279 0 0 65279 0 0 65279 0 0 65279 0 0 65279 0 0 65279 0 0 65279 0 0 65279 0 0 65279 0 0 65279 0 0 65279 0 0 65279 0 0 65279 0 0 65279 0 0 65279 0 0 65279 0 0 65279 0 0 65279 0 0 65279 0 0 65279 0 0 65279 0 0 65279 0 0 65279 0 0 65279 0 0 65279 0 0 65279 0 0 65279 0 0 65279 0 0 65279 0 0 65279 0 0 65279 0 0 65279 0 0 65279 0 0 65279 0 0 65279 0 0 65279 0 0 65279 0 0 65279 0 0 65279 0 0 65279 0 0 65279 0 0 65279 0 0 65279 0 0 65279 0 0 65279 0 0 65279 0 0 65279 0 0 65279 0 0 65279 0 0 65279 0 0 65279 0 0 65279 0 0 65279 0 0 65279 0 0 65279 0 0 65279 0 0 65279 0 0 65279 0 0 65279 0 0 65279 0 0 65279 0 0 65279 0 0 65279 0 0 65279 0 0 65279 0 0 65279 0 0 65279 0 0 65279 0 0 65279 0 0 65279 0 0 65279 0 0 65279 0 0 65279 0 0 65279 0 0 65279 0 0 65279 0 0 65279 0 0 65279 0 0 65279 0 0 65279 0 0 65279 0 0 65279 0 0 65279 0 0 65279 0 0 65279 0 0 65279 0 0 65279 0 0 65279 0 0 65279 0 0 65279 0 0 65279 0 0 65279 0 0 65279 0 0 65279 0 0 65279 0 0 65279 0 0 65279 0 0 65279 0 0 65279 0 0 65279 0 0 65279 0 0 65279 0 0 65279 0 0 65279 0 0 65279 0 0 65279 0 0 65279 0 0 65279 0 0 65279 0 0 65279 0 0 65279 0 0 65279 0 0 65279 0 0 65279 0 0 65279 0 0 65279 0 0 65279 0 0 65279 0 0 65279 0 0 65279 0 0 65279 0 0 65279 0 0 65279 0 0 65279 0 0 65279 0 0 65279 0 0 65279 0 0 65279 0 0 65279 0 0 65279 0 0 65279 0 0 65279 0 0 65279 0 0 65279 0 0 65279 0 0 65279 0 0 65279 0 0 65279 0 0 65279 0 0 65279 0 0 65279 0 0 65279 0 0 65279 0 0 65279 0 0 65279 0 0 65279 0 0 65279 0 0 65279 0 0 65279 0 0 65279 0 0 65279 0 0 65279 0 0 65279 0 0 65279 0 0 65279 0 0 65279 0 0 65279 0 0 65279 0 0 65279 0 0 65279 0 0 65279 0 0 65279 0 0 65279 0 0 65279 0 0 65279 0 0 65279 0 0 65279 0 0 65279 0 0 65279 0 0 65279 0 0 65279 0 0 65279 0 0 65279 0 0 65279 0 0 65279 0 0 65279 0 0 65279 0 0 65279 0 0 65279 0 0 65279 0 0 65279 0 0 65279 0 0 65279 0 0 65279 0 0 65279 0 0 65279 0 0 65279 0 0 65279 0 0 65279 0 0 65279 0 0 65279 0 0 65279 0 0 65279 0 0 65279 0 0 65279 0 0 65279 0 0 65279 0 0 65279 0 0 65279 0 0 65279 0 0 65279 0 0 65279 0 0 65279 0 0 65279 0 0 65279 0 0 65279 0 0 65279 0 0 65279 0 0 65279 0 0 65279 0 0 65279 0 0 65279 0 0 65279 0 0 65279 0 0 65279 0 0 65279 0 0 65279 0 0 65279 0 0 65279 0 0 65279 0 0 65279 0 0 65279 0 0 65279 0 0 65279 0 0 65279 0 0 65279 0 0 65279 0 0 65279 0 0 65279 0 0 65279 0 0 65279 0 0 65279 0 0 65279 0 0 65279 0 0 65279 0 0 65279 0 0 65279 0 0 65279 0 0 65279 0 0 65279 0 0 65279 0 0 65279 0 0 65279 0 0 65279 0 0 65279 0 0 65279 0 0 65279 0 0 65279 0 0 65279 0 0 65279 0 0 65279 0 0 65279 0 0 65279 0 0 65279 0 0 65279 0 0 65279 0 0 65279 0 0 65279 0 0 65279 0 0 65279 0 0 65279 0 0 65279 0 0 65279 0 0 65279 0 0 65279 0 0 65279 0 0 65279 0 0 65279 0 0 65279 0 0 65279 0 0 65279 0 0 65279 0 0 65279 0 0 65279 0 0 65279 0 0 65279 0 0 65279 0 0 65279 0 0 65279 0 0 65279 0 0 65279 0 0 65279 0 0 65279 0 0 65279 0 0 65279 0 0 65279 0 0 65279 0 0 65279 0 0 65279 0 0 65279 0 0 65279 0 0 65279 0 0 65279 0 0 65279 0 0 65279 0 0 65279 0 0 65279 0 0 65279 0 0 65279 0 0 65279 0 0 65279 0 0 65279 0 0 65279 0 0 65279 0 0 65279 0 0 65279 0 0 65279 0 0 65279 0 0 65279 0 0 65279 0 0 65279 0 0 65279 0 0 65279 0 0 65279 0 0 65279 0 0 65279 0 0 65279 0 0 65279 0 0 65279 0 0 65279 0 0 65279 0 0 65279 0 0 65279 0 0 65279 0 0 65279 0 0 65279 0 0 65279 0 0 65279 0 0 65279 0 0 65279 0 0 65279 0 0 65279 0 0 65279 0 0 65279 0 0 65279 0 0 65279 0 0 65279 0 0 65279 0 0 65279 0 0 65279 0 0 65279 0 0 65279 0 0 65279 0 0 65279 0 0 65279 0 0 65279 0 0 65279 0 0 65279 0 0 65279 0 0 65279 0 0 65279 0 0 65279 0 0 65279 0 0 65279 0 0 65279 0 0 65279 0 0 65279 0 0 65279 0 0 65279 0 0 65279 0 0 65279 0 0 65279 0 0 65279 0 0 65279 0 0 65279 0 0 65279 0 0 65279 0 0 65279 0 0 65279 0 0 65279 0 0 65279 0 0 65279 0 0 65279 0 0 65279 0 0 65279 0 0 65279 0 0 65279 0 0 65279 0 0 65279 0 0 65279 0 0 65279 0 0 65279 0 0 65279 0 0 65279 0 0 65279 0 0 65279 0 0 65279 0 0 65279 0 0 65279 0 0 65279 0 0 65279 0 0 65279 0 0 65279 0 0 65279 0 0 65279 0 0 65279 0 0 65279 0 0 65279 0 0 65279 0 0 65279 0 0 65279 0 0 65279 0 0 65279 0 0 65279 0 0 65279 0 0 65279 0 0 65279 0 0 65279 0 0 65279 0 0 65279 0 0 65279 0 0 65279 0 0 65279 0 0 65279 0 0 65279 0 0 65279 0 0 65279 0 0 65279 0 0 65279 0 0 65279 0 0 65279 0 0 65279 0 0 65279 0 0 65279 0 0 65279 0 0 65279 0 0 65279 0 0 65279 0 0 65279 0 0 65279 0 0 65279 0 0 65279 0 0 65279 0 0 65279 0 0 65279 0 0 65279 0 0 65279 0 0 65279 0 0 65279 0 0 65279 0 0 65279 0 0 65279 0 0 65279 0 0 65279 0 0 65279 0 0 65279 0 0 65279 0 0 65279 0 0 65279 0 0 65279 0 0 65279 0 0 65279 0 0 65279 0 0 65279 0 0 65279 0 0 65279 0 0 65279 0 0 65279 0 0 65279 0 0 65279 0 0 65279 0 0 65279 0 0 65279 0 0 65279 0 0 65279 0 0 65279 0 0 65279 0 0 65279 0 0 65279 0 0 65279 0 0 65279 0 0 65279 0 0 65279 0 0 65279 0 0 65279 0 0 65279 0 0 65279 0 0 65279 0 0 65279 0 0 65279 0 0 65279 0 0 65279 0 0 65279 0 0 65279 0 0 65279 0 0 65279 0 0 65279 0 0 65279 0 0 65279 0 0 65279 0 0 65279 0 0 65279 0 0 65279 0 0 65279 0 0 65279 0 0 65279 0 0 65279 0 0 65279 0 0 65279 0 0 65279 0 0 65279 0 0 65279 0 0 65279 0 0 65279 0 0 65279 0 0 65279 0 0 65279 0 0 65279 0 0 65279 0 0 65279 0 0 65279 0 0 65279 0 0 65279 0 0 65279 0 0 65279 0 0 65279 0 0 65279 0 0 65279 0 0 65279 0 0 65279 0 0 65279 0 0 65279 0 0 65279 0 0 65279 0 0 65279 0 0 65279 0 0 65279 0 0 65279 0 0 65279 0 0 65279 0 0 65279 0 0 65279 0 0 65279 0 0 65279 0 0 65279 0 0 65279 0 0 65279 0 0 65279 0 0 65279 0 0 65279 0 0 65279 0 0 65279 0 0 65279 0 0 65279 0 0 65279 0 0 65279 0 0 65279 0 0 65279 0 0 65279 0 0 65279 0 0 65279 0 0 65279 0 0 65279 0 0 65279 0 0 65279 0 0 65279 0 0 65279 0 0 65279 0 0 65279 0 0 65279 0 0 65279 0 0 65279 0 0 65279 0 0 65279 0 0 65279 0 0 65279 0 0 65279 0 0 65279 0 0 65279 0 0 65279 0 0 65279 0 0 65279 0 0 65279 0 0 65279 0 0 65279 0 0 65279 0 0 65279 0 0 65279 0 0 65279 0 0 65279 0 0 65279 0 0 65279 0 0 65279 0 0 65279 0 0 65279 0 0 65279 0 0 65279 0 0 65279 0 0 65279 0 0 65279 0 0 65279 0 0 65279 0 0 65279 0 0 65279 0 0 65279 0 0 65279 0 0 65279 0 0 65279 0 0 65279 0 0 65279 0 0 65279 0 0 65279 0 0 65279 0 0 65279 0 0 65279 0 0 65279 0 0 65279 0 0 65279 0 0 65279 0 0 65279 0 0 65279 0 0 65279 0 0 65279 0 0 65279 0 0 65279 0 0 65279 0 0 65279 0 0 65279 0 0 65279 0 0 65279 0 0 65279 0 0 65279 0 0 65279 0 0 65279 0 0 65279 0 0 65279 0 0 65279 0 0 65279 0 0 65279 0 0 65279 0 0 65279 0 0 65279 0 0 65279 0 0 65279 0 0 65279 0 0 65279 0 0 65279 0 0 65279 0 0 65279 0 0 65279 0 0 65279 0 0 65279 0 0 65279 0 0 65279 0 0 65279 0 0 65279 0 0 65279 0 0 65279 0 0 65279 0 0 65279 0 0 65279 0 0 65279 0 0 65279 0 0 65279 0 0 65279 0 0 65279 0 0 65279 0 0 65279 0 0 65279 0 0 65279 0 0 65279 0 0 65279 0 0 65279 0 0 65279 0 0 65279 0 0 65279 0 0 65279 0 0 65279 0 0 65279 0 0 65279 0 0 65279 0 0 65279 0 0 65279 0 0 65279 0 0 65279 0 0 65279 0 0 65279 0 0 65279 0 0 65279 0 0 65279 0 0 65279 0 0 65279 0 0 65279 0 0 65279 0 0 65279 0 0 65279 0 0 65279 0 0 65279 0 0 65279 0 0 65279 0 0 65279 0 0 65279 0 0 65279 0 0 65279 0 0 65279 0 0 65279 0 0 65279 0 0 65279 0 0 65279 0 0 65279 0 0 65279 0 0 65279 0 0 65279 0 0 65279 0 0 65279 0 0 65279 0 0 65279 0 0 65279 0 0 65279 0 0 65279 0 0 65279 0 0 65279 0 0 65279 0 0 65279 0 0 65279 0 0 65279 0 0 65279 0 0 65279 0 0 65279 0 0 65279 0 0 65279 0 0 65279 0 0 65279 0 0 65279 0 0 65279 0 0 65279 0 0 65279 0 0 65279 0 0 65279 0 0 65279 0 0 65279 0 0 65279 0 0 65279 0 0 65279 0 0 65279 0 0 65279 0 0 65279 0 0 65279 0 0 65279 0 0 65279 0 0 65279 0 0 65279 0 0 65279 0 0 65279 0 0 65279 0 0 65279 0 0 65279 0 0 65279 0 0 65279 0 0 65279 0 0 65279 0 0 65279 0 0 65279 0 0 65279 0 0 65279 0 0 65279 0 0 65279 0 0 65279 0 0 65279 0 0 65279 0 0 65279 0 0 65279 0 0 65279 0 0 65279 0 0 65279 0 0 65279 0 0 65279 0 0 65279 0 0 65279 0 0 65279 0 0 65279 0 0 65279 0 0 65279 0 0 65279 0 0 65279 0 0 65279 0 0 65279 0 0 65279 0 0 65279 0 0 65279 0 0 65279 0 0 65279 0 0 65279 0 0 65279 0 0 65279 0 0 65279 0 0 65279 0 0 65279 0 0 65279 0 0 65279 0 0 65279 0 0 65279 0 0 65279 0 0 65279 0 0 65279 0 0 65279 0 0 65279 0 0 65279 0 0 65279 0 0 65279 0 0 65279 0 0 65279 0 0 65279 0 0 65279 0 0 65279 0 0 65279 0 0 65279 0 0 65279 0 0 65279 0 0 65279 0 0 65279 0 0 65279 0 0 65279 0 0 65279 0 0 65279 0 0 65279 0 0 65279 0 0 65279 0 0 65279 0 0 65279 0 0 65279 0 0 65279 0 0 65279 0 0 65279 0 0 65279 0 0 65279 0 0 65279 0 0 65279 0 0 65279 0 0 65279 0 0 65279 0 0 65279 0 0 65279 0 0 65279 0 0 65279 0 0 65279 0 0 65279 0 0 65279 0 0 65279 0 0 65279 0 0 65279 0 0 65279 0 0 65279 0 0 65279 0 0 65279 0 0 65279 0 0 65279 0 0 65279 0 0 65279 0 0 65279 0 0 65279 0 0 65279 0 0 65279 0 0 65279 0 0 65279 0 0 65279 0 0 65279 0 0 65279 0 0 65279 0 0 65279 0 0 65279 0 0 65279 0 0 65279 0 0 65279 0 0 65279 0 0 65279 0 0 65279 0 0 65279 0 0 65279 0 0 65279 0 0 65279 0 0 65279 0 0 65279 0 0 65279 0 0 65279 0 0 65279 0 0 65279 0 0 65279 0 0 65279 0 0 65279 0 0 65279 0 0 65279 0 0 65279 0 0 65279 0 0 65279 0 0 65279 0 0 65279 0 0 65279 0 0 65279 0 0 65279 0 0 65279 0 0 65279 0 0 65279 0 0 65279 0 0 65279 0 0 65279 0 0 65279 0 0 65279 0 0 65279 0 0 65279 0 0 65279 0 0 65279 0 0 65279 0 0 65279 0 0 65279 0 0 65279 0 0 65279 0 0 65279 0 0 65279 0 0 65279 0 0 65279 0 0 65279 0 0 65279 0 0 65279 0 0 65279 0 0 65279 0 0 65279 0 0 65279 0 0 65279 0 0 65279 0 0 65279 0 0 65279 0 0 65279 0 0 65279 0 0 65279 0 0 65279 0 0 65279 0 0 65279 0 0 65279 0 0 65279 0 0 65279 0 0 65279 0 0 65279 0 0 65279 0 0 65279 0 0 65279 0 0 65279 0 0 65279 0 0 65279 0 0 65279 0 0 65279 0 0 65279 0 0 65279 0 0 65279 0 0 65279 0 0 65279 0 0 65279 0 0 65279 0 0 65279 0 0 65279 0 0 65279 0 0 65279 0 0 65279 0 0 65279 0 0 65279 0 0 65279 0 0 65279 0 0 65279 0 0 65279 0 0 65279 0 0 65279 0 0 65279 0 0 65279 0 0 65279 0 0 65279 0 0 65279 0 0 65279 0 0 65279 0 0 65279 0 0 65279 0 0 65279 0 0 65279 0 0 65279 0 0 65279 0 0 65279 0 0 65279 0 0 65279 0 0 65279 0 0 65279 0 0 65279 0 0 65279 0 0 65279 0 0 65279 0 0 65279 0 0 65279 0 0 65279 0 0 65279 0 0 65279 0 0 65279 0 0 65279 0 0 65279 0 0 65279 0 0 65279 0 0 65279 0 0 65279 0 0 65279 0 0 65279 0 0 65279 0 0 65279 0 0 65279 0 0 65279 0 0 65279 0 0 65279 0 0 65279 0 0 65279 0 0 65279 0 0 65279 0 0 65279 0 0 65279 0 0 65279 0 0 65279 0 0 65279 0 0 65279 0 0 65279 0 0 65279 0 0 65279 0 0 65279 0 0 65279 0 0 65279 0 0 65279 0 0 65279 0 0 65279 0 0 65279 0 0 65279 0 0 65279 0 0 65279 0 0 65279 0 0 65279 0 0 65279 0 0 65279 0 0 65279 0 0 65279 0 0 65279 0 0 65279 0 0 65279 0 0 65279 0 0 65279 0 0 65279 0 0 65279 0 0 65279 0 0 65279 0 0 65279 0 0 65279 0 0 65279 0 0 65279 0 0 65279 0 0 65279 0 0 65279 0 0 65279 0 0 65279 0 0 65279 0 0 65279 0 0 65279 0 0 65279 0 0 65279 0 0 65279 0 0 65279 0 0 65279 0 0 65279 0 0 65279 0 0 65279 0 0 65279 0 0 65279 0 0 65279 0 0 65279 0 0 65279 0 0 65279 0 0 65279 0 0 65279 0 0 65279 0 0 65279 0 0 65279 0 0 65279 0 0 65279 0 0 65279 0 0 65279 0 0 65279 0 0 65279 0 0 65279 0 0 65279 0 0 65279 0 0 65279 0 0 65279 0 0 65279 0 0 65279 0 0 65279 0 0 65279 0 0 65279 0 0 65279 0 0 65279 0 0 65279 0 0 65279 0 0 65279 0 0 65279 0 0 65279 0 0 65279 0 0 65279 0 0 65279 0 0 65279 0 0 65279 0 0 65279 0 0 65279 0 0 65279 0 0 65279 0 0 65279 0 0 65279 0 0 65279 0 0 65279 0 0 65279 0 0 65279 0 0 65279 0 0 65279 0 0 65279 0 0 65279 0 0 65279 0 0 65279 0 0 65279 0 0 65279 0 0 65279 0 0 65279 0 0 65279 0 0 65279 0 0 65279 0 0 65279 0 0 65279 0 0 65279 0 0 65279 0 0 65279 0 0 65279 0 0 65279 0 0 65279 0 0 65279 0 0 65279 0 0 65279 0 0 65279 0 0 65279 0 0 65279 0 0 65279 0 0 65279 0 0 65279 0 0 65279 0 0 65279 0 0 65279 0 0 65279 0 0 65279 0 0 65279 0 0 65279 0 0 65279 0 0 65279 0 0 65279 0 0 65279 0 0 65279 0 0 65279 0 0 65279 0 0 65279 0 0 65279 0 0 65279 0 0 65279 0 0 65279 0 0 65279 0 0 65279 0 0 65279 0 0 65279 0 0 65279 0 0 65279 0 0 65279 0 0 65279 0 0 65279 0 0 65279 0 0 65279 0 0 65279 0 0 65279 0 0 65279 0 0 65279 0 0 65279 0 0 65279 0 0 65279 0 0 65279 0 0 65279 0 0 65279 0 0 65279 0 0 65279 0 0 65279 0 0 65279 0 0 65279 0 0 65279 0 0 65279 0 0 65279 0 0 65279 0 0 65279 0 0 65279 0 0 65279 0 0 65279 0 0 65279 0 0 65279 0 0 65279 0 0 65279 0 0 65279 0 0 65279 0 0 65279 0 0 65279 0 0 65279 0 0 65279 0 0 65279 0 0 65279 0 0 65279 0 0 65279 0 0 65279 0 0 65279 0 0 65279 0 0 65279 0 0 65279 0 0 65279 0 0 65279 0 0 65279 0 0 65279 0 0 65279 0 0 65279 0 0 65279 0 0 65279 0 0 65279 0 0 65279 0 0 65279 0 0 65279 0 0 65279 0 0 65279 0 0 65279 0 0 65279 0 0 65279 0 0 65279 0 0 65279 0 0 65279 0 0 65279 0 0 65279 0 0 65279 0 0 65279 0 0 65279 0 0 65279 0 0 65279 0 0 65279 0 0 65279 0 0 65279 0 0 65279 0 0 65279 0 0 65279 0 0 65279 0 0 65279 0 0 65279 0 0 65279 0 0 65279 0 0 65279 0 0 65279 0 0 65279 0 0 65279 0 0 65279 0 0 65279 0 0 65279 0 0 65279 0 0 65279 0 0 65279 0 0 65279 0 0 65279 0 0 65279 0 0 65279 0 0 65279 0 0 65279 0 0 65279 0 0 65279 0 0 65279 0 0 65279 0 0 65279 0 0 65279 0 0 65279 0 0 65279 0 0 65279 0 0 65279 0 0 65279 0 0 65279 0 0 65279 0 0 65279 0 0 65279 0 0 65279 0 0 65279 0 0 65279 0 0 65279 0 0 65279 0 0 65279 0 0 65279 0 0 65279 0 0 65279 0 0 65279 0 0 65279 0 0 65279 0 0 65279 0 0 65279 0 0 65279 0 0 65279 0 0 65279 0 0 65279 0 0 65279 0 0 65279 0 0 65279 0 0 65279 0 0 65279 0 0 65279 0 0 65279 0 0 65279 0 0 65279 0 0 65279 0 0 65279 0 0 65279 0 0 65279 0 0 65279 0 0 65279 0 0 65279 0 0 65279 0 0 65279 0 0 65279 0 0 65279 0 0 65279 0 0 65279 0 0 65279 0 0 65279 0 0 65279 0 0 65279 0 0 65279 0 0 65279 0 0 65279 0 0 65279 0 0 65279 0 0 65279 0 0 65279 0 0 65279 0 0 65279 0 0 65279 0 0 65279 0 0 65279 0 0 65279 0 0 65279 0 0 65279 0 0 65279 0 0 65279 0 0 65279 0 0 65279 0 0 65279 0 0 65279 0 0 65279 0 0 65279 0 0 65279 0 0 65279 0 0 65279 0 0 65279 0 0 65279 0 0 65279 0 0 65279 0 0 65279 0 0 65279 0 0 65279 0 0 65279 0 0 65279 0 0 65279 0 0 65279 0 0 65279 0 0 65279 0 0 65279 0 0 65279 0 0 65279 0 0 65279 0 0 65279 0 0 65279 0 0 65279 0 0 65279 0 0 65279 0 0 65279 0 0 65279 0 0 65279 0 0 65279 0 0 65279 0 0 65279 0 0 65279 0 0 65279 0 0 65279 0 0 65279 0 0 65279 0 0 65279 0 0 65279 0 0 65279 0 0 65279 0 0 65279 0 0 65279 0 0 65279 0 0 65279 0 0 65279 0 0 65279 0 0 65279 0 0 65279 0 0 65279 0 0 65279 0 0 65279 0 0 65279 0 0 65279 0 0 65279 0 0 65279 0 0 65279 0 0 65279 0 0 65279 0 0 65279 0 0 65279 0 0 65279 0 0 65279 0 0 65279 0 0 65279 0 0 65279 0 0 65279 0 0 65279 0 0 65279 0 0 65279 0 0 65279 0 0 65279 0 0 65279 0 0 65279 0 0 65279 0 0 65279 0 0 65279 0 0 65279 0 0 65279 0 0 65279 0 0 65279 0 0 65279 0 0 65279 0 0 65279 0 0 65279 0 0 65279 0 0 65279 0 0 65279 0 0 65279 0 0 65279 0 0 65279 0 0 65279 0 0 65279 0 0 65279 0 0 65279 0 0 65279 0 0 65279 0 0 65279 0 0 65279 0 0 65279 0 0 65279 0 0 65279 0 0 65279 0 0 65279 0 0 65279 0 0 65279 0 0 65279 0 0 65279 0 0 65279 0 0 65279 0 0 65279 0 0 65279 0 0 65279 0 0 65279 0 0 65279 0 0 65279 0 0 65279 0 0 65279 0 0 65279 0 0 65279 0 0 65279 0 0 65279 0 0 65279 0 0 65279 0 0 65279 0 0 65279 0 0 65279 0 0 65279 0 0 65279 0 0 65279 0 0 65279 0 0 65279 0 0 65279 0 0 65279 0 0 65279 0 0 65279 0 0 65279 0 0 65279 0 0 65279 0 0 65279 0 0 65279 0 0 65279 0 0 65279 0 0 65279 0 0 65279 0 0 65279 0 0 65279 0 0 65279 0 0 65279 0 0 65279 0 0 65279 0 0 65279 0 0 65279 0 0 65279 0 0 65279 0 0 65279 0 0 65279 0 0 65279 0 0 65279 0 0 65279 0 0 65279 0 0 65279 0 0 65279 0 0 65279 0 0 65279 0 0 65279 0 0 65279 0 0 65279 0 0 65279 0 0 65279 0 0 65279 0 0 65279 0 0 65279 0 0 65279 0 0 65279 0 0 65279 0 0 65279 0 0 65279 0 0 65279 0 0 65279 0 0 65279 0 0 65279 0 0 65279 0 0 65279 0 0 65279 0 0 65279 0 0 65279 0 0 65279 0 0 65279 0 0 65279 0 0 65279 0 0 65279 0 0 65279 0 0 65279 0 0 65279 0 0 65279 0 0 65279 0 0 65279 0 0 65279 0 0 65279 0 0 65279 0 0 65279 0 0 65279 0 0 65279 0 0 65279 0 0 65279 0 0 65279 0 0 65279 0 0 65279 0 0 65279 0 0 65279 0 0 65279 0 0 65279 0 0 65279 0 0 65279 0 0 65279 0 0 65279 0 0 65279 0 0 65279 0 0 65279 0 0 65279 0 0 65279 0 0 65279 0 0 65279 0 0 65279 0 0 65279 0 0 65279 0 0 65279 0 0 65279 0 0 65279 0 0 65279 0 0 65279 0 0 65279 0 0 65279 0 0 65279 0 0 65279 0 0 65279 0 0 65279 0 0 65279 0 0 65279 0 0 65279 0 0 65279 0 0 65279 0 0 65279 0 0 65279 0 0 65279 0 0 65279 0 0 65279 0 0 65279 0 0 65279 0 0 65279 0 0 65279 0 0 65279 0 0 65279 0 0 65279 0 0 65279 0 0 65279 0 0 65279 0 0 65279 0 0 65279 0 0 65279 0 0 65279 0 0 65279 0 0 65279 0 0 65279 0 0 65279 0 0 65279 0 0 65279 0 0 65279 0 0 65279 0 0 65279 0 0 65279 0 0 65279 0 0 65279 0 0 65279 0 0 65279 0 0 65279 0 0 65279 0 0 65279 0 0 65279 0 0 65279 0 0 65279 0 0 65279 0 0 65279 0 0 65279 0 0 65279 0 0 65279 0 0 65279 0 0 65279 0 0 65279 0 0 65279 0 0 65279 0 0 65279 0 0 65279 0 0 65279 0 0 65279 0 0 65279 0 0 65279 0 0 65279 0 0 65279 0 0 65279 0 0 65279 0 0 65279 0 0 65279 0 0 65279 0 0 65279 0 0 65279 0 0 65279 0 0 65279 0 0 65279 0 0 65279 0 0 65279 0 0 65279 0 0 65279 0 0 65279 0 0 65279 0 0 65279 0 0 65279 0 0 65279 0 0 65279 0 0 65279 0 0 65279 0 0 65279 0 0 65279 0 0 65279 0 0 65279 0 0 65279 0 0 65279 0 0 65279 0 0 65279 0 0 65279 0 0 65279 0 0 65279 0 0 65279 0 0 65279 0 0 65279 0 0 65279 0 0 65279 0 0 65279 0 0 65279 0 0 65279 0 0 65279 0 0 65279 0 0 65279 0 0 65279 0 0 65279 0 0 65279 0 0 65279 0 0 65279 0 0 65279 0 0 65279 0 0 65279 0 0 65279 0 0 65279 0 0 65279 0 0 65279 0 0 65279 0 0 65279 0 0 65279 0 0 65279 0 0 65279 0 0 65279 0 0 65279 0 0 65279 0 0 65279 0 0 65279 0 0 65279 0 0 65279 0 0 65279 0 0 65279 0 0 65279 0 0 65279 0 0 65279 0 0 65279 0 0 65279 0 0 65279 0 0 65279 0 0 65279 0 0 65279 0 0 65279 0 0 65279 0 0 65279 0 0 65279 0 0 65279 0 0 65279 0 0 65279 0 0 65279 0 0 65279 0 0 65279 0 0 65279 0 0 65279 0 0 65279 0 0 65279 0 0 65279 0 0 65279 0 0 65279 0 0 65279 0 0 65279 0 0 65279 0 0 65279 0 0 65279 0 0 65279 0 0 65279 0 0 65279 0 0 65279 0 0 65279 0 0 65279 0 0 65279 0 0 65279 0 0 65279 0 0 65279 0 0 65279 0 0 65279 0 0 65279 0 0 65279 0 0 65279 0 0 65279 0 0 65279 0 0 65279 0 0 65279 0 0 65279 0 0 65279 0 0 65279 0 0 65279 0 0 65279 0 0 65279 0 0 65279 0 0 65279 0 0 65279 0 0 65279 0 0 65279 0 0 65279 0 0 65279 0 0 65279 0 0 65279 0 0 65279 0 0 65279 0 0 65279 0 0 65279 0 0 65279 0 0 65279 0 0 65279 0 0 65279 0 0 65279 0 0 65279 0 0 65279 0 0 65279 0 0 65279 0 0 65279 0 0 65279 0 0 65279 0 0 65279 0 0 65279 0 0 65279 0 0 65279 0 0 65279 0 0 65279 0 0 65279 0 0 65279 0 0 65279 0 0 65279 0 0 65279 0 0 65279 0 0 65279 0 0 65279 0 0 65279 0 0 65279 0 0 65279 0 0 65279 0 0 65279 0 0 65279 0 0 65279 0 0 65279 0 0 65279 0 0 65279 0 0 65279 0 0 65279 0 0 65279 0 0 65279 0 0 65279 0 0 65279 0 0 65279 0 0 65279 0 0 65279 0 0 65279 0 0 65279 0 0 65279 0 0 65279 0 0 65279 0 0 65279 0 0 65279 0 0 65279 0 0 65279 0 0 65279 0 0 65279 0 0 65279 0 0 65279 0 0 65279 0 0 65279 0 0 65279 0 0 65279 0 0 65279 0 0 65279 0 0 65279 0 0 65279 0 0 65279 0 0 65279 0 0 65279 0 0 65279 0 0 65279 0 0 65279 0 0 65279 0 0 65279 0 0 65279 0 0 65279 0 0 65279 0 0 65279 0 0 65279 0 0 65279 0 0 65279 0 0 65279 0 0 65279 0 0 65279 0 0 65279 0 0 65279 0 0 65279 0 0 65279 0 0 65279 0 0 65279 0 0 65279 0 0 65279 0 0 65279 0 0 65279 0 0 65279 0 0 65279 0 0 65279 0 0 65279 0 0 65279 0 0 65279 0 0 65279 0 0 65279 0 0 65279 0 0 65279 0 0 65279 0 0 65279 0 0 65279 0 0 65279 0 0 65279 0 0 65279 0 0 65279 0 0 65279 0 0 65279 0 0 65279 0 0 65279 0 0 65279 0 0 65279 0 0 65279 0 0 65279 0 0 65279 0 0 65279 0 0 65279 0 0 65279 0 0 65279 0 0 65279 0 0 65279 0 0 65279 0 0 65279 0 0 65279 0 0 65279 0 0 65279 0 0 65279 0 0 65279 0 0 65279 0 0 65279 0 0 65279 0 0 65279 0 0 65279 0 0 65279 0 0 65279 0 0 65279 0 0 65279 0 0 65279 0 0 65279 0 0 65279 0 0 65279 0 0 65279 0 0 65279 0 0 65279 0 0 65279 0 0 65279 0 0 65279 0 0 65279 0 0 65279 0 0 65279 0 0 65279 0 0 65279 0 0 65279 0 0 65279 0 0 65279 0 0 65279 0 0 65279 0 0 65279 0 0 65279 0 0 65279 0 0 65279 0 0 65279 0 0 65279 0 0 65279 0 0 65279 0 0 65279 0 0 65279 0 0 65279 0 0 65279 0 0 65279 0 0 65279 0 0 65279 0 0 65279 0 0 65279 0 0 65279 0 0 65279 0 0 65279 0 0 65279 0 0 65279 0 0 65279 0 0 65279 0 0 65279 0 0 65279 0 0 65279 0 0 65279 0 0 65279 0 0 65279 0 0 65279 0 0 65279 0 0 65279 0 0 65279 0 0 65279 0 0 65279 0 0 65279 0 0 65279 0 0 65279 0 0 65279 0 0 65279 0 0 65279 0 0 65279 0 0 65279 0 0 65279 0 0 65279 0 0 65279 0 0 65279 0 0 65279 0 0 65279 0 0 65279 0 0 65279 0 0 65279 0 0 65279 0 0 65279 0 0 65279 0 0 65279 0 0 65279 0 0 65279 0 0 65279 0 0 65279 0 0 65279 0 0 65279 0 0 65279 0 0 65279 0 0 65279 0 0 65279 0 0 65279 0 0 65279 0 0 65279 0 0 65279 0 0 65279 0 0 65279 0 0 65279 0 0 65279 0 0 65279 0 0 65279 0 0 65279 0 0 65279 0 0 65279 0 0 65279 0 0 65279 0 0 65279 0 0 65279 0 0 65279 0 0 65279 0 0 65279 0 0 65279 0 0 65279 0 0 65279 0 0 65279 0 0 65279 0 0 65279 0 0 65279 0 0 65279 0 0 65279 0 0 65279 0 0 65279 0 0 65279 0 0 65279 0 0 65279 0 0 65279 0 0 65279 0 0 65279 0 0 65279 0 0 65279 0 0 65279 0 0 65279 0 0 65279 0 0 65279 0 0 65279 0 0 65279 0 0 65279 0 0 65279 0 0 65279 0 0 65279 0 0 65279 0 0 65279 0 0 65279 0 0 65279 0 0 65279 0 0 65279 0 0 65279 0 0 65279 0 0 65279 0 0 65279 0 0 65279 0 0 65279 0 0 65279 0 0 65279 0 0 65279 0 0 65279 0 0 65279 0 0 65279 0 0 65279 0 0 65279 0 0 65279 0 0 65279 0 0 65279 0 0 65279 0 0 65279 0 0 65279 0 0 65279 0 0 65279 0 0 65279 0 0 65279 0 0 65279 0 0 65279 0 0 65279 0 0 65279 0 0 65279 0 0 65279 0 0 65279 0 0 65279 0 0 65279 0 0 65279 0 0 65279 0 0 65279 0 0 65279 0 0 65279 0 0 65279 0 0 65279 0 0 65279 0 0 65279 0 0 65279 0 0 65279 0 0 65279 0 0 65279 0 0 65279 0 0 65279 0 0 65279 0 0 65279 0 0 65279 0 0 65279 0 0 65279 0 0 65279 0 0 65279 0 0 65279 0 0 65279 0 0 65279 0 0 65279 0 0 65279 0 0 65279 0 0 65279 0 0 65279 0 0 65279 0 0 65279 0 0 65279 0 0 65279 0 0 65279 0 0 65279 0 0 65279 0 0 65279 0 0 65279 0 0 65279 0 0 65279 0 0 65279 0 0 65279 0 0 65279 0 0 65279 0 0 65279 0 0 65279 0 0 65279 0 0 65279 0 0 65279 0 0 65279 0 0 65279 0 0 65279 0 0 65279 0 0 65279 0 0 65279 0 0 65279 0 0 65279 0 0 65279 0 0 65279 0 0 65279 0 0 65279 0 0 65279 0 0 65279 0 0 65279 0 0 65279 0 0 65279 0 0 65279 0 0 65279 0 0 65279 0 0 65279 0 0 65279 0 0 65279 0 0 65279 0 0 65279 0 0 65279 0 0 65279 0 0 65279 0 0 65279 0 0 65279 0 0 65279 0 0 65279 0 0 65279 0 0 65279 0 0 65279 0 0 65279 0 0 65279 0 0 65279 0 0 65279 0 0 65279 0 0 65279 0 0 65279 0 0 65279 0 0 65279 0 0 65279 0 0 65279 0 0 65279 0 0 65279 0 0 65279 0 0 65279 0 0 65279 0 0 65279 0 0 65279 0 0 65279 0 0 65279 0 0 65279 0 0 65279 0 0 65279 0 0 65279 0 0 65279 0 0 65279 0 0 65279 0 0 65279 0 0 65279 0 0 65279 0 0 65279 0 0 65279 0 0 65279 0 0 65279 0 0 65279 0 0 65279 0 0 65279 0 0 65279 0 0 65279 0 0 65279 0 0 65279 0 0 65279 0 0 65279 0 0 65279 0 0 65279 0 0 65279 0 0 65279 0 0 65279 0 0 65279 0 0 65279 0 0 65279 0 0 65279 0 0 65279 0 0 65279 0 0 65279 0 0 65279 0 0 65279 0 0 65279 0 0 65279 0 0 65279 0 0 65279 0 0 65279 0 0 65279 0 0 65279 0 0 65279 0 0 65279 0 0 65279 0 0 65279 0 0 65279 0 0 65279 0 0 65279 0 0 65279 0 0 65279 0 0 65279 0 0 65279 0 0 65279 0 0 65279 0 0 65279 0 0 65279 0 0 65279 0 0 65279 0 0 65279 0 0 65279 0 0 65279 0 0 65279 0 0 65279 0 0 65279 0 0 65279 0 0 65279 0 0 65279 0 0 65279 0 0 65279 0 0 65279 0 0 65279 0 0 65279 0 0 65279 0 0 65279 0 0 65279 0 0 65279 0 0 65279 0 0 65279 0 0 65279 0 0 65279 0 0 65279 0 0 65279 0 0 65279 0 0 65279 0 0 65279 0 0 65279 0 0 65279 0 0 65279 0 0 65279 0 0 65279 0 0 65279 0 0 65279 0 0 65279 0 0 65279 0 0 65279 0 0 65279 0 0 65279 0 0 65279 0 0 65279 0 0 65279 0 0 65279 0 0 65279 0 0 65279 0 0 65279 0 0 65279 0 0 65279 0 0 65279 0 0 65279 0 0 65279 0 0 65279 0 0 65279 0 0 65279 0 0 65279 0 0 65279 0 0 65279 0 0 65279 0 0 65279 0 0 65279 0 0 65279 0 0 65279 0 0 65279 0 0 65279 0 0 65279 0 0 65279 0 0 65279 0 0 65279 0 0 65279 0 0 65279 0 0 65279 0 0 65279 0 0 65279 0 0 65279 0 0 65279 0 0 65279 0 0 65279 0 0 65279 0 0 65279 0 0 65279 0 0 65279 0 0 65279 0 0 65279 0 0 65279 0 0 65279 0 0 65279 0 0 65279 0 0 65279 0 0 65279 0 0 65279 0 0 65279 0 0 65279 0 0 65279 0 0 65279 0 0 65279 0 0 65279 0 0 65279 0 0 65279 0 0 65279 0 0 65279 0 0 65279 0 0 65279 0 0 65279 0 0 65279 0 0 65279 0 0 65279 0 0 65279 0 0 65279 0 0 65279 0 0 65279 0 0 65279 0 0 65279 0 0 65279 0 0 65279 0 0 65279 0 0 65279 0 0 65279 0 0 65279 0 0 65279 0 0 65279 0 0 65279 0 0 65279 0 0 65279 0 0 65279 0 0 65279 0 0 65279 0 0 65279 0 0 65279 0 0 65279 0 0 65279 0 0 65279 0 0 65279 0 0 65279 0 0 65279 0 0 65279 0 0 65279 0 0 65279 0 0 65279 0 0 65279 0 0 65279 0 0 65279 0 0 65279 0 0 65279 0 0 65279 0 0 65279 0 0 65279 0 0 65279 0 0 65279 0 0 65279 0 0 65279 0 0 65279 0 0 65279 0 0 65279 0 0 65279 0 0 65279 0 0 65279 0 0 65279 0 0 65279 0 0 65279 0 0 65279 0 0 65279 0 0 65279 0 0 65279 0 0 65279 0 0 65279 0 0 65279 0 0 65279 0 0 65279 0 0 65279 0 0 65279 0 0 65279 0 0 65279 0 0 65279 0 0 65279 0 0 65279 0 0 65279 0 0 65279 0 0 65279 0 0 65279 0 0 65279 0 0 65279 0 0 65279 0 0 65279 0 0 65279 0 0 65279 0 0 65279 0 0 65279 0 0 65279 0 0 65279 0 0 65279 0 0 65279 0 0 65279 0 0 65279 0 0 65279 0 0 65279 0 0 65279 0 0 65279 0 0 65279 0 0 65279 0 0 65279 0 0 65279 0 0 65279 0 0 65279 0 0 65279 0 0 65279 0 0 65279 0 0 65279 0 0 65279 0 0 65279 0 0 65279 0 0 65279 0 0 65279 0 0 65279 0 0 65279 0 0 65279 0 0 65279 0 0 65279 0 0 65279 0 0 65279 0 0 65279 0 0 65279 0 0 65279 0 0 65279 0 0 65279 0 0 65279 0 0 65279 0 0 65279 0 0 65279 0 0 65279 0 0 65279 0 0 65279 0 0 65279 0 0 65279 0 0 65279 0 0 65279 0 0 65279 0 0 65279 0 0 65279 0 0 65279 0 0 65279 0 0 65279 0 0 65279 0 0 65279 0 0 65279 0 0 65279 0 0 65279 0 0 65279 0 0 65279 0 0 65279 0 0 65279 0 0 65279 0 0 65279 0 0 65279 0 0 65279 0 0 65279 0 0 65279 0 0 65279 0 0 65279 0 0 65279 0 0 65279 0 0 65279 0 0 65279 0 0 65279 0 0 65279 0 0 65279 0 0 65279 0 0 65279 0 0 65279 0 0 65279 0 0 65279 0 0 65279 0 0 65279 0 0 65279 0 0 65279 0 0 65279 0 0 65279 0 0 65279 0 0 65279 0 0 65279 0 0 65279 0 0 65279 0 0 65279 0 0 65279 0 0 65279 0 0 65279 0 0 65279 0 0 65279 0 0 65279 0 0 65279 0 0 65279 0 0 65279 0 0 65279 0 0 65279 0 0 65279 0 0 65279 0 0 65279 0 0 65279 0 0 65279 0 0 65279 0 0 65279 0 0 65279 0 0 65279 0 0 65279 0 0 65279 0 0 65279 0 0 65279 0 0 65279 0 0 65279 0 0 65279 0 0 65279 0 0 65279 0 0 65279 0 0 65279 0 0 65279 0 0 65279 0 0 65279 0 0 65279 0 0 65279 0 0 65279 0 0 65279 0 0 65279 0 0 65279 0 0 65279 0 0 65279 0 0 65279 0 0 65279 0 0 65279 0 0 65279 0 0 65279 0 0 65279 0 0 65279 0 0 65279 0 0 65279 0 0 65279 0 0 65279 0 0 65279 0 0 65279 0 0 65279 0 0 65279 0 0 65279 0 0 65279 0 0 65279 0 0 65279 0 0 65279 0 0 65279 0 0 65279 0 0 65279 0 0 65279 0 0 65279 0 0 65279 0 0 65279 0 0 65279 0 0 65279 0 0 65279 0 0 65279 0 0 65279 0 0 65279 0 0 65279 0 0 65279 0 0 65279 0 0 65279 0 0 65279 0 0 65279 0 0 65279 0 0 65279 0 0 65279 0 0 65279 0 0 65279 0 0 65279 0 0 65279 0 0 65279 0 0 65279 0 0 65279 0 0 65279 0 0 65279 0 0 65279 0 0 65279 0 0 65279 0 0 65279 0 0 65279 0 0 65279 0 0 65279 0 0 65279 0 0 65279 0 0 65279 0 0 65279 0 0 65279 0 0 65279 0 0 65279 0 0 65279 0 0 65279 0 0 65279 0 0 65279 0 0 65279 0 0 65279 0 0 65279 0 0 65279 0 0 65279 0 0 65279 0 0 65279 0 0 65279 0 0 65279 0 0 65279 0 0 65279 0 0 65279 0 0 65279 0 0 65279 0 0 65279 0 0 65279 0 0 65279 0 0 65279 0 0 65279 0 0 65279 0 0 65279 0 0 65279 0 0 65279 0 0 65279 0 0 65279 0 0 65279 0 0 65279 0 0 65279 0 0 65279 0 0 65279 0 0 65279 0 0 65279 0 0 65279 0 0 65279 0 0 65279 0 0 65279 0 0 65279 0 0 65279 0 0 65279 0 0 65279 0 0 65279 0 0 65279 0 0 65279 0 0 65279 0 0 65279 0 0 65279 0 0 65279 0 0 65279 0 0 65279 0 0 65279 0 0 65279 0 0 65279 0 0 65279 0 0 65279 0 0 65279 0 0 65279 0 0 65279 0 0 65279 0 0 65279 0 0 65279 0 0 65279 0 0 65279 0 0 65279 0 0 65279 0 0 65279 0 0 65279 0 0 65279 0 0 65279 0 0 65279 0 0 65279 0 0 65279 0 0 65279 0 0 65279 0 0 65279 0 0 65279 0 0 65279 0 0 65279 0 0 65279 0 0 65279 0 0 65279 0 0 65279 0 0 65279 0 0 65279 0 0 65279 0 0 65279 0 0 65279 0 0 65279 0 0 65279 0 0 65279 0 0 65279 0 0 65279 0 0 65279 0 0 65279 0 0 65279 0 0 65279 0 0 65279 0 0 65279 0 0 65279 0 0 65279 0 0 65279 0 0 65279 0 0 65279 0 0 65279 0 0 65279 0 0 65279 0 0 65279 0 0 65279 0 0 65279 0 0 65279 0 0 65279 0 0 65279 0 0 65279 0 0 65279 0 0 65279 0 0 65279 0 0 65279 0 0 65279 0 0 65279 0 0 65279 0 0 65279 0 0 65279 0 0 65279 0 0 65279 0 0 65279 0 0 65279 0 0 65279 0 0 65279 0 0 65279 0 0 65279 0 0 65279 0 0 65279 0 0 65279 0 0 65279 0 0 65279 0 0 65279 0 0 65279 0 0 65279 0 0 65279 0 0 65279 0 0 65279 0 0 65279 0 0 65279 0 0 65279 0 0 65279 0 0 65279 0 0 65279 0 0 65279 0 0 65279 0 0 65279 0 0 65279 0 0 65279 0 0 65279 0 0 65279 0 0 65279 0 0 65279 0 0 65279 0 0 65279 0 0 65279 0 0 65279 0 0 65279 0 0 65279 0 0 65279 0 0 65279 0 0 65279 0 0 65279 0 0 65279 0 0 65279 0 0 65279 0 0 65279 0 0 65279 0 0 65279 0 0 65279 0 0 65279 0 0 65279 0 0 65279 0 0 65279 0 0 65279 0 0 65279 0 0 65279 0 0 65279 0 0 65279 0 0 65279 0 0 65279 0 0 65279 0 0 65279 0 0 65279 0 0 65279 0 0 65279 0 0 65279 0 0 65279 0 0 65279 0 0 65279 0 0 65279 0 0 65279 0 0 65279 0 0 65279 0 0 65279 0 0 65279 0 0 65279 0 0 65279 0 0 65279 0 0 65279 0 0 65279 0 0 65279 0 0 65279 0 0 65279 0 0 65279 0 0 65279 0 0 65279 0 0 65279 0 0 65279 0 0 65279 0 0 65279 0 0 65279 0 0 65279 0 0 65279 0 0 65279 0 0 65279 0 0 65279 0 0 65279 0 0 65279 0 0 65279 0 0 65279 0 0 65279 0 0 65279 0 0 65279 0 0 65279 0 0 65279 0 0 65279 0 0 65279 0 0 65279 0 0 65279 0 0 65279 0 0 65279 0 0 65279 0 0 65279 0 0 65279 0 0 65279 0 0 65279 0 0 65279 0 0 65279 0 0 65279 0 0 65279 0 0 65279 0 0 65279 0 0 65279 0 0 65279 0 0 65279 0 0 65279 0 0 65279 0 0 65279 0 0 65279 0 0 65279 0 0 65279 0 0 65279 0 0 65279 0 0 65279 0 0 65279 0 0 65279 0 0 65279 0 0 65279 0 0 65279 0 0 65279 0 0 65279 0 0 65279 0 0 65279 0 0 65279 0 0 65279 0 0 65279 0 0 65279 0 0 65279 0 0 65279 0 0 65279 0 0 65279 0 0 65279 0 0 65279 0 0 65279 0 0 65279 0 0 65279 0 0 65279 0 0 65279 0 0 65279 0 0 65279 0 0 65279 0 0 65279 0 0 65279 0 0 65279 0 0 65279 0 0 65279 0 0 65279 0 0 65279 0 0 65279 0 0 65279 0 0 65279 0 0 65279 0 0 65279 0 0 65279 0 0 65279 0 0 65279 0 0 65279 0 0 65279 0 0 65279 0 0 65279 0 0 65279 0 0 65279 0 0 65279 0 0 65279 0 0 65279 0 0 65279 0 0 65279 0 0 65279 0 0 65279 0 0 65279 0 0 65279 0 0 65279 0 0 65279 0 0 65279 0 0 65279 0 0 65279 0 0 65279 0 0 65279 0 0 65279 0 0 65279 0 0 65279 0 0 65279 0 0 65279 0 0 65279 0 0 65279 0 0 65279 0 0 65279 0 0 65279 0 0 65279 0 0 65279 0 0 65279 0 0 65279 0 0 65279 0 0 65279 0 0 65279 0 0 65279 0 0 65279 0 0 65279 0 0 65279 0 0 65279 0 0 65279 0 0 65279 0 0 65279 0 0 65279 0 0 65279 0 0 65279 0 0 65279 0 0 65279 0 0 65279 0 0 65279 0 0 65279 0 0 65279 0 0 65279 0 0 65279 0 0 65279 0 0 65279 0 0 65279 0 0 65279 0 0 65279 0 0 65279 0 0 65279 0 0 65279 0 0 65279 0 0 65279 0 0 65279 0 0 65279 0 0 65279 0 0 65279 0 0 65279 0 0 65279 0 0 65279 0 0 65279 0 0 65279 0 0 65279 0 0 65279 0 0 65279 0 0 65279 0 0 65279 0 0 65279 0 0 65279 0 0 65279 0 0 65279 0 0 65279 0 0 65279 0 0 65279 0 0 65279 0 0 65279 0 0 65279 0 0 65279 0 0 65279 0 0 65279 0 0 65279 0 0 65279 0 0 65279 0 0 65279 0 0 65279 0 0 65279 0 0 65279 0 0 65279 0 0 65279 0 0 65279 0 0 65279 0 0 65279 0 0 65279 0 0 65279 0 0 65279 0 0 65279 0 0 65279 0 0 65279 0 0 65279 0 0 65279 0 0 65279 0 0 65279 0 0 65279 0 0 65279 0 0 65279 0 0 65279 0 0 65279 0 0 65279 0 0 65279 0 0 65279 0 0 65279 0 0 65279 0 0 65279 0 0 65279 0 0 65279 0 0 65279 0 0 65279 0 0 65279 0 0 65279 0 0 65279 0 0 65279 0 0 65279 0 0 65279 0 0 65279 0 0 65279 0 0 65279 0 0 65279 0 0 65279 0 0 65279 0 0 65279 0 0 65279 0 0 65279 0 0 65279 0 0 65279 0 0 65279 0 0 65279 0 0 65279 0 0 65279 0 0 65279 0 0 65279 0 0 65279 0 0 65279 0 0 65279 0 0 65279 0 0 65279 0 0 65279 0 0 65279 0 0 65279 0 0 65279 0 0 65279 0 0 65279 0 0 65279 0 0 65279 0 0 65279 0 0 65279 0 0 65279 0 0 65279 0 0 65279 0 0 65279 0 0 65279 0 0 65279 0 0 65279 0 0 65279 0 0 65279 0 0 65279 0 0 65279 0 0 65279 0 0 65279 0 0 65279 0 0 65279 0 0 65279 0 0 65279 0 0 65279 0 0 65279 0 0 65279 0 0 65279 0 0 65279 0 0 65279 0 0 65279 0 0 65279 0 0 65279 0 0 65279 0 0 65279 0 0 65279 0 0 65279 0 0 65279 0 0 65279 0 0 65279 0 0 65279 0 0 65279 0 0 65279 0 0 65279 0 0 65279 0 0 65279 0 0 65279 0 0 65279 0 0 65279 0 0 65279 0 0 65279 0 0 65279 0 0 65279 0 0 65279 0 0 65279 0 0 65279 0 0 65279 0 0 65279 0 0 65279 0 0 65279 0 0 65279 0 0 65279 0 0 65279 0 0 65279 0 0 65279 0 0 65279 0 0 65279 0 0 65279 0 0 65279 0 0 65279 0 0 65279 0 0 65279 0 0 65279 0 0 65279 0 0 65279 0 0 65279 0 0 65279 0 0 65279 0 0 65279 0 0 65279 0 0 65279 0 0 65279 0 0 65279 0 0 65279 0 0 65279 0 0 65279 0 0 65279 0 0 65279 0 0 65279 0 0 65279 0 0 65279 0 0 65279 0 0 65279 0 0 65279 0 0 65279 0 0 65279 0 0 65279 0 0 65279 0 0 65279 0 0 65279 0 0 65279 0 0 65279 0 0 65279 0 0 65279 0 0 65279 0 0 65279 0 0 65279 0 0 65279 0 0 65279 0 0 65279 0 0 65279 0 0 65279 0 0 65279 0 0 65279 0 0 65279 0 0 65279 0 0 65279 0 0 65279 0 0 65279 0 0 65279 0 0 65279 0 0 65279 0 0 65279 0 0 65279 0 0 65279 0 0 65279 0 0 65279 0 0 65279 0 0 65279 0 0 65279 0 0 65279 0 0 65279 0 0 65279 0 0 65279 0 0 65279 0 0 65279 0 0 65279 0 0 65279 0 0 65279 0 0 65279 0 0 65279 0 0 65279 0 0 65279 0 0 65279 0 0 65279 0 0 65279 0 0 65279 0 0 65279 0 0 65279 0 0 65279 0 0 65279 0 0 65279 0 0 65279 0 0 65279 0 0 65279 0 0 65279 0 0 65279 0 0 65279 0 0 65279 0 0 65279 0 0 65279 0 0 65279 0 0 65279 0 0 65279 0 0 65279 0 0 65279 0 0 65279 0 0 65279 0 0 65279 0 0 65279 0 0 65279 0 0 65279 0 0 65279 0 0 65279 0 0 65279 0 0 65279 0 0 65279 0 0 65279 0 0 65279 0 0 65279 0 0 65279 0 0 65279 0 0 65279 0 0 65279 0 0 65279 0 0 65279 0 0 65279 0 0 65279 0 0 65279 0 0 65279 0 0 65279 0 0 65279 0 0 65279 0 0 65279 0 0 65279 0 0 65279 0 0 65279 0 0 65279 0 0 65279 0 0 65279 0 0 65279 0 0 65279 0 0 65279 0 0 65279 0 0 65279 0 0 65279 0 0 65279 0 0 65279 0 0 65279 0 0 65279 0 0 65279 0 0 65279 0 0 65279 0 0 65279 0 0 65279 0 0 65279 0 0 65279 0 0 65279 0 0 65279 0 0 65279 0 0 65279 0 0 65279 0 0 65279 0 0 65279 0 0 65279 0 0 65279 0 0 65279 0 0 65279 0 0 65279 0 0 65279 0 0 65279 0 0 65279 0 0 65279 0 0 65279 0 0 65279 0 0 65279 0 0 65279 0 0 65279 0 0 65279 0 0 65279 0 0 65279 0 0 65279 0 0 65279 0 0 65279 0 0 65279 0 0 65279 0 0 65279 0 0 65279 0 0 65279 0 0 65279 0 0 65279 0 0 65279 0 0 65279 0 0 65279 0 0 65279 0 0 65279 0 0 65279 0 0 65279 0 0 65279 0 0 65279 0 0 65279 0 0 65279 0 0 65279 0 0 65279 0 0 65279 0 0 65279 0 0 65279 0 0 65279 0 0 65279 0 0 65279 0 0 65279 0 0 65279 0 0 65279 0 0 65279 0 0 65279 0 0 65279 0 0 65279 0 0 65279 0 0 65279 0 0 65279 0 0 65279 0 0 65279 0 0 65279 0 0 65279 0 0 65279 0 0 65279 0 0 65279 0 0 65279 0 0 65279 0 0 65279 0 0 65279 0 0 65279 0 0 65279 0 0 65279 0 0 65279 0 0 65279 0 0 65279 0 0 65279 0 0 65279 0 0 65279 0 0 65279 0 0 65279 0 0 65279 0 0 65279 0 0 65279 0 0 65279 0 0 65279 0 0 65279 0 0 65279 0 0 65279 0 0 65279 0 0 65279 0 0 65279 0 0 65279 0 0 65279 0 0 65279 0 0 65279 0 0 65279 0 0 65279 0 0 65279 0 0 65279 0 0 65279 0 0 65279 0 0 65279 0 0 65279 0 0 65279 0 0 65279 0 0 65279 0 0 65279 0 0 65279 0 0 65279 0 0 65279 0 0 65279 0 0 65279 0 0 65279 0 0 65279 0 0 65279 0 0 65279 0 0 65279 0 0 65279 0 0 65279 0 0 65279 0 0 65279 0 0 65279 0 0 65279 0 0 65279 0 0 65279 0 0 65279 0 0 65279 0 0 65279 0 0 65279 0 0 65279 0 0 65279 0 0 65279 0 0 65279 0 0 65279 0 0 65279 0 0 65279 0 0 65279 0 0 65279 0 0 65279 0 0 65279 0 0 65279 0 0 65279 0 0 65279 0 0 65279 0 0 65279 0 0 65279 0 0 65279 0 0 65279 0 0 65279 0 0 65279 0 0 65279 0 0 65279 0 0 65279 0 0 65279 0 0 65279 0 0 65279 0 0 65279 0 0 65279 0 0 65279 0 0 65279 0 0 65279 0 0 65279 0 0 65279 0 0 65279 0 0 65279 0 0 65279 0 0 65279 0 0 65279 0 0 65279 0 0 65279 0 0 65279 0 0 65279 0 0 65279 0 0 65279 0 0 65279 0 0 65279 0 0 65279 0 0 65279 0 0 65279 0 0 65279 0 0 65279 0 0 65279 0 0 65279 0 0 65279 0 0 65279 0 0 65279 0 0 65279 0 0 65279 0 0 65279 0 0 65279 0 0 65279 0 0 65279 0 0 65279 0 0 65279 0 0 65279 0 0 65279 0 0 65279 0 0 65279 0 0 65279 0 0 65279 0 0 65279 0 0 65279 0 0 65279 0 0 65279 0 0 65279 0 0 65279 0 0 65279 0 0 65279 0 0 65279 0 0 65279 0 0 65279 0 0 65279 0 0 65279 0 0 65279 0 0 65279 0 0 65279 0 0 65279 0 0 65279 0 0 65279 0 0 65279 0 0 65279 0 0 65279 0 0 65279 0 0 65279 0 0 65279 0 0 65279 0 0 65279 0 0 65279 0 0 65279 0 0 65279 0 0 65279 0 0 65279 0 0 65279 0 0 65279 0 0 65279 0 0 65279 0 0 65279 0 0 65279 0 0 65279 0 0 65279 0 0 65279 0 0 65279 0 0 65279 0 0 65279 0 0 65279 0 0 65279 0 0 65279 0 0 65279 0 0 65279 0 0 65279 0 0 65279 0 0 65279 0 0 65279 0 0 65279 0 0 65279 0 0 65279 0 0 65279 0 0 65279 0 0 65279 0 0 65279 0 0 65279 0 0 65279 0 0 65279 0 0 65279 0 0 65279 0 0 65279 0 0 65279 0 0 65279 0 0 65279 0 0 65279 0 0 65279 0 0 65279 0 0 65279 0 0 65279 0 0 65279 0 0 65279 0 0 65279 0 0 65279 0 0 65279 0 0 65279 0 0 65279 0 0 65279 0 0 65279 0 0 65279 0 0 65279 0 0 65279 0 0 65279 0 0 65279 0 0 65279 0 0 65279 0 0 65279 0 0 65279 0 0 65279 0 0 65279 0 0 65279 0 0 65279 0 0 65279 0 0 65279 0 0 65279 0 0 65279 0 0 65279 0 0 65279 0 0 65279 0 0 65279 0 0 65279 0 0 65279 0 0 65279 0 0 65279 0 0 65279 0 0 65279 0 0 65279 0 0 65279 0 0 65279 0 0 65279 0 0 65279 0 0 65279 0 0 65279 0 0 65279 0 0 65279 0 0 65279 0 0 65279 0 0 65279 0 0 65279 0 0 65279 0 0 65279 0 0 65279 0 0 65279 0 0 65279 0 0 65279 0 0 65279 0 0 65279 0 0 65279 0 0 65279 0 0 65279 0 0 65279 0 0 65279 0 0 65279 0 0 65279 0 0 65279 0 0 65279 0 0 65279 0 0 65279 0 0 65279 0 0 65279 0 0 65279 0 0 65279 0 0 65279 0 0 65279 0 0 65279 0 0 65279 0 0 65279 0 0 65279 0 0 65279 0 0 65279 0 0 65279 0 0 65279 0 0 65279 0 0 65279 0 0 65279 0 0 65279 0 0 65279 0 0 65279 0 0 65279 0 0 65279 0 0 65279 0 0 65279 0 0 65279 0 0 65279 0 0 65279 0 0 65279 0 0 65279 0 0 65279 0 0 65279 0 0 65279 0 0 65279 0 0 65279 0 0 65279 0 0 65279 0 0 65279 0 0 65279 0 0 65279 0 0 65279 0 0 65279 0 0 65279 0 0 65279 0 0 65279 0 0 65279 0 0 65279 0 0 65279 0 0 65279 0 0 65279 0 0 65279 0 0 65279 0 0 65279 0 0 65279 0 0 65279 0 0 65279 0 0 65279 0 0 65279 0 0 65279 0 0 65279 0 0 65279 0 0 65279 0 0 65279 0 0 65279 0 0 65279 0 0 65279 0 0 65279 0 0 65279 0 0 65279 0 0 65279 0 0 65279 0 0 65279 0 0 65279 0 0 65279 0 0 65279 0 0 65279 0 0 65279 0 0 65279 0 0 65279 0 0 65279 0 0 65279 0 0 65279 0 0 65279 0 0 65279 0 0 65279 0 0 65279 0 0 65279 0 0 65279 0 0 65279 0 0 65279 0 0 65279 0 0 65279 0 0 65279 0 0 65279 0 0 65279 0 0 65279 0 0 65279 0 0 65279 0 0 65279 0 0 65279 0 0 65279 0 0 65279 0 0 65279 0 0 65279 0 0 65279 0 0 65279 0 0 65279 0 0 65279 0 0 65279 0 0 65279 0 0 65279 0 0 65279 0 0 65279 0 0 65279 0 0 65279 0 0 65279 0 0 65279 0 0 65279 0 0 65279 0 0 65279 0 0 65279 0 0 65279 0 0 65279 0 0 65279 0 0 65279 0 0 65279 0 0 65279 0 0 65279 0 0 65279 0 0 65279 0 0 65279 0 0 65279 0 0 65279 0 0 65279 0 0 65279 0 0 65279 0 0 65279 0 0 65279 0 0 65279 0 0 65279 0 0 65279 0 0 65279 0 0 65279 0 0 65279 0 0 65279 0 0 65279 0 0 65279 0 0 65279 0 0 65279 0 0 65279 0 0 65279 0 0 65279 0 0 65279 0 0 65279 0 0 65279 0 0 65279 0 0 65279 0 0 65279 0 0 65279 0 0 65279 0 0 65279 0 0 65279 0 0 65279 0 0 65279 0 0 65279 0 0 65279 0 0 65279 0 0 65279 0 0 65279 0 0 65279 0 0 65279 0 0 65279 0 0 65279 0 0 65279 0 0 65279 0 0 65279 0 0 65279 0 0 65279 0 0 65279 0 0 65279 0 0 65279 0 0 65279 0 0 65279 0 0 65279 0 0 65279 0 0 65279 0 0 65279 0 0 65279 0 0 65279 0 0 65279 0 0 65279 0 0 65279 0 0 65279 0 0 65279 0 0 65279 0 0 65279 0 0 65279 0 0 65279 0 0 65279 0 0 65279 0 0 65279 0 0 65279 0 0 65279 0 0 65279 0 0 65279 0 0 65279 0 0 65279 0 0 65279 0 0 65279 0 0 65279 0 0 65279 0 0 65279 0 0 65279 0 0 65279 0 0 65279 0 0 65279 0 0 65279 0 0 65279 0 0 65279 0 0 65279 0 0 65279 0 0 65279 0 0 65279 0 0 65279 0 0 65279 0 0 65279 0 0 65279 0 0 65279 0 0 65279 0 0 65279 0 0 65279 0 0 65279 0 0 65279 0 0 65279 0 0 65279 0 0 65279 0 0 65279 0 0 65279 0 0 65279 0 0 65279 0 0 65279 0 0 65279 0 0 65279 0 0 65279 0 0 65279 0 0 65279 0 0 65279 0 0 65279 0 0 65279 0 0 65279 0 0 65279 0 0 65279 0 0 65279 0 0 65279 0 0 65279 0 0 65279 0 0 65279 0 0 65279 0 0 65279 0 0 65279 0 0 65279 0 0 65279 0 0 65279 0 0 65279 0 0 65279 0 0 65279 0 0 65279 0 0 65279 0 0 65279 0 0 65279 0 0 65279 0 0 65279 0 0 65279 0 0 65279 0 0 65279 0 0 65279 0 0 65279 0 0 65279 0 0 65279 0 0 65279 0 0 65279 0 0 65279 0 0 65279 0 0 65279 0 0 65279 0 0 65279 0 0 65279 0 0 65279 0 0 65279 0 0 65279 0 0 65279 0 0 65279 0 0 65279 0 0 65279 0 0 65279 0 0 65279 0 0 65279 0 0 65279 0 0 65279 0 0 65279 0 0 65279 0 0 65279 0 0 65279 0 0 65279 0 0 65279 0 0 65279 0 0 65279 0 0 65279 0 0 65279 0 0 65279 0 0 65279 0 0 65279 0 0 65279 0 0 65279 0 0 65279 0 0 65279 0 0 65279 0 0 65279 0 0 65279 0 0 65279 0 0 65279 0 0 65279 0 0 65279 0 0 65279 0 0 65279 0 0 65279 0 0 65279 0 0 65279 0 0 65279 0 0 65279 0 0 65279 0 0 65279 0 0 65279 0 0 65279 0 0 65279 0 0 65279 0 0 65279 0 0 65279 0 0 65279 0 0 65279 0 0 65279 0 0 65279 0 0 65279 0 0 65279 0 0 65279 0 0 65279 0 0 65279 0 0 65279 0 0 65279 0 0 65279 0 0 65279 0 0 65279 0 0 65279 0 0 65279 0 0 65279 0 0 65279 0 0 65279 0 0 65279 0 0 65279 0 0 65279 0 0 65279 0 0 65279 0 0 65279 0 0 65279 0 0 65279 0 0 65279 0 0 65279 0 0 65279 0 0 65279 0 0 65279 0 0 65279 0 0 65279 0 0 65279 0 0 65279 0 0 65279 0 0 65279 0 0 65279 0 0 65279 0 0 65279 0 0 65279 0 0 65279 0 0 65279 0 0 65279 0 0 65279 0 0 65279 0 0 65279 0 0 65279 0 0 65279 0 0 65279 0 0 65279 0 0 65279 0 0 65279 0 0 65279 0 0 65279 0 0 65279 0 0 65279 0 0 65279 0 0 65279 0 0 65279 0 0 65279 0 0 65279 0 0 65279 0 0 65279 0 0 65279 0 0 65279 0 0 65279 0 0 65279 0 0 65279 0 0 65279 0 0 65279 0 0 65279 0 0 65279 0 0 65279 0 0 65279 0 0 65279 0 0 65279 0 0 65279 0 0 65279 0 0 65279 0 0 65279 0 0 65279 0 0 65279 0 0 65279 0 0 65279 0 0 65279 0 0 65279 0 0 65279 0 0 65279 0 0 65279 0 0 65279 0 0 65279 0 0 65279 0 0 65279 0 0 65279 0 0 65279 0 0 65279 0 0 65279 0 0 65279 0 0 65279 0 0 65279 0 0 65279 0 0 65279 0 0 65279 0 0 65279 0 0 65279 0 0 65279 0 0 65279 0 0 65279 0 0 65279 0 0 65279 0 0 65279 0 0 65279 0 0 65279 0 0 65279 0 0 65279 0 0 65279 0 0 65279 0 0 65279 0 0 65279 0 0 65279 0 0 65279 0 0 65279 0 0 65279 0 0 65279 0 0 65279 0 0 65279 0 0 65279 0 0 65279 0 0 65279 0 0 65279 0 0 65279 0 0 65279 0 0 65279 0 0 65279 0 0 65279 0 0 65279 0 0 65279 0 0 65279 0 0 65279 0 0 65279 0 0 65279 0 0 65279 0 0 65279 0 0 65279 0 0 65279 0 0 65279 0 0 65279 0 0 65279 0 0 65279 0 0 65279 0 0 65279 0 0 65279 0 0 65279 0 0 65279 0 0 65279 0 0 65279 0 0 65279 0 0 65279 0 0 65279 0 0 65279 0 0 65279 0 0 65279 0 0 65279 0 0 65279 0 0 65279 0 0 65279 0 0 65279 0 0 65279 0 0 65279 0 0 65279 0 0 65279 0 0 65279 0 0 65279 0 0 65279 0 0 65279 0 0 65279 0 0 65279 0 0 65279 0 0 65279 0 0 65279 0 0 65279 0 0 65279 0 0 65279 0 0 65279 0 0 65279 0 0 65279 0 0 65279 0 0 65279 0 0 65279 0 0 65279 0 0 65279 0 0 65279 0 0 65279 0 0 65279 0 0 65279 0 0 65279 0 0 65279 0 0 65279 0 0 65279 0 0 65279 0 0 65279 0 0 65279 0 0 65279 0 0 65279 0 0 65279 0 0 65279 0 0 65279 0 0 65279 0 0 65279 0 0 65279 0 0 65279 0 0 65279 0 0 65279 0 0 65279 0 0 65279 0 0 65279 0 0 65279 0 0 65279 0 0 65279 0 0 65279 0 0 65279 0 0 65279 0 0 65279 0 0 65279 0 0 65279 0 0 65279 0 0 65279 0 0 65279 0 0 65279 0 0 65279 0 0 65279 0 0 65279 0 0 65279 0 0 65279 0 0 65279 0 0 65279 0 0 65279 0 0 65279 0 0 65279 0 0 65279 0 0 65279 0 0 65279 0 0 65279 0 0 65279 0 0 65279 0 0 65279 0 0 65279 0 0 65279 0 0 65279 0 0 65279 0 0 65279 0 0 65279 0 0 65279 0 0 65279 0 0 65279 0 0 65279 0 0 65279 0 0 65279 0 0 65279 0 0 65279 0 0 65279 0 0 65279 0 0 65279 0 0 65279 0 0 65279 0 0 65279 0 0 65279 0 0 65279 0 0 65279 0 0 65279 0 0 65279 0 0 65279 0 0 65279 0 0 65279 0 0 65279 0 0 65279 0 0 65279 0 0 65279 0 0 65279 0 0 65279 0 0 65279 0 0 65279 0 0 65279 0 0 65279 0 0 65279 0 0 65279 0 0 65279 0 0 65279 0 0 65279 0 0 65279 0 0 65279 0 0 65279 0 0 65279 0 0 65279 0 0 65279 0 0 65279 0 0 65279 0 0 65279 0 0 65279 0 0 65279 0 0 65279 0 0 65279 0 0 65279 0 0 65279 0 0 65279 0 0 65279 0 0 65279 0 0 65279 0 0 65279 0 0 65279 0 0 65279 0 0 65279 0 0 65279 0 0 65279 0 0 65279 0 0 65279 0 0 65279 0 0 65279 0 0 65279 0 0 65279 0 0 65279 0 0 65279 0 0 65279 0 0 65279 0 0 65279 0 0 65279 0 0 65279 0 0 65279 0 0 65279 0 0 65279 0 0 65279 0 0 65279 0 0 65279 0 0 65279 0 0 65279 0 0 65279 0 0 65279 0 0 65279 0 0 65279 0 0 65279 0 0 65279 0 0 65279 0 0 65279 0 0 65279 0 0 65279 0 0 65279 0 0 65279 0 0 65279 0 0 65279 0 0 65279 0 0 65279 0 0 65279 0 0 65279 0 0 65279 0 0 65279 0 0 65279 0 0 65279 0 0 65279 0 0 65279 0 0 65279 0 0 65279 0 0 65279 0 0 65279 0 0 65279 0 0 65279 0 0 65279 0 0 65279 0 0 65279 0 0 65279 0 0 65279 0 0 65279 0 0 65279 0 0 65279 0 0 65279 0 0 65279 0 0 65279 0 0 65279 0 0 65279 0 0 65279 0 0 65279 0 0 65279 0 0 65279 0 0 65279 0 0 65279 0 0 65279 0 0 65279 0 0 65279 0 0 65279 0 0 65279 0 0 65279 0 0 65279 0 0 65279 0 0 65279 0 0 65279 0 0 65279 0 0 65279 0 0 65279 0 0 65279 0 0 65279 0 0 65279 0 0 65279 0 0 65279 0 0 65279 0 0 65279 0 0 65279 0 0 65279 0 0 65279 0 0 65279 0 0 65279 0 0 65279 0 0 65279 0 0 65279 0 0 65279 0 0 65279 0 0 65279 0 0 65279 0 0 65279 0 0 65279 0 0 65279 0 0 65279 0 0 65279 0 0 65279 0 0 65279 0 0 65279 0 0 65279 0 0 65279 0 0 65279 0 0 65279 0 0 65279 0 0 65279 0 0 65279 0 0 65279 0 0 65279 0 0 65279 0 0 65279 0 0 65279 0 0 65279 0 0 65279 0 0 65279 0 0 65279 0 0 65279 0 0 65279 0 0 65279 0 0 65279 0 0 65279 0 0 65279 0 0 65279 0 0 65279 0 0 65279 0 0 65279 0 0 65279 0 0 65279 0 0 65279 0 0 65279 0 0 65279 0 0 65279 0 0 65279 0 0 65279 0 0 65279 0 0 65279 0 0 65279 0 0 65279 0 0 65279 0 0 65279 0 0 65279 0 0 65279 0 0 65279 0 0 65279 0 0 65279 0 0 65279 0 0 65279 0 0 65279 0 0 65279 0 0 65279 0 0 65279 0 0 65279 0 0 65279 0 0 65279 0 0 65279 0 0 65279 0 0 65279 0 0 65279 0 0 65279 0 0 65279 0 0 65279 0 0 65279 0 0 65279 0 0 65279 0 0 65279 0 0 65279 0 0 65279 0 0 65279 0 0 65279 0 0 65279 0 0 65279 0 0 65279 0 0 65279 0 0 65279 0 0 65279 0 0 65279 0 0 65279 0 0 65279 0 0 65279 0 0 65279 0 0 65279 0 0 65279 0 0 65279 0 0 65279 0 0 65279 0 0 65279 0 0 65279 0 0 65279 0 0 65279 0 0 65279 0 0 65279 0 0 65279 0 0 65279 0 0 65279 0 0 65279 0 0 65279 0 0 65279 0 0 65279 0 0 65279 0 0 65279 0 0 65279 0 0 65279 0 0 65279 0 0 65279 0 0 65279 0 0 65279 0 0 65279 0 0 65279 0 0 65279 0 0 65279 0 0 65279 0 0 65279 0 0 65279 0 0 65279 0 0 65279 0 0 65279 0 0 65279 0 0 65279 0 0 65279 0 0 65279 0 0 65279 0 0 65279 0 0 65279 0 0 65279 0 0 65279 0 0 65279 0 0 65279 0 0 65279 0 0 65279 0 0 65279 0 0 65279 0 0 65279 0 0 65279 0 0 65279 0 0 65279 0 0 65279 0 0 65279 0 0 65279 0 0 65279 0 0 65279 0 0 65279 0 0 65279 0 0 65279 0 0 65279 0 0 65279 0 0 65279 0 0 65279 0 0 65279 0 0 65279 0 0 65279 0 0 65279 0 0 65279 0 0 65279 0 0 65279 0 0 65279 0 0 65279 0 0 65279 0 0 65279 0 0 65279 0 0 65279 0 0 65279 0 0 65279 0 0 65279 0 0 65279 0 0 65279 0 0 65279 0 0 65279 0 0 65279 0 0 65279 0 0 65279 0 0 65279 0 0 65279 0 0 65279 0 0 65279 0 0 65279 0 0 65279 0 0 65279 0 0 65279 0 0 65279 0 0 65279 0 0 65279 0 0 65279 0 0 65279 0 0 65279 0 0 65279 0 0 65279 0 0 65279 0 0 65279 0 0 65279 0 0 65279 0 0 65279 0 0 65279 0 0 65279 0 0 65279 0 0 65279 0 0 65279 0 0 65279 0 0 65279 0 0 65279 0 0 65279 0 0 65279 0 0 65279 0 0 65279 0 0 65279 0 0 65279 0 0 65279 0 0 65279 0 0 65279 0 0 65279 0 0 65279 0 0 65279 0 0 65279 0 0 65279 0 0 65279 0 0 65279 0 0 65279 0 0 65279 0 0 65279 0 0 65279 0 0 65279 0 0 65279 0 0 65279 0 0 65279 0 0 65279 0 0 65279 0 0 65279 0 0 65279 0 0 65279 0 0 65279 0 0 65279 0 0 65279 0 0 65279 0 0 65279 0 0 65279 0 0 65279 0 0 65279 0 0 65279 0 0 65279 0 0 65279 0 0 65279 0 0 65279 0 0 65279 0 0 65279 0 0 65279 0 0 65279 0 0 65279 0 0 65279 0 0 65279 0 0 65279 0 0 65279 0 0 65279 0 0 65279 0 0 65279 0 0 65279 0 0 65279 0 0 65279 0 0 65279 0 0 65279 0 0 65279 0 0 65279 0 0 65279 0 0 65279 0 0 65279 0 0 65279 0 0 65279 0 0 65279 0 0 65279 0 0 65279 0 0 65279 0 0 65279 0 0 65279 0 0 65279 0 0 65279 0 0 65279 0 0 65279 0 0 65279 0 0 65279 0 0 65279 0 0 65279 0 0 65279 0 0 65279 0 0 65279 0 0 65279 0 0 65279 0 0 65279 0 0 65279 0 0 65279 0 0 65279 0 0 65279 0 0 65279 0 0 65279 0 0 65279 0 0 65279 0 0 65279 0 0 65279 0 0 65279 0 0 65279 0 0 65279 0 0 65279 0 0 65279 0 0 65279 0 0 65279 0 0 65279 0 0 65279 0 0 65279 0 0 65279 0 0 65279 0 0 65279 0 0 65279 0 0 65279 0 0 65279 0 0 65279 0 0 65279 0 0 65279 0 0 65279 0 0 65279 0 0 65279 0 0 65279 0 0 65279 0 0 65279 0 0 65279 0 0 65279 0 0 65279 0 0 65279 0 0 65279 0 0 65279 0 0 65279 0 0 65279 0 0 65279 0 0 65279 0 0 65279 0 0 65279 0 0 65279 0 0 65279 0 0 65279 0 0 65279 0 0 65279 0 0 65279 0 0 65279 0 0 65279 0 0 65279 0 0 65279 0 0 65279 0 0 65279 0 0 65279 0 0 65279 0 0 65279 0 0 65279 0 0 65279 0 0 65279 0 0 65279 0 0 65279 0 0 65279 0 0 65279 0 0 65279 0 0 65279 0 0 65279 0 0 65279 0 0 65279 0 0 65279 0 0 65279 0 0 65279 0 0 65279 0 0 65279 0 0 65279 0 0 65279 0 0 65279 0 0 65279 0 0 65279 0 0 65279 0 0 65279 0 0 65279 0 0 65279 0 0 65279 0 0 65279 0 0 65279 0 0 65279 0 0 65279 0 0 65279 0 0 65279 0 0 65279 0 0 65279 0 0 65279 0 0 65279 0 0 65279 0 0 65279 0 0 65279 0 0 65279 0 0 65279 0 0 65279 0 0 65279 0 0 65279 0 0 65279 0 0 65279 0 0 65279 0 0 65279 0 0 65279 0 0 65279 0 0 65279 0 0 65279 0 0 65279 0 0 65279 0 0 65279 0 0 65279 0 0 65279 0 0 65279 0 0 65279 0 0 65279 0 0 65279 0 0 65279 0 0 65279 0 0 65279 0 0 65279 0 0 65279 0 0 65279 0 0 65279 0 0 65279 0 0 65279 0 0 65279 0 0 65279 0 0 65279 0 0 65279 0 0 65279 0 0 65279 0 0 65279 0 0 65279 0 0 65279 0 0 65279 0 0 65279 0 0 65279 0 0 65279 0 0 65279 0 0 65279 0 0 65279 0 0 65279 0 0 65279 0 0 65279 0 0 65279 0 0 65279 0 0 65279 0 0 65279 0 0 65279 0 0 65279 0 0 65279 0 0 65279 0 0 65279 0 0 65279 0 0 65279 0 0 65279 0 0 65279 0 0 65279 0 0 65279 0 0 65279 0 0 65279 0 0 65279 0 0 65279 0 0 65279 0 0 65279 0 0 65279 0 0 65279 0 0 65279 0 0 65279 0 0 65279 0 0 65279 0 0 65279 0 0 65279 0 0 65279 0 0 65279 0 0 65279 0 0 65279 0 0 65279 0 0 65279 0 0 65279 0 0 65279 0 0 65279 0 0 65279 0 0 65279 0 0 65279 0 0 65279 0 0 65279 0 0 65279 0 0 65279 0 0 65279 0 0 65279 0 0 65279 0 0 65279 0 0 65279 0 0 65279 0 0 65279 0 0 65279 0 0 65279 0 0 65279 0 0 65279 0 0 65279 0 0 65279 0 0 65279 0 0 65279 0 0 65279 0 0 65279 0 0 65279 0 0 65279 0 0 65279 0 0 65279 0 0 65279 0 0 65279 0 0 65279 0 0 65279 0 0 65279 0 0 65279 0 0 65279 0 0 65279 0 0 65279 0 0 65279 0 0 65279 0 0 65279 0 0 65279 0 0 65279 0 0 65279 0 0 65279 0 0 65279 0 0 65279 0 0 65279 0 0 65279 0 0 65279 0 0 65279 0 0 65279 0 0 65279 0 0 65279 0 0 65279 0 0 65279 0 0 65279 0 0 65279 0 0 65279 0 0 65279 0 0 65279 0 0 65279 0 0 65279 0 0 65279 0 0 65279 0 0 65279 0 0 65279 0 0 65279 0 0 65279 0 0 65279 0 0 65279 0 0 65279 0 0 65279 0 0 65279 0 0 65279 0 0 65279 0 0 65279 0 0 65279 0 0 65279 0 0 65279 0 0 65279 0 0 65279 0 0 65279 0 0 65279 0 0 65279 0 0 65279 0 0 65279 0 0 65279 0 0 65279 0 0 65279 0 0 65279 0 0 65279 0 0 65279 0 0 65279 0 0 65279 0 0 65279 0 0 65279 0 0 65279 0 0 65279 0 0 65279 0 0 65279 0 0 65279 0 0 65279 0 0 65279 0 0 65279 0 0 65279 0 0 65279 0 0 65279 0 0 65279 0 0 65279 0 0 65279 0 0 65279 0 0 65279 0 0 65279 0 0 65279 0 0 65279 0 0 65279 0 0 65279 0 0 65279 0 0 65279 0 0 65279 0 0 65279 0 0 65279 0 0 65279 0 0 65279 0 0 65279 0 0 65279 0 0 65279 0 0 65279 0 0 65279 0 0 65279 0 0 65279 0 0 65279 0 0 65279 0 0 65279 0 0 65279 0 0 65279 0 0 65279 0 0 65279 0 0 65279 0 0 65279 0 0 65279 0 0 65279 0 0 65279 0 0 65279 0 0 65279 0 0 65279 0 0 65279 0 0 65279 0 0 65279 0 0 65279 0 0 65279 0 0 65279 0 0 65279 0 0 65279 0 0 65279 0 0 65279 0 0 65279 0 0 65279 0 0 65279 0 0 65279 0 0 65279 0 0 65279 0 0 65279 0 0 65279 0 0 65279 0 0 65279 0 0 65279 0 0 65279 0 0 65279 0 0 65279 0 0 65279 0 0 65279 0 0 65279 0 0 65279 0 0 65279 0 0 65279 0 0 65279 0 0 65279 0 0 65279 0 0 65279 0 0 65279 0 0 65279 0 0 65279 0 0 65279 0 0 65279 0 0 65279 0 0 65279 0 0 65279 0 0 65279 0 0 65279 0 0 65279 0 0 65279 0 0 65279 0 0 65279 0 0 65279 0 0 65279 0 0 65279 0 0 65279 0 0 65279 0 0 65279 0 0 65279 0 0 65279 0 0 65279 0 0 65279 0 0 65279 0 0 65279 0 0 65279 0 0 65279 0 0 65279 0 0 65279 0 0 65279 0 0 65279 0 0 65279 0 0 65279 0 0 65279 0 0 65279 0 0 65279 0 0 65279 0 0 65279 0 0 65279 0 0 65279 0 0 65279 0 0 65279 0 0 65279 0 0 65279 0 0 65279 0 0 65279 0 0 65279 0 0 65279 0 0 65279 0 0 65279 0 0 65279 0 0 65279 0 0 65279 0 0 65279 0 0 65279 0 0 65279 0 0 65279 0 0 65279 0 0 65279 0 0 65279 0 0 65279 0 0 65279 0 0 65279 0 0 65279 0 0 65279 0 0 65279 0 0 65279 0 0 65279 0 0 65279 0 0 65279 0 0 65279 0 0 65279 0 0 65279 0 0 65279 0 0 65279 0 0 65279 0 0 65279 0 0 65279 0 0 65279 0 0 65279 0 0 65279 0 0 65279 0 0 65279 0 0 65279 0 0 65279 0 0 65279 0 0 65279 0 0 65279 0 0 65279 0 0 65279 0 0 65279 0 0 65279 0 0 65279 0 0 65279 0 0 65279 0 0 65279 0 0 65279 0 0 65279 0 0 65279 0 0 65279 0 0 65279 0 0 65279 0 0 65279 0 0 65279 0 0 65279 0 0 65279 0 0 65279 0 0 65279 0 0 65279 0 0 65279 0 0 65279 0 0 65279 0 0 65279 0 0 65279 0 0 65279 0 0 65279 0 0 65279 0 0 65279 0 0 65279 0 0 65279 0 0 65279 0 0 65279 0 0 65279 0 0 65279 0 0 65279 0 0 65279 0 0 65279 0 0 65279 0 0 65279 0 0 65279 0 0 65279 0 0 65279 0 0 65279 0 0 65279 0 0 65279 0 0 65279 0 0 65279 0 0 65279 0 0 65279 0 0 65279 0 0 65279 0 0 65279 0 0 65279 0 0 65279 0 0 65279 0 0 65279 0 0 65279 0 0 65279 0 0 65279 0 0 65279 0 0 65279 0 0 65279 0 0 65279 0 0 65279 0 0 65279 0 0 65279 0 0 65279 0 0 65279 0 0 65279 0 0 65279 0 0 65279 0 0 65279 0 0 65279 0 0 65279 0 0 65279 0 0 65279 0 0 65279 0 0 65279 0 0 65279 0 0 65279 0 0 65279 0 0 65279 0 0 65279 0 0 65279 0 0 65279 0 0 65279 0 0 65279 0 0 65279 0 0 65279 0 0 65279 0 0 65279 0 0 65279 0 0 65279 0 0 65279 0 0 65279 0 0 65279 0 0 65279 0 0 65279 0 0 65279 0 0 65279 0 0 65279 0 0 65279 0 0 65279 0 0 65279 0 0 65279 0 0 65279 0 0 65279 0 0 65279 0 0 65279 0 0 65279 0 0 65279 0 0 65279 0 0 65279 0 0 65279 0 0 65279 0 0 65279 0 0 65279 0 0 65279 0 0 65279 0 0 65279 0 0 65279 0 0 65279 0 0 65279 0 0 65279 0 0 65279 0 0 65279 0 0 65279 0 0 65279 0 0 65279 0 0 65279 0 0 65279 0 0 65279 0 0 65279 0 0 65279 0 0 65279 0 0 65279 0 0 65279 0 0 65279 0 0 65279 0 0 65279 0 0 65279 0 0 65279 0 0 65279 0 0 65279 0 0 65279 0 0 65279 0 0 65279 0 0 65279 0 0 65279 0 0 65279 0 0 65279 0 0 65279 0 0 65279 0 0 65279 0 0 65279 0 0 65279 0 0 65279 0 0 65279 0 0 65279 0 0 65279 0 0 65279 0 0 65279 0 0 65279 0 0 65279 0 0 65279 0 0 65279 0 0 65279 0 0 65279 0 0 65279 0 0 65279 0 0 65279 0 0 65279 0 0 65279 0 0 65279 0 0 65279 0 0 65279 0 0 65279 0 0 65279 0 0 65279 0 0 65279 0 0 65279 0 0 65279 0 0 65279 0 0 65279 0 0 65279 0 0 65279 0 0 65279 0 0 65279 0 0 65279 0 0 65279 0 0 65279 0 0 65279 0 0 65279 0 0 65279 0 0 65279 0 0 65279 0 0 65279 0 0 65279 0 0 65279 0 0 65279 0 0 65279 0 0 65279 0 0 65279 0 0 65279 0 0 65279 0 0 65279 0 0 65279 0 0 65279 0 0 65279 0 0 65279 0 0 65279 0 0 65279 0 0 65279 0 0 65279 0 0 65279 0 0 65279 0 0 65279 0 0 65279 0 0 65279 0 0 65279 0 0 65279 0 0 65279 0 0 65279 0 0 65279 0 0 65279 0 0 65279 0 0 65279 0 0 65279 0 0 65279 0 0 65279 0 0 65279 0 0 65279 0 0 65279 0 0 65279 0 0 65279 0 0 65279 0 0 65279 0 0 65279 0 0 65279 0 0 65279 0 0 65279 0 0 65279 0 0 65279 0 0 65279 0 0 65279 0 0 65279 0 0 65279 0 0 65279 0 0 65279 0 0 65279 0 0 65279 0 0 65279 0 0 65279 0 0 65279 0 0 65279 0 0 65279 0 0 65279 0 0 65279 0 0 65279 0 0 65279 0 0 65279 0 0 65279 0 0 65279 0 0 65279 0 0 65279 0 0 65279 0 0 65279 0 0 65279 0 0 65279 0 0 65279 0 0 65279 0 0 65279 0 0 65279 0 0 65279 0 0 65279 0 0 65279 0 0 65279 0 0 65279 0 0 65279 0 0 65279 0 0 65279 0 0 65279 0 0 65279 0 0 65279 0 0 65279 0 0 65279 0 0 65279 0 0 65279 0 0 65279 0 0 65279 0 0 65279 0 0 65279 0 0 65279 0 0 65279 0 0 65279 0 0 65279 0 0 65279 0 0 65279 0 0 65279 0 0 65279 0 0 65279 0 0 65279 0 0 65279 0 0 65279 0 0 65279 0 0 65279 0 0 65279 0 0 65279 0 0 65279 0 0 65279 0 0 65279 0 0 65279 0 0 65279 0 0 65279 0 0 65279 0 0 65279 0 0 65279 0 0 65279 0 0 65279 0 0 65279 0 0 65279 0 0 65279 0 0 65279 0 0 65279 0 0 65279 0 0 65279 0 0 65279 0 0 65279 0 0 65279 0 0 65279 0 0 65279 0 0 65279 0 0 65279 0 0 65279 0 0 65279 0 0 65279 0 0 65279 0 0 65279 0 0 65279 0 0 65279 0 0 65279 0 0 65279 0 0 65279 0 0 65279 0 0 65279 0 0 65279 0 0 65279 0 0 65279 0 0 65279 0 0 65279 0 0 65279 0 0 65279 0 0 65279 0 0 65279 0 0 65279 0 0 65279 0 0 65279 0 0 65279 0 0 65279 0 0 65279 0 0 65279 0 0 65279 0 0 65279 0 0 65279 0 0 65279 0 0 65279 0 0 65279 0 0 65279 0 0 65279 0 0 65279 0 0 65279 0 0 65279 0 0 65279 0 0 65279 0 0 65279 0 0 65279 0 0 65279 0 0 65279 0 0 65279 0 0 65279 0 0 65279 0 0 65279 0 0 65279 0 0 65279 0 0 65279 0 0 65279 0 0 65279 0 0 65279 0 0 65279 0 0 65279 0 0 65279 0 0 65279 0 0 65279 0 0 65279 0 0 65279 0 0 65279 0 0 65279 0 0 65279 0 0 65279 0 0 65279 0 0 65279 0 0 65279 0 0 65279 0 0 65279 0 0 65279 0 0 65279 0 0 65279 0 0 65279 0 0 65279 0 0 65279 0 0 65279 0 0 65279 0 0 65279 0 0 65279 0 0 65279 0 0 65279 0 0 65279 0 0 65279 0 0 65279 0 0 65279 0 0 65279 0 0 65279 0 0 65279 0 0 65279 0 0 65279 0 0 65279 0 0 65279 0 0 65279 0 0 65279 0 0 65279 0 0 65279 0 0 65279 0 0 65279 0 0 65279 0 0 65279 0 0 65279 0 0 65279 0 0 65279 0 0 65279 0 0 65279 0 0 65279 0 0 65279 0 0 65279 0 0 65279 0 0 65279 0 0 65279 0 0 65279 0 0 65279 0 0 65279 0 0 65279 0 0 65279 0 0 65279 0 0 65279 0 0 65279 0 0 65279 0 0 65279 0 0 65279 0 0 65279 0 0 65279 0 0 65279 0 0 65279 0 0 65279 0 0 65279 0 0 65279 0 0 65279 0 0 65279 0 0 65279 0 0 65279 0 0 65279 0 0 65279 0 0 65279 0 0 65279 0 0 65279 0 0 65279 0 0 65279 0 0 65279 0 0 65279 0 0 65279 0 0 65279 0 0 65279 0 0 65279 0 0 65279 0 0 65279 0 0 65279 0 0 65279 0 0 65279 0 0 65279 0 0 65279 0 0 65279 0 0 65279 0 0 65279 0 0 65279 0 0 65279 0 0 65279 0 0 65279 0 0 65279 0 0 65279 0 0 65279 0 0 65279 0 0 65279 0 0 65279 0 0 65279 0 0 65279 0 0 65279 0 0 65279 0 0 65279 0 0 65279 0 0 65279 0 0 65279 0 0 65279 0 0 65279 0 0 65279 0 0 65279 0 0 65279 0 0 65279 0 0 65279 0 0 65279 0 0 65279 0 0 65279 0 0 65279 0 0 65279 0 0 65279 0 0 65279 0 0 65279 0 0 65279 0 0 65279 0 0 65279 0 0 65279 0 0 65279 0 0 65279 0 0 65279 0 0 65279 0 0 65279 0 0 65279 0 0 65279 0 0 65279 0 0 65279 0 0 65279 0 0 65279 0 0 65279 0 0 65279 0 0 65279 0 0 65279 0 0 65279 0 0 65279 0 0 65279 0 0 65279 0 0 65279 0 0 65279 0 0 65279 0 0 65279 0 0 65279 0 0 65279 0 0 65279 0 0 65279 0 0 65279 0 0 65279 0 0 65279 0 0 65279 0 0 65279 0 0 65279 0 0 65279 0 0 65279 0 0 65279 0 0 65279 0 0 65279 0 0 65279 0 0 65279 0 0 65279 0 0 65279 0 0 65279 0 0 65279 0 0 65279 0 0 65279 0 0 65279 0 0 65279 0 0 65279 0 0 65279 0 0 65279 0 0 65279 0 0 65279 0 0 65279 0 0 65279 0 0 65279 0 0 65279 0 0 65279 0 0 65279 0 0 65279 0 0 65279 0 0 65279 0 0 65279 0 0 65279 0 0 65279 0 0 65279 0 0 65279 0 0 65279 0 0 65279 0 0 65279 0 0 65279 0 0 65279 0 0 65279 0 0 65279 0 0 65279 0 0 65279 0 0 65279 0 0 65279 0 0 65279 0 0 65279 0 0 65279 0 0 65279 0 0 65279 0 0 65279 0 0 65279 0 0 65279 0 0 65279 0 0 65279 0 0 65279 0 0 65279 0 0 65279 0 0 65279 0 0 65279 0 0 65279 0 0 65279 0 0 65279 0 0 65279 0 0 65279 0 0 65279 0 0 65279 0 0 65279 0 0 65279 0 0 65279 0 0 65279 0 0 65279 0 0 65279 0 0 65279 0 0 65279 0 0 65279 0 0 65279 0 0 65279 0 0 65279 0 0 65279 0 0 65279 0 0 65279 0 0 65279 0 0 65279 0 0 65279 0 0 65279 0 0 65279 0 0 65279 0 0 65279 0 0 65279 0 0 65279 0 0 65279 0 0 65279 0 0 65279 0 0 65279 0 0 65279 0 0 65279 0 0 65279 0 0 65279 0 0 65279 0 0 65279 0 0 65279 0 0 65279 0 0 65279 0 0 65279 0 0 65279 0 0 65279 0 0 65279 0 0 65279 0 0 65279 0 0 65279 0 0 65279 0 0 65279 0 0 65279 0 0 65279 0 0 65279 0 0 65279 0 0 65279 0 0 65279 0 0 65279 0 0 65279 0 0 65279 0 0 65279 0 0 65279 0 0 65279 0 0 65279 0 0 65279 0 0 65279 0 0 65279 0 0 65279 0 0 65279 0 0 65279 0 0 65279 0 0 65279 0 0 65279 0 0 65279 0 0 65279 0 0 65279 0 0 65279 0 0 65279 0 0 65279 0 0 65279 0 0 65279 0 0 65279 0 0 65279 0 0 65279 0 0 65279 0 0 65279 0 0 65279 0 0 65279 0 0 65279 0 0 65279 0 0 65279 0 0 65279 0 0 65279 0 0 65279 0 0 65279 0 0 65279 0 0 65279 0 0 65279 0 0 65279 0 0 65279 0 0 65279 0 0 65279 0 0 65279 0 0 65279 0 0 65279 0 0 65279 0 0 65279 0 0 65279 0 0 65279 0 0 65279 0 0 65279 0 0 65279 0 0 65279 0 0 65279 0 0 65279 0 0 65279 0 0 65279 0 0 65279 0 0 65279 0 0 65279 0 0 65279 0 0 65279 0 0 65279 0 0 65279 0 0 65279 0 0 65279 0 0 65279 0 0 65279 0 0 65279 0 0 65279 0 0 65279 0 0 65279 0 0 65279 0 0 65279 0 0 65279 0 0 65279 0 0 65279 0 0 65279 0 0 65279 0 0 65279 0 0 65279 0 0 65279 0 0 65279 0 0 65279 0 0 65279 0 0 65279 0 0 65279 0 0 65279 0 0 65279 0 0 65279 0 0 65279 0 0 65279 0 0 65279 0 0 65279 0 0 65279 0 0 65279 0 0 65279 0 0 65279 0 0 65279 0 0 65279 0 0 65279 0 0 65279 0 0 65279 0 0 65279 0 0 65279 0 0 65279 0 0 65279 0 0 65279 0 0 65279 0 0 65279 0 0 65279 0 0 65279 0 0 65279 0 0 65279 0 0 65279 0 0 65279 0 0 65279 0 0 65279 0 0 65279 0 0 65279 0 0 65279 0 0 65279 0 0 65279 0 0 65279 0 0 65279 0 0 65279 0 0 65279 0 0 65279 0 0 65279 0 0 65279 0 0 65279 0 0 65279 0 0 65279 0 0 65279 0 0 65279 0 0 65279 0 0 65279 0 0 65279 0 0 65279 0 0 65279 0 0 65279 0 0 65279 0 0 65279 0 0 65279 0 0 65279 0 0 65279 0 0 65279 0 0 65279 0 0 65279 0 0 65279 0 0 65279 0 0 65279 0 0 65279 0 0 65279 0 0 65279 0 0 65279 0 0 65279 0 0 65279 0 0 65279 0 0 65279 0 0 65279 0 0 65279 0 0 65279 0 0 65279 0 0 65279 0 0 65279 0 0 65279 0 0 65279 0 0 65279 0 0 65279 0 0 65279 0 0 65279 0 0 65279 0 0 65279 0 0 65279 0 0 65279 0 0 65279 0 0 65279 0 0 65279 0 0 65279 0 0 65279 0 0 65279 0 0 65279 0 0 65279 0 0 65279 0 0 65279 0 0 65279 0 0 65279 0 0 65279 0 0 65279 0 0 65279 0 0 65279 0 0 65279 0 0 65279 0 0 65279 0 0 65279 0 0 65279 0 0 65279 0 0 65279 0 0 65279 0 0 65279 0 0 65279 0 0 65279 0 0 65279 0 0 65279 0 0 65279 0 0 65279 0 0 65279 0 0 65279 0 0 65279 0 0 65279 0 0 65279 0 0 65279 0 0 65279 0 0 65279 0 0 65279 0 0 65279 0 0 65279 0 0 65279 0 0 65279 0 0 65279 0 0 65279 0 0 65279 0 0 65279 0 0 65279 0 0 65279 0 0 65279 0 0 65279 0 0 65279 0 0 65279 0 0 65279 0 0 65279 0 0 65279 0 0 65279 0 0 65279 0 0 65279 0 0 65279 0 0 65279 0 0 65279 0 0 65279 0 0 65279 0 0 65279 0 0 65279 0 0 65279 0 0 65279 0 0 65279 0 0 65279 0 0 65279 0 0 65279 0 0 65279 0 0 65279 0 0 65279 0 0 65279 0 0 65279 0 0 65279 0 0 65279 0 0 65279 0 0 65279 0 0 65279 0 0 65279 0 0 65279 0 0 65279 0 0 65279 0 0 65279 0 0 65279 0 0 65279 0 0 65279 0 0 65279 0 0 65279 0 0 65279 0 0 65279 0 0 65279 0 0 65279 0 0 65279 0 0 65279 0 0 65279 0 0 65279 0 0 65279 0 0 65279 0 0 65279 0 0 65279 0 0 65279 0 0 65279 0 0 65279 0 0 65279 0 0 65279 0 0 65279 0 0 65279 0 0 65279 0 0 65279 0 0 65279 0 0 65279 0 0 65279 0 0 65279 0 0 65279 0 0 65279 0 0 65279 0 0 65279 0 0 65279 0 0 65279 0 0 65279 0 0 65279 0 0 65279 0 0 65279 0 0 65279 0 0 65279 0 0 65279 0 0 65279 0 0 65279 0 0 65279 0 0 65279 0 0 65279 0 0 65279 0 0 65279 0 0 65279 0 0 65279 0 0 65279 0 0 65279 0 0 65279 0 0 65279 0 0 65279 0 0 65279 0 0 65279 0 0 65279 0 0 65279 0 0 65279 0 0 65279 0 0 65279 0 0 65279 0 0 65279 0 0 65279 0 0 65279 0 0 65279 0 0 65279 0 0 65279 0 0 65279 0 0 65279 0 0 65279 0 0 65279 0 0 65279 0 0 65279 0 0 65279 0 0 65279 0 0 65279 0 0 65279 0 0 65279 0 0 65279 0 0 65279 0 0 65279 0 0 65279 0 0 65279 0 0 65279 0 0 65279 0 0 65279 0 0 65279 0 0 65279 0 0 65279 0 0 65279 0 0 65279 0 0 65279 0 0 65279 0 0 65279 0 0 65279 0 0 65279 0 0 65279 0 0 65279 0 0 65279 0 0 65279 0 0 65279 0 0 65279 0 0 65279 0 0 65279 0 0 65279 0 0 65279 0 0 65279 0 0 65279 0 0 65279 0 0 65279 0 0 65279 0 0 65279 0 0 65279 0 0 65279 0 0 65279 0 0 65279 0 0 65279 0 0 65279 0 0 65279 0 0 65279 0 0 65279 0 0 65279 0 0 65279 0 0 65279 0 0 65279 0 0 65279 0 0 65279 0 0 65279 0 0 65279 0 0 65279 0 0 65279 0 0 65279 0 0 65279 0 0 65279 0 0 65279 0 0 65279 0 0 65279 0 0 65279 0 0 65279 0 0 65279 0 0 65279 0 0 65279 0 0 65279 0 0 65279 0 0 65279 0 0 65279 0 0 65279 0 0 65279 0 0 65279 0 0 65279 0 0 65279 0 0 65279 0 0 65279 0 0 65279 0 0 65279 0 0 65279 0 0 65279 0 0 65279 0 0 65279 0 0 65279 0 0 65279 0 0 65279 0 0 65279 0 0 65279 0 0 65279 0 0 65279 0 0 65279 0 0 65279 0 0 65279 0 0 65279 0 0 65279 0 0 65279 0 0 65279 0 0 65279 0 0 65279 0 0 65279 0 0 65279 0 0 65279 0 0 65279 0 0 65279 0 0 65279 0 0 65279 0 0 65279 0 0 65279 0 0 65279 0 0 65279 0 0 65279 0 0 65279 0 0 65279 0 0 65279 0 0 65279 0 0 65279 0 0 65279 0 0 65279 0 0 65279 0 0 65279 0 0 65279 0 0 65279 0 0 65279 0 0 65279 0 0 65279 0 0 65279 0 0 65279 0 0 65279 0 0 65279 0 0 65279 0 0 65279 0 0 65279 0 0 65279 0 0 65279 0 0 65279 0 0 65279 0 0 65279 0 0 65279 0 0 65279 0 0 65279 0 0 65279 0 0 65279 0 0 65279 0 0 65279 0 0 65279 0 0 65279 0 0 65279 0 0 65279 0 0 65279 0 0 65279 0 0 65279 0 0 65279 0 0 65279 0 0 65279 0 0 65279 0 0 65279 0 0 65279 0 0 65279 0 0 65279 0 0 65279 0 0 65279 0 0 65279 0 0 65279 0 0 65279 0 0 65279 0 0 65279 0 0 65279 0 0 65279 0 0 65279 0 0 65279 0 0 65279 0 0 65279 0 0 65279 0 0 65279 0 0 65279 0 0 65279 0 0 65279 0 0 65279 0 0 65279 0 0 65279 0 0 65279 0 0 65279 0 0 65279 0 0 65279 0 0 65279 0 0 65279 0 0 65279 0 0 65279 0 0 65279 0 0 65279 0 0 65279 0 0 65279 0 0 65279 0 0 65279 0 0 65279 0 0 65279 0 0 65279 0 0 65279 0 0 65279 0 0 65279 0 0 65279 0 0 65279 0 0 65279 0 0 65279 0 0 65279 0 0 65279 0 0 65279 0 0 65279 0 0 65279 0 0 65279 0 0 65279 0 0 65279 0 0 65279 0 0 65279 0 0 65279 0 0 65279 0 0 65279 0 0 65279 0 0 65279 0 0 65279 0 0 65279 0 0 65279 0 0 65279 0 0 65279 0 0 65279 0 0 65279 0 0 65279 0 0 65279 0 0 65279 0 0 65279 0 0 65279 0 0 65279 0 0 65279 0 0 65279 0 0 65279 0 0 65279 0 0 65279 0 0 65279 0 0 65279 0 0 65279 0 0 65279 0 0 65279 0 0 65279 0 0 65279 0 0 65279 0 0 65279 0 0 65279 0 0 65279 0 0 65279 0 0 65279 0 0 65279 0 0 65279 0 0 65279 0 0 65279 0 0 65279 0 0 65279 0 0 65279 0 0 65279 0 0 65279 0 0 65279 0 0 65279 0 0 65279 0 0 65279 0 0 65279 0 0 65279 0 0 65279 0 0 65279 0 0 65279 0 0 65279 0 0 65279 0 0 65279 0 0 65279 0 0 65279 0 0 65279 0 0 65279 0 0 65279 0 0 65279 0 0 65279 0 0 65279 0 0 65279 0 0 65279 0 0 65279 0 0 65279 0 0 65279 0 0 65279 0 0 65279 0 0 65279 0 0 65279 0 0 65279 0 0 65279 0 0 65279 0 0 65279 0 0 65279 0 0 65279 0 0 65279 0 0 65279 0 0 65279 0 0 65279 0 0 65279 0 0 65279 0 0 65279 0 0 65279 0 0 65279 0 0 65279 0 0 65279 0 0 65279 0 0 65279 0 0 65279 0 0 65279 0 0 65279 0 0 65279 0 0 65279 0 0 65279 0 0 65279 0 0 65279 0 0 65279 0 0 65279 0 0 65279 0 0 65279 0 0 65279 0 0 65279 0 0 65279 0 0 65279 0 0 65279 0 0 65279 0 0 65279 0 0 65279 0 0 65279 0 0 65279 0 0 65279 0 0 65279 0 0 65279 0 0 65279 0 0 65279 0 0 65279 0 0 65279 0 0 65279 0 0 65279 0 0 65279 0 0 65279 0 0 65279 0 0 65279 0 0 65279 0 0 65279 0 0 65279 0 0 65279 0 0 65279 0 0 65279 0 0 65279 0 0 65279 0 0 65279 0 0 65279 0 0 65279 0 0 65279 0 0 65279 0 0 65279 0 0 65279 0 0 65279 0 0 65279 0 0 65279 0 0 65279 0 0 65279 0 0 65279 0 0 65279 0 0 65279 0 0 65279 0 0 65279 0 0 65279 0 0 65279 0 0 65279 0 0 65279 0 0 65279 0 0 65279 0 0 65279 0 0 65279 0 0 65279 0 0 65279 0 0 65279 0 0 65279 0 0 65279 0 0 65279 0 0 65279 0 0 65279 0 0 65279 0 0 65279 0 0 65279 0 0 65279 0 0 65279 0 0 65279 0 0 65279 0 0 65279 0 0 65279 0 0 65279 0 0 65279 0 0 65279 0 0 65279 0 0 65279 0 0 65279 0 0 65279 0 0 65279 0 0 65279 0 0 65279 0 0 65279 0 0 65279 0 0 65279 0 0 65279 0 0 65279 0 0 65279 0 0 65279 0 0 65279 0 0 65279 0 0 65279 0 0 65279 0 0 65279 0 0 65279 0 0 65279 0 0 65279 0 0 65279 0 0 65279 0 0 65279 0 0 65279 0 0 65279 0 0 65279 0 0 65279 0 0 65279 0 0 65279 0 0 65279 0 0 65279 0 0 65279 0 0 65279 0 0 65279 0 0 65279 0 0 65279 0 0 65279 0 0 65279 0 0 65279 0 0 65279 0 0 65279 0 0 65279 0 0 65279 0 0 65279 0 0 65279 0 0 65279 0 0 65279 0 0 65279 0 0 65279 0 0 65279 0 0 65279 0 0 65279 0 0 65279 0 0 65279 0 0 65279 0 0 65279 0 0 65279 0 0 65279 0 0 65279 0 0 65279 0 0 65279 0 0 65279 0 0 65279 0 0 65279 0 0 65279 0 0 65279 0 0 65279 0 0 65279 0 0 65279 0 0 65279 0 0 65279 0 0 65279 0 0 65279 0 0 65279 0 0 65279 0 0 65279 0 0 65279 0 0 65279 0 0 65279 0 0 65279 0 0 65279 0 0 65279 0 0 65279 0 0 65279 0 0 65279 0 0 65279 0 0 65279 0 0 65279 0 0 65279 0 0 65279 0 0 65279 0 0 65279 0 0 65279 0 0 65279 0 0 65279 0 0 65279 0 0 65279 0 0 65279 0 0 65279 0 0 65279 0 0 65279 0 0 65279 0 0 65279 0 0 65279 0 0 65279 0 0 65279 0 0 65279 0 0 65279 0 0 65279 0 0 65279 0 0 65279 0 0 65279 0 0 65279 0 0 65279 0 0 65279 0 0 65279 0 0 65279 0 0 65279 0 0 65279 0 0 65279 0 0 65279 0 0 65279 0 0 65279 0 0 65279 0 0 65279 0 0 65279 0 0 65279 0 0 65279 0 0 65279 0 0 65279 0 0 65279 0 0 65279 0 0 65279 0 0 65279 0 0 65279 0 0 65279 0 0 65279 0 0 65279 0 0 65279 0 0 65279 0 0 65279 0 0 65279 0 0 65279 0 0 65279 0 0 65279 0 0 65279 0 0 65279 0 0 65279 0 0 65279 0 0 65279 0 0 65279 0 0 65279 0 0 65279 0 0 65279 0 0 65279 0 0 65279 0 0 65279 0 0 65279 0 0 65279 0 0 65279 0 0 65279 0 0 65279 0 0 65279 0 0 65279 0 0 65279 0 0 65279 0 0 65279 0 0 65279 0 0 65279 0 0 65279 0 0 65279 0 0 65279 0 0 65279 0 0 65279 0 0 65279 0 0 65279 0 0 65279 0 0 65279 0 0 65279 0 0 65279 0 0 65279 0 0 65279 0 0 65279 0 0 65279 0 0 65279 0 0 65279 0 0 65279 0 0 65279 0 0 65279 0 0 65279 0 0 65279 0 0 65279 0 0 65279 0 0 65279 0 0 65279 0 0 65279 0 0 65279 0 0 65279 0 0 65279 0 0 65279 0 0 65279 0 0 65279 0 0 65279 0 0 65279 0 0 65279 0 0 65279 0 0 65279 0 0 65279 0 0 65279 0 0 65279 0 0 65279 0 0 65279 0 0 65279 0 0 65279 0 0 65279 0 0 65279 0 0 65279 0 0 65279 0 0 65279 0 0 65279 0 0 65279 0 0 65279 0 0 65279 0 0 65279 0 0 65279 0 0 65279 0 0 65279 0 0 65279 0 0 65279 0 0 65279 0 0 65279 0 0 65279 0 0 65279 0 0 65279 0 0 65279 0 0 65279 0 0 65279 0 0 65279 0 0 65279 0 0 65279 0 0 65279 0 0 65279 0 0 65279 0 0 65279 0 0 65279 0 0 65279 0 0 65279 0 0 65279 0 0 65279 0 0 65279 0 0 65279 0 0 65279 0 0 65279 0 0 65279 0 0 65279 0 0 65279 0 0 65279 0 0 65279 0 0 65279 0 0 65279 0 0 65279 0 0 65279 0 0 65279 0 0 65279 0 0 65279 0 0 65279 0 0 65279 0 0 65279 0 0 65279 0 0 65279 0 0 65279 0 0 65279 0 0 65279 0 0 65279 0 0 65279 0 0 65279 0 0 65279 0 0 65279 0 0 65279 0 0 65279 0 0 65279 0 0 65279 0 0 65279 0 0 65279 0 0 65279 0 0 65279 0 0 65279 0 0 65279 0 0 65279 0 0 65279 0 0 65279 0 0 65279 0 0 65279 0 0 65279 0 0 65279 0 0 65279 0 0 65279 0 0 65279 0 0 65279 0 0 65279 0 0 65279 0 0 65279 0 0 65279 0 0 65279 0 0 65279 0 0 65279 0 0 65279 0 0 65279 0 0 65279 0 0 65279 0 0 65279 0 0 65279 0 0 65279 0 0 65279 0 0 65279 0 0 65279 0 0 65279 0 0 65279 0 0 65279 0 0 65279 0 0 65279 0 0 65279 0 0 65279 0 0 65279 0 0 65279 0 0 65279 0 0 65279 0 0 65279 0 0 65279 0 0 65279 0 0 65279 0 0 65279 0 0 65279 0 0 65279 0 0 65279 0 0 65279 0 0 65279 0 0 65279 0 0 65279 0 0 65279 0 0 65279 0 0 65279 0 0 65279 0 0 65279 0 0 65279 0 0 65279 0 0 65279 0 0 65279 0 0 65279 0 0 65279 0 0 65279 0 0 65279 0 0 65279 0 0 65279 0 0 65279 0 0 65279 0 0 65279 0 0 65279 0 0 65279 0 0 65279 0 0 65279 0 0 65279 0 0 65279 0 0 65279 0 0 65279 0 0 65279 0 0 65279 0 0 65279 0 0 65279 0 0 65279 0 0 65279 0 0 65279 0 0 65279 0 0 65279 0 0 65279 0 0 65279 0 0 65279 0 0 65279 0 0 65279 0 0 65279 0 0 65279 0 0 65279 0 0 65279 0 0 65279 0 0 65279 0 0 65279 0 0 65279 0 0 65279 0 0 65279 0 0 65279 0 0 65279 0 0 65279 0 0 65279 0 0 65279 0 0 65279 0 0 65279 0 0 65279 0 0 65279 0 0 65279 0 0 65279 0 0 65279 0 0 65279 0 0 65279 0 0 65279 0 0 65279 0 0 65279 0 0 65279 0 0 65279 0 0 65279 0 0 65279 0 0 65279 0 0 65279 0 0 65279 0 0 65279 0 0 65279 0 0 65279 0 0 65279 0 0 65279 0 0 65279 0 0 65279 0 0 65279 0 0 65279 0 0 65279 0 0 65279 0 0 65279 0 0 65279 0 0 65279 0 0 65279 0 0 65279 0 0 65279 0 0 65279 0 0 65279 0 0 65279 0 0 65279 0 0 65279 0 0 65279 0 0 65279 0 0 65279 0 0 65279 0 0 65279 0 0 65279 0 0 65279 0 0 65279 0 0 65279 0 0 65279 0 0 65279 0 0 65279 0 0 65279 0 0 65279 0 0 65279 0 0 65279 0 0 65279 0 0 65279 0 0 65279 0 0 65279 0 0 65279 0 0 65279 0 0 65279 0 0 65279 0 0 65279 0 0 65279 0 0 65279 0 0 65279 0 0 65279 0 0 65279 0 0 65279 0 0 65279 0 0 65279 0 0 65279 0 0 65279 0 0 65279 0 0 65279 0 0 65279 0 0 65279 0 0 65279 0 0 65279 0 0 65279 0 0 65279 0 0 65279 0 0 65279 0 0 65279 0 0 65279 0 0 65279 0 0 65279 0 0 65279 0 0 65279 0 0 65279 0 0 65279 0 0 65279 0 0 65279 0 0 65279 0 0 65279 0 0 65279 0 0 65279 0 0 65279 0 0 65279 0 0 65279 0 0 65279 0 0 65279 0 0 65279 0 0 65279 0 0 65279 0 0 65279 0 0 65279 0 0 65279 0 0 65279 0 0 65279 0 0 65279 0 0 65279 0 0 65279 0 0 65279 0 0 65279 0 0 65279 0 0 65279 0 0 65279 0 0 65279 0 0 65279 0 0 65279 0 0 65279 0 0 65279 0 0 65279 0 0 65279 0 0 65279 0 0 65279 0 0 65279 0 0 65279 0 0 65279 0 0 65279 0 0 65279 0 0 65279 0 0 65279 0 0 65279 0 0 65279 0 0 65279 0 0 65279 0 0 65279 0 0 65279 0 0 65279 0 0 65279 0 0 65279 0 0 65279 0 0 65279 0 0 65279 0 0 65279 0 0 65279 0 0 65279 0 0 65279 0 0 65279 0 0 65279 0 0 65279 0 0 65279 0 0 65279 0 0 65279 0 0 65279 0 0 65279 0 0 65279 0 0 65279 0 0 65279 0 0 65279 0 0 65279 0 0 65279 0 0 65279 0 0 65279 0 0 65279 0 0 65279 0 0 65279 0 0 65279 0 0 65279 0 0 65279 0 0 65279 0 0 65279 0 0 65279 0 0 65279 0 0 65279 0 0 65279 0 0 65279 0 0 65279 0 0 65279 0 0 65279 0 0 65279 0 0 65279 0 0 65279 0 0 65279 0 0 65279 0 0 65279 0 0 65279 0 0 65279 0 0 65279 0 0 65279 0 0 65279 0 0 65279 0 0 65279 0 0 65279 0 0 65279 0 0 65279 0 0 65279 0 0 65279 0 0 65279 0 0 65279 0 0 65279 0 0 65279 0 0 65279 0 0 65279 0 0 65279 0 0 65279 0 0 65279 0 0 65279 0 0 65279 0 0 65279 0 0 65279 0 0 65279 0 0 65279 0 0 65279 0 0 65279 0 0 65279 0 0 65279 0 0 65279 0 0 65279 0 0 65279 0 0 65279 0 0 65279 0 0 65279 0 0 65279 0 0 65279 0 0 65279 0 0 65279 0 0 65279 0 0 65279 0 0 65279 0 0 65279 0 0 65279 0 0 65279 0 0 65279 0 0 65279 0 0 65279 0 0 65279 0 0 65279 0 0 65279 0 0 65279 0 0 65279 0 0 65279 0 0 65279 0 0 65279 0 0 65279 0 0 65279 0 0 65279 0 0 65279 0 0 65279 0 0 65279 0 0 65279 0 0 65279 0 0 65279 0 0 65279 0 0 65279 0 0 65279 0 0 65279 0 0 65279 0 0 65279 0 0 65279 0 0 65279 0 0 65279 0 0 65279 0 0 65279 0 0 65279 0 0 65279 0 0 65279 0 0 65279 0 0 65279 0 0 65279 0 0 65279 0 0 65279 0 0 65279 0 0 65279 0 0 65279 0 0 65279 0 0 65279 0 0 65279 0 0 65279 0 0 65279 0 0 65279 0 0 65279 0 0 65279 0 0 65279 0 0 65279 0 0 65279 0 0 65279 0 0 65279 0 0 65279 0 0 65279 0 0 65279 0 0 65279 0 0 65279 0 0 65279 0 0 65279 0 0 65279 0 0 65279 0 0 65279 0 0 65279 0 0 65279 0 0 65279 0 0 65279 0 0 65279 0 0 65279 0 0 65279 0 0 65279 0 0 65279 0 0 65279 0 0 65279 0 0 65279 0 0 65279 0 0 65279 0 0 65279 0 0 65279 0 0 65279 0 0 65279 0 0 65279 0 0 65279 0 0 65279 0 0 65279 0 0 65279 0 0 65279 0 0 65279 0 0 65279 0 0 65279 0 0 65279 0 0 65279 0 0 65279 0 0 65279 0 0 65279 0 0 65279 0 0 65279 0 0 65279 0 0 65279 0 0 65279 0 0 65279 0 0 65279 0 0 65279 0 0 65279 0 0 65279 0 0 65279 0 0 65279 0 0 65279 0 0 65279 0 0 65279 0 0 65279 0 0 65279 0 0 65279 0 0 65279 0 0 65279 0 0 65279 0 0 65279 0 0 65279 0 0 65279 0 0 65279 0 0 65279 0 0 65279 0 0 65279 0 0 65279 0 0 65279 0 0 65279 0 0 65279 0 0 65279 0 0 65279 0 0 65279 0 0 65279 0 0 65279 0 0 65279 0 0 65279 0 0 65279 0 0 65279 0 0 65279 0 0 65279 0 0 65279 0 0 65279 0 0 65279 0 0 65279 0 0 65279 0 0 65279 0 0 65279 0 0 65279 0 0 65279 0 0 65279 0 0 65279 0 0 65279 0 0 65279 0 0 65279 0 0 65279 0 0 65279 0 0 65279 0 0 65279 0 0 65279 0 0 65279 0 0 65279 0 0 65279 0 0 65279 0 0 65279 0 0 65279 0 0 65279 0 0 65279 0 0 65279 0 0 65279 0 0 65279 0 0 65279 0 0 65279 0 0 65279 0 0 65279 0 0 65279 0 0 65279 0 0 65279 0 0 65279 0 0 65279 0 0 65279 0 0 65279 0 0 65279 0 0 65279 0 0 65279 0 0 65279 0 0 65279 0 0 65279 0 0 65279 0 0 65279 0 0 65279 0 0 65279 0 0 65279 0 0 65279 0 0 65279 0 0 65279 0 0 65279 0 0 65279 0 0 65279 0 0 65279 0 0 65279 0 0 65279 0 0 65279 0 0 65279 0 0 65279 0 0 65279 0 0 65279 0 0 65279 0 0 65279 0 0 65279 0 0 65279 0 0 65279 0 0 65279 0 0 65279 0 0 65279 0 0 65279 0 0 65279 0 0 65279 0 0 65279 0 0 65279 0 0 65279 0 0 65279 0 0 65279 0 0 65279 0 0 65279 0 0 65279 0 0 65279 0 0 65279 0 0 65279 0 0 65279 0 0 65279 0 0 65279 0 0 65279 0 0 65279 0 0 65279 0 0 65279 0 0 65279 0 0 65279 0 0 65279 0 0 65279 0 0 65279 0 0 65279 0 0 65279 0 0 65279 0 0 65279 0 0 65279 0 0 65279 0 0 65279 0 0 65279 0 0 65279 0 0 65279 0 0 65279 0 0 65279 0 0 65279 0 0 65279 0 0 65279 0 0 65279 0 0 65279 0 0 65279 0 0 65279 0 0 65279 0 0 65279 0 0 65279 0 0 65279 0 0 65279 0 0 65279 0 0 65279 0 0 65279 0 0 65279 0 0 65279 0 0 65279 0 0 65279 0 0 65279 0 0 65279 0 0 65279 0 0 65279 0 0 65279 0 0 65279 0 0 65279 0 0 65279 0 0 65279 0 0 65279 0 0 65279 0 0 65279 0 0 65279 0 0 65279 0 0 65279 0 0 65279 0 0 65279 0 0 65279 0 0 65279 0 0 65279 0 0 65279 0 0 65279 0 0 65279 0 0 65279 0 0 65279 0 0 65279 0 0 65279 0 0 65279 0 0 65279 0 0 65279 0 0 65279 0 0 65279 0 0 65279 0 0 65279 0 0 65279 0 0 65279 0 0 65279 0 0 65279 0 0 65279 0 0 65279 0 0 65279 0 0 65279 0 0 65279 0 0 65279 0 0 65279 0 0 65279 0 0 65279 0 0 65279 0 0 65279 0 0 65279 0 0 65279 0 0 65279 0 0 65279 0 0 65279 0 0 65279 0 0 65279 0 0 65279 0 0 65279 0 0 65279 0 0 65279 0 0 65279 0 0 65279 0 0 65279 0 0 65279 0 0 65279 0 0 65279 0 0 65279 0 0 65279 0 0 65279 0 0 65279 0 0 65279 0 0 65279 0 0 65279 0 0 65279 0 0 65279 0 0 65279 0 0 65279 0 0 65279 0 0 65279 0 0 65279 0 0 65279 0 0 65279 0 0 65279 0 0 65279 0 0 65279 0 0 65279 0 0 65279 0 0 65279 0 0 65279 0 0 65279 0 0 65279 0 0 65279 0 0 65279 0 0 65279 0 0 65279 0 0 65279 0 0 65279 0 0 65279 0 0 65279 0 0 65279 0 0 65279 0 0 65279 0 0 65279 0 0 65279 0 0 65279 0 0 65279 0 0 65279 0 0 65279 0 0 65279 0 0 65279 0 0 65279 0 0 65279 0 0 65279 0 0 65279 0 0 65279 0 0 65279 0 0 65279 0 0 65279 0 0 65279 0 0 65279 0 0 65279 0 0 65279 0 0 65279 0 0 65279 0 0 65279 0 0 65279 0 0 65279 0 0 65279 0 0 65279 0 0 65279 0 0 65279 0 0 65279 0 0 65279 0 0 65279 0 0 65279 0 0 65279 0 0 65279 0 0 65279 0 0 65279 0 0 65279 0 0 65279 0 0 65279 0 0 65279 0 0 65279 0 0 65279 0 0 65279 0 0 65279 0 0 65279 0 0 65279 0 0 65279 0 0 65279 0 0 65279 0 0 65279 0 0 65279 0 0 65279 0 0 65279 0 0 65279 0 0 65279 0 0 65279 0 0 65279 0 0 65279 0 0 65279 0 0 65279 0 0 65279 0 0 65279 0 0 65279 0 0 65279 0 0 65279 0 0 65279 0 0 65279 0 0 65279 0 0 65279 0 0 65279 0 0 65279 0 0 65279 0 0 65279 0 0 65279 0 0 65279 0 0 65279 0 0 65279 0 0 65279 0 0 65279 0 0 65279 0 0 65279 0 0 65279 0 0 65279 0 0 65279 0 0 65279 0 0 65279 0 0 65279 0 0 65279 0 0 65279 0 0 65279 0 0 65279 0 0 65279 0 0 65279 0 0 65279 0 0 65279 0 0 65279 0 0 65279 0 0 65279 0 0 65279 0 0 65279 0 0 65279 0 0 65279 0 0 65279 0 0 65279 0 0 65279 0 0 65279 0 0 65279 0 0 65279 0 0 65279 0 0 65279 0 0 65279 0 0 65279 0 0 65279 0 0 65279 0 0 65279 0 0 65279 0 0 65279 0 0 65279 0 0 65279 0 0 65279 0 0 65279 0 0 65279 0 0 65279 0 0 65279 0 0 65279 0 0 65279 0 0 65279 0 0 65279 0 0 65279 0 0 65279 0 0 65279 0 0 65279 0 0 65279 0 0 65279 0 0 65279 0 0 65279 0 0 65279 0 0 65279 0 0 65279 0 0 65279 0 0 65279 0 0 65279 0 0 65279 0 0 65279 0 0 65279 0 0 65279 0 0 65279 0 0 65279 0 0 65279 0 0 65279 0 0 65279 0 0 65279 0 0 65279 0 0 65279 0 0 65279 0 0 65279 0 0 65279 0 0 65279 0 0 65279 0 0 65279 0 0 65279 0 0 65279 0 0 65279 0 0 65279 0 0 65279 0 0 65279 0 0 65279 0 0 65279 0 0 65279 0 0 65279 0 0 65279 0 0 65279 0 0 65279 0 0 65279 0 0 65279 0 0 65279 0 0 65279 0 0 65279 0 0 65279 0 0 65279 0 0 65279 0 0 65279 0 0 65279 0 0 65279 0 0 65279 0 0 65279 0 0 65279 0 0 65279 0 0 65279 0 0 65279 0 0 65279 0 0 65279 0 0 65279 0 0 65279 0 0 65279 0 0 65279 0 0 65279 0 0 65279 0 0 65279 0 0 65279 0 0 65279 0 0 65279 0 0 65279 0 0 65279 0 0 65279 0 0 65279 0 0 65279 0 0 65279 0 0 65279 0 0 65279 0 0 65279 0 0 65279 0 0 65279 0 0 65279 0 0 65279 0 0 65279 0 0 65279 0 0 65279 0 0 65279 0 0 65279 0 0 65279 0 0 65279 0 0 65279 0 0 65279 0 0 65279 0 0 65279 0 0 65279 0 0 65279 0 0 65279 0 0 65279 0 0 65279 0 0 65279 0 0 65279 0 0 65279 0 0 65279 0 0 65279 0 0 65279 0 0 65279 0 0 65279 0 0 65279 0 0 65279 0 0 65279 0 0 65279 0 0 65279 0 0 65279 0 0 65279 0 0 65279 0 0 65279 0 0 65279 0 0 65279 0 0 65279 0 0 65279 0 0 65279 0 0 65279 0 0 65279 0 0 65279 0 0 65279 0 0 65279 0 0 65279 0 0 65279 0 0 65279 0 0 65279 0 0 65279 0 0 65279 0 0 65279 0 0 65279 0 0 65279 0 0 65279 0 0 65279 0 0 65279 0 0 65279 0 0 65279 0 0 65279 0 0 65279 0 0 65279 0 0 65279 0 0 65279 0 0 65279 0 0 65279 0 0 65279 0 0 65279 0 0 65279 0 0 65279 0 0 65279 0 0 65279 0 0 65279 0 0 65279 0 0 65279 0 0 65279 0 0 65279 0 0 65279 0 0 65279 0 0 65279 0 0 65279 0 0 65279 0 0 65279 0 0 65279 0 0 65279 0 0 65279 0 0 65279 0 0 65279 0 0 65279 0 0 65279 0 0 65279 0 0 65279 0 0 65279 0 0 65279 0 0 65279 0 0 65279 0 0 65279 0 0 65279 0 0 65279 0 0 65279 0 0 65279 0 0 65279 0 0 65279 0 0 65279 0 0 65279 0 0 65279 0 0 65279 0 0 65279 0 0 65279 0 0 65279 0 0 65279 0 0 65279 0 0 65279 0 0 65279 0 0 65279 0 0 65279 0 0 65279 0 0 65279 0 0 65279 0 0 65279 0 0 65279 0 0 65279 0 0 65279 0 0 65279 0 0 65279 0 0 65279 0 0 65279 0 0 65279 0 0 65279 0 0 65279 0 0 65279 0 0 65279 0 0 65279 0 0 65279 0 0 65279 0 0 65279 0 0 65279 0 0 65279 0 0 65279 0 0 65279 0 0 65279 0 0 65279 0 0 65279 0 0 65279 0 0 65279 0 0 65279 0 0 65279 0 0 65279 0 0 65279 0 0 65279 0 0 65279 0 0 65279 0 0 65279 0 0 65279 0 0 65279 0 0 65279 0 0 65279 0 0 65279 0 0 65279 0 0 65279 0 0 65279 0 0 65279 0 0 65279 0 0 65279 0 0 65279 0 0 65279 0 0 65279 0 0 65279 0 0 65279 0 0 65279 0 0 65279 0 0 65279 0 0 65279 0 0 65279 0 0 65279 0 0 65279 0 0 65279 0 0 65279 0 0 65279 0 0 65279 0 0 65279 0 0 65279 0 0 65279 0 0 65279 0 0 65279 0 0 65279 0 0 65279 0 0 65279 0 0 65279 0 0 65279 0 0 65279 0 0 65279 0 0 65279 0 0 65279 0 0 65279 0 0 65279 0 0 65279 0 0 65279 0 0 65279 0 0 65279 0 0 65279 0 0 65279 0 0 65279 0 0 65279 0 0 65279 0 0 65279 0 0 65279 0 0 65279 0 0 65279 0 0 65279 0 0 65279 0 0 65279 0 0 65279 0 0 65279 0 0 65279 0 0 65279 0 0 65279 0 0 65279 0 0 65279 0 0 65279 0 0 65279 0 0 65279 0 0 65279 0 0 65279 0 0 65279 0 0 65279 0 0 65279 0 0 65279 0 0 65279 0 0 65279 0 0 65279 0 0 65279 0 0 65279 0 0 65279 0 0 65279 0 0 65279 0 0 65279 0 0 65279 0 0 65279 0 0 65279 0 0 65279 0 0 65279 0 0 65279 0 0 65279 0 0 65279 0 0 65279 0 0 65279 0 0 65279 0 0 65279 0 0 65279 0 0 65279 0 0 65279 0 0 65279 0 0 65279 0 0 65279 0 0 65279 0 0 65279 0 0 65279 0 0 65279 0 0 65279 0 0 65279 0 0 65279 0 0 65279 0 0 65279 0 0 65279 0 0 65279 0 0 65279 0 0 65279 0 0 65279 0 0 65279 0 0 65279 0 0 65279 0 0 65279 0 0 65279 0 0 65279 0 0 65279 0 0 65279 0 0 65279 0 0 65279 0 0 65279 0 0 65279 0 0 65279 0 0 65279 0 0 65279 0 0 65279 0 0 65279 0 0 65279 0 0 65279 0 0 65279 0 0 65279 0 0 65279 0 0 65279 0 0 65279 0 0 65279 0 0 65279 0 0 65279 0 0 65279 0 0 65279 0 0 65279 0 0 65279 0 0 65279 0 0 65279 0 0 65279 0 0 65279 0 0 65279 0 0 65279 0 0 65279 0 0 65279 0 0 65279 0 0 65279 0 0 65279 0 0 65279 0 0 65279 0 0 65279 0 0 65279 0 0 65279 0 0 65279 0 0 65279 0 0 65279 0 0 65279 0 0 65279 0 0 65279 0 0 65279 0 0 65279 0 0 65279 0 0 65279 0 0 65279 0 0 65279 0 0 65279 0 0 65279 0 0 65279 0 0 65279 0 0 65279 0 0 65279 0 0 65279 0 0 65279 0 0 65279 0 0 65279 0 0 65279 0 0 65279 0 0 65279 0 0 65279 0 0 65279 0 0 65279 0 0 65279 0 0 65279 0 0 65279 0 0 65279 0 0 65279 0 0 65279 0 0 65279 0 0 65279 0 0 65279 0 0 65279 0 0 65279 0 0 65279 0 0 65279 0 0 65279 0 0 65279 0 0 65279 0 0 65279 0 0 65279 0 0 65279 0 0 65279 0 0 65279 0 0 65279 0 0 65279 0 0 65279 0 0 65279 0 0 65279 0 0 65279 0 0 65279 0 0 65279 0 0 65279 0 0 65279 0 0 65279 0 0 65279 0 0 65279 0 0 65279 0 0 65279 0 0 65279 0 0 65279 0 0 65279 0 0 65279 0 0 65279 0 0 65279 0 0 65279 0 0 65279 0 0 65279 0 0 65279 0 0 65279 0 0 65279 0 0 65279 0 0 65279 0 0 65279 0 0 65279 0 0 65279 0 0 65279 0 0 65279 0 0 65279 0 0 65279 0 0 65279 0 0 65279 0 0 65279 0 0 65279 0 0 65279 0 0 65279 0 0 65279 0 0 65279 0 0 65279 0 0 65279 0 0 65279 0 0 65279 0 0 65279 0 0 65279 0 0 65279 0 0 65279 0 0 65279 0 0 65279 0 0 65279 0 0 65279 0 0 65279 0 0 65279 0 0 65279 0 0 65279 0 0 65279 0 0 65279 0 0 65279 0 0 65279 0 0 65279 0 0 65279 0 0 65279 0 0 65279 0 0 65279 0 0 65279 0 0 65279 0 0 65279 0 0 65279 0 0 65279 0 0 65279 0 0 65279 0 0 65279 0 0 65279 0 0 65279 0 0 65279 0 0 65279 0 0 65279 0 0 65279 0 0 65279 0 0 65279 0 0 65279 0 0 65279 0 0 65279 0 0 65279 0 0 65279 0 0 65279 0 0 65279 0 0 65279 0 0 65279 0 0 65279 0 0 65279 0 0 65279 0 0 65279 0 0 65279 0 0 65279 0 0 65279 0 0 65279 0 0 65279 0 0 65279 0 0 65279 0 0 65279 0 0 65279 0 0 65279 0 0 65279 0 0 65279 0 0 65279 0 0 65279 0 0 65279 0 0 65279 0 0 65279 0 0 65279 0 0 65279 0 0 65279 0 0 65279 0 0 65279 0 0 65279 0 0 65279 0 0 65279 0 0 65279 0 0 65279 0 0 65279 0 0 65279 0 0 65279 0 0 65279 0 0 65279 0 0 65279 0 0 65279 0 0 65279 0 0 65279 0 0 65279 0 0 65279 0 0 65279 0 0 65279 0 0 65279 0 0 65279 0 0 65279 0 0 65279 0 0 65279 0 0 65279 0 0 65279 0 0 65279 0 0 65279 0 0 65279 0 0 65279 0 0 65279 0 0 65279 0 0 65279 0 0 65279 0 0 65279 0 0 65279 0 0 65279 0 0 65279 0 0 65279 0 0 65279 0 0 65279 0 0 65279 0 0 65279 0 0 65279 0 0 65279 0 0 65279 0 0 65279 0 0 65279 0 0 65279 0 0 65279 0 0 65279 0 0 65279 0 0 65279 0 0 65279 0 0 65279 0 0 65279 0 0 65279 0 0 65279 0 0 65279 0 0 65279 0 0 65279 0 0 65279 0 0 65279 0 0 65279 0 0 65279 0 0 65279 0 0 65279 0 0 65279 0 0 65279 0 0 65279 0 0 65279 0 0 65279 0 0 65279 0 0 65279 0 0 65279 0 0 65279 0 0 65279 0 0 65279 0 0 65279 0 0 65279 0 0 65279 0 0 65279 0 0 65279 0 0 65279 0 0 65279 0 0 65279 0 0 65279 0 0 65279 0 0 65279 0 0 65279 0 0 65279 0 0 65279 0 0 65279 0 0 65279 0 0 65279 0 0 65279 0 0 65279 0 0 65279 0 0 65279 0 0 65279 0 0 65279 0 0 65279 0 0 65279 0 0 65279 0 0 65279 0 0 65279 0 0 65279 0 0 65279 0 0 65279 0 0 65279 0 0 65279 0 0 65279 0 0 65279 0 0 65279 0 0 65279 0 0 65279 0 0 65279 0 0 65279 0 0 65279 0 0 65279 0 0 65279 0 0 65279 0 0 65279 0 0 65279 0 0 65279 0 0 65279 0 0 65279 0 0 65279 0 0 65279 0 0 65279 0 0 65279 0 0 65279 0 0 65279 0 0 65279 0 0 65279 0 0 65279 0 0 65279 0 0 65279 0 0 65279 0 0 65279 0 0 65279 0 0 65279 0 0 65279 0 0 65279 0 0 65279 0 0 65279 0 0 65279 0 0 65279 0 0 65279 0 0 65279 0 0 65279 0 0 65279 0 0 65279 0 0 65279 0 0 65279 0 0 65279 0 0 65279 0 0 65279 0 0 65279 0 0 65279 0 0 65279 0 0 65279 0 0 65279 0 0 65279 0 0 65279 0 0 65279 0 0 65279 0 0 65279 0 0 65279 0 0 65279 0 0 65279 0 0 65279 0 0 65279 0 0 65279 0 0 65279 0 0 65279 0 0 65279 0 0 65279 0 0 65279 0 0 65279 0 0 65279 0 0 65279 0 0 65279 0 0 65279 0 0 65279 0 0 65279 0 0 65279 0 0 65279 0 0 65279 0 0 65279 0 0 65279 0 0 65279 0 0 65279 0 0 65279 0 0 65279 0 0 65279 0 0 65279 0 0 65279 0 0 65279 0 0 65279 0 0 65279 0 0 65279 0 0 65279 0 0 65279 0 0 65279 0 0 65279 0 0 65279 0 0 65279 0 0 65279 0 0 65279 0 0 65279 0 0 65279 0 0 65279 0 0 65279 0 0 65279 0 0 65279 0 0 65279 0 0 65279 0 0 65279 0 0 65279 0 0 65279 0 0 65279 0 0 65279 0 0 65279 0 0 65279 0 0 65279 0 0 65279 0 0 65279 0 0 65279 0 0 65279 0 0 65279 0 0 65279 0 0 65279 0 0 65279 0 0 65279 0 0 65279 0 0 65279 0 0 65279 0 0 65279 0 0 65279 0 0 65279 0 0 65279 0 0 65279 0 0 65279 0 0 65279 0 0 65279 0 0 65279 0 0 65279 0 0 65279 0 0 65279 0 0 65279 0 0 65279 0 0 65279 0 0 65279 0 0 65279 0 0 65279 0 0 65279 0 0 65279 0 0 65279 0 0 65279 0 0 65279 0 0 65279 0 0 65279 0 0 65279 0 0 65279 0 0 65279 0 0 65279 0 0 65279 0 0 65279 0 0 65279 0 0 65279 0 0 65279 0 0 65279 0 0 65279 0 0 65279 0 0 65279 0 0 65279 0 0 65279 0 0 65279 0 0 65279 0 0 65279 0 0 65279 0 0 65279 0 0 65279 0 0 65279 0 0 65279 0 0 65279 0 0 65279 0 0 65279 0 0 65279 0 0 65279 0 0 65279 0 0 65279 0 0 65279 0 0 65279 0 0 65279 0 0 65279 0 0 65279 0 0 65279 0 0 65279 0 0 65279 0 0 65279 0 0 65279 0 0 65279 0 0 65279 0 0 65279 0 0 65279 0 0 65279 0 0 65279 0 0 65279 0 0 65279 0 0 65279 0 0 65279 0 0 65279 0 0 65279 0 0 65279 0 0 65279 0 0 65279 0 0 65279 0 0 65279 0 0 65279 0 0 65279 0 0 65279 0 0 65279 0 0 65279 0 0 65279 0 0 65279 0 0 65279 0 0 65279 0 0 65279 0 0 65279 0 0 65279 0 0 65279 0 0 65279 0 0 65279 0 0 65279 0 0 65279 0 0 65279 0 0 65279 0 0 65279 0 0 65279 0 0 65279 0 0 65279 0 0 65279 0 0 65279 0 0 65279 0 0 65279 0 0 65279 0 0 65279 0 0 65279 0 0 65279 0 0 65279 0 0 65279 0 0 65279 0 0 65279 0 0 65279 0 0 65279 0 0 65279 0 0 65279 0 0 65279 0 0 65279 0 0 65279 0 0 65279 0 0 65279 0 0 65279 0 0 65279 0 0 65279 0 0 65279 0 0 65279 0 0 65279 0 0 65279 0 0 65279 0 0 65279 0 0 65279 0 0 65279 0 0 65279 0 0 65279 0 0 65279 0 0 65279 0 0 65279 0 0 65279 0 0 65279 0 0 65279 0 0 65279 0 0 65279 0 0 65279 0 0 65279 0 0 65279 0 0 65279 0 0 65279 0 0 65279 0 0 65279 0 0 65279 0 0 65279 0 0 65279 0 0 65279 0 0 65279 0 0 65279 0 0 65279 0 0 65279 0 0 65279 0 0 65279 0 0 65279 0 0 65279 0 0 65279 0 0 65279 0 0 65279 0 0 65279 0 0 65279 0 0 65279 0 0 65279 0 0 65279 0 0 65279 0 0 65279 0 0 65279 0 0 65279 0 0 65279 0 0 65279 0 0 65279 0 0 65279 0 0 65279 0 0 65279 0 0 65279 0 0 65279 0 0 65279 0 0 65279 0 0 65279 0 0 65279 0 0 65279 0 0 65279 0 0 65279 0 0 65279 0 0 65279 0 0 65279 0 0 65279 0 0 65279 0 0 65279 0 0 65279 0 0 65279 0 0 65279 0 0 65279 0 0 65279 0 0 65279 0 0 65279 0 0 65279 0 0 65279 0 0 65279 0 0 65279 0 0 65279 0 0 65279 0 0 65279 0 0 65279 0 0 65279 0 0 65279 0 0 65279 0 0 65279 0 0 65279 0 0 65279 0 0 65279 0 0 65279 0 0 65279 0 0 65279 0 0 65279 0 0 65279 0 0 65279 0 0 65279 0 0 65279 0 0 65279 0 0 65279 0 0 65279 0 0 65279 0 0 65279 0 0 65279 0 0 65279 0 0 65279 0 0 65279 0 0 65279 0 0 65279 0 0 65279 0 0 65279 0 0 65279 0 0 65279 0 0 65279 0 0 65279 0 0 65279 0 0 65279 0 0 65279 0 0 65279 0 0 65279 0 0 65279 0 0 65279 0 0 65279 0 0 65279 0 0 65279 0 0 65279 0 0 65279 0 0 65279 0 0 65279 0 0 65279 0 0 65279 0 0 65279 0 0 65279 0 0 65279 0 0 65279 0 0 65279 0 0 65279 0 0 65279 0 0 65279 0 0 65279 0 0 65279 0 0 65279 0 0 65279 0 0 65279 0 0 65279 0 0 65279 0 0 65279 0 0 65279 0 0 65279 0 0 65279 0 0 65279 0 0 65279 0 0 65279 0 0 65279 0 0 65279 0 0 65279 0 0 65279 0 0 65279 0 0 65279 0 0 65279 0 0 65279 0 0 65279 0 0 65279 0 0 65279 0 0 65279 0 0 65279 0 0 65279 0 0 65279 0 0 65279 0 0 65279 0 0 65279 0 0 65279 0 0 65279 0 0 65279 0 0 65279 0 0 65279 0 0 65279 0 0 65279 0 0 65279 0 0 65279 0 0 65279 0 0 65279 0 0 65279 0 0 65279 0 0 65279 0 0 65279 0 0 65279 0 0 65279 0 0 65279 0 0 65279 0 0 65279 0 0 65279 0 0 65279 0 0 65279 0 0 65279 0 0 65279 0 0 65279 0 0 65279 0 0 65279 0 0 65279 0 0 65279 0 0 65279 0 0 65279 0 0 65279 0 0 65279 0 0 65279 0 0 65279 0 0 65279 0 0 65279 0 0 65279 0 0 65279 0 0 65279 0 0 65279 0 0 65279 0 0 65279 0 0 65279 0 0 65279 0 0 65279 0 0 65279 0 0 65279 0 0 65279 0 0 65279 0 0 65279 0 0 65279 0 0 65279 0 0 65279 0 0 65279 0 0 65279 0 0 65279 0 0 65279 0 0 65279 0 0 65279 0 0 65279 0 0 65279 0 0 65279 0 0 65279 0 0 65279 0 0 65279 0 0 65279 0 0 65279 0 0 65279 0 0 65279 0 0 65279 0 0 65279 0 0 65279 0 0 65279 0 0 65279 0 0 65279 0 0 65279 0 0 65279 0 0 65279 0 0 65279 0 0 65279 0 0 65279 0 0 65279 0 0 65279 0 0 65279 0 0 65279 0 0 65279 0 0 65279 0 0 65279 0 0 65279 0 0 65279 0 0 65279 0 0 65279 0 0 65279 0 0 65279 0 0 65279 0 0 65279 0 0 65279 0 0 65279 0 0 65279 0 0 65279 0 0 65279 0 0 65279 0 0 65279 0 0 65279 0 0 65279 0 0 65279 0 0 65279 0 0 65279 0 0 65279 0 0 65279 0 0 65279 0 0 65279 0 0 65279 0 0 65279 0 0 65279 0 0 65279 0 0 65279 0 0 65279 0 0 65279 0 0 65279 0 0 65279 0 0 65279 0 0 65279 0 0 65279 0 0 65279 0 0 65279 0 0 65279 0 0 65279 0 0 65279 0 0 65279 0 0 65279 0 0 65279 0 0 65279 0 0 65279 0 0 65279 0 0 65279 0 0 65279 0 0 65279 0 0 65279 0 0 65279 0 0 65279 0 0 65279 0 0 65279 0 0 65279 0 0 65279 0 0 65279 0 0 65279 0 0 65279 0 0 65279 0 0 65279 0 0 65279 0 0 65279 0 0 65279 0 0 65279 0 0 65279 0 0 65279 0 0 65279 0 0 65279 0 0 65279 0 0 65279 0 0 65279 0 0 65279 0 0 65279 0 0 65279 0 0 65279 0 0 65279 0 0 65279 0 0 65279 0 0 65279 0 0 65279 0 0 65279 0 0 65279 0 0 65279 0 0 65279 0 0 65279 0 0 65279 0 0 65279 0 0 65279 0 0 65279 0 0 65279 0 0 65279 0 0 65279 0 0 65279 0 0 65279 0 0 65279 0 0 65279 0 0 65279 0 0 65279 0 0 65279 0 0 65279 0 0 65279 0 0 65279 0 0 65279 0 0 65279 0 0 65279 0 0 65279 0 0 65279 0 0 65279 0 0 65279 0 0 65279 0 0 65279 0 0 65279 0 0 65279 0 0 65279 0 0 65279 0 0 65279 0 0 65279 0 0 65279 0 0 65279 0 0 65279 0 0 65279 0 0 65279 0 0 65279 0 0 65279 0 0 65279 0 0 65279 0 0 65279 0 0 65279 0 0 65279 0 0 65279 0 0 65279 0 0 65279 0 0 65279 0 0 65279 0 0 65279 0 0 65279 0 0 65279 0 0 65279 0 0 65279 0 0 65279 0 0 65279 0 0 65279 0 0 65279 0 0 65279 0 0 65279 0 0 65279 0 0 65279 0 0 65279 0 0 65279 0 0 65279 0 0 65279 0 0 65279 0 0 65279 0 0 65279 0 0 65279 0 0 65279 0 0 65279 0 0 65279 0 0 65279 0 0 65279 0 0 65279 0 0 65279 0 0 65279 0 0 65279 0 0 65279 0 0 65279 0 0 65279 0 0 65279 0 0 65279 0 0 65279 0 0 65279 0 0 65279 0 0 65279 0 0 65279 0 0 65279 0 0 65279 0 0 65279 0 0 65279 0 0 65279 0 0 65279 0 0 65279 0 0 65279 0 0 65279 0 0 65279 0 0 65279 0 0 65279 0 0 65279 0 0 65279 0 0 65279 0 0 65279 0 0 65279 0 0 65279 0 0 65279 0 0 65279 0 0 65279 0 0 65279 0 0 65279 0 0 65279 0 0 65279 0 0 65279 0 0 65279 0 0 65279 0 0 65279 0 0 65279 0 0 65279 0 0 65279 0 0 65279 0 0 65279 0 0 65279 0 0 65279 0 0 65279 0 0 65279 0 0 65279 0 0 65279 0 0 65279 0 0 65279 0 0 65279 0 0 65279 0 0 65279 0 0 65279 0 0 65279 0 0 65279 0 0 65279 0 0 65279 0 0 65279 0 0 65279 0 0 65279 0 0 65279 0 0 65279 0 0 65279 0 0 65279 0 0 65279 0 0 65279 0 0 65279 0 0 65279 0 0 65279 0 0 65279 0 0 65279 0 0 65279 0 0 65279 0 0 65279 0 0 65279 0 0 65279 0 0 65279 0 0 65279 0 0 65279 0 0 65279 0 0 65279 0 0 65279 0 0 65279 0 0 65279 0 0 65279 0 0 65279 0 0 65279 0 0 65279 0 0 65279 0 0 65279 0 0 65279 0 0 65279 0 0 65279 0 0 65279 0 0 65279 0 0 65279 0 0 65279 0 0 65279 0 0 65279 0 0 65279 0 0 65279 0 0 65279 0 0 65279 0 0 65279 0 0 65279 0 0 65279 0 0 65279 0 0 65279 0 0 65279 0 0 65279 0 0 65279 0 0 65279 0 0 65279 0 0 65279 0 0 65279 0 0 65279 0 0 65279 0 0 65279 0 0 65279 0 0 65279 0 0 65279 0 0 65279 0 0 65279 0 0 65279 0 0 65279 0 0 65279 0 0 65279 0 0 65279 0 0 65279 0 0 65279 0 0 65279 0 0 65279 0 0 65279 0 0 65279 0 0 65279 0 0 65279 0 0 65279 0 0 65279 0 0 65279 0 0 65279 0 0 65279 0 0 65279 0 0 65279 0 0 65279 0 0 65279 0 0 65279 0 0 65279 0 0 65279 0 0 65279 0 0 65279 0 0 65279 0 0 65279 0 0 65279 0 0 65279 0 0 65279 0 0 65279 0 0 65279 0 0 65279 0 0 65279 0 0 65279 0 0 65279 0 0 65279 0 0 65279 0 0 65279 0 0 65279 0 0 65279 0 0 65279 0 0 65279 0 0 65279 0 0 65279 0 0 65279 0 0 65279 0 0 65279 0 0 65279 0 0 65279 0 0 65279 0 0 65279 0 0 65279 0 0 65279 0 0 65279 0 0 65279 0 0 65279 0 0 65279 0 0 65279 0 0 65279 0 0 65279 0 0 65279 0 0 65279 0 0 65279 0 0 65279 0 0 65279 0 0 65279 0 0 65279 0 0 65279 0 0 65279 0 0 65279 0 0 65279 0 0 65279 0 0 65279 0 0 65279 0 0 65279 0 0 65279 0 0 65279 0 0 65279 0 0 65279 0 0 65279 0 0 65279 0 0 65279 0 0 65279 0 0 65279 0 0 65279 0 0 65279 0 0 65279 0 0 65279 0 0 65279 0 0 65279 0 0 65279 0 0 65279 0 0 65279 0 0 65279 0 0 65279 0 0 65279 0 0 65279 0 0 65279 0 0 65279 0 0 65279 0 0 65279 0 0 65279 0 0 65279 0 0 65279 0 0 65279 0 0 65279 0 0 65279 0 0 65279 0 0 65279 0 0 65279 0 0 65279 0 0 65279 0 0 65279 0 0 65279 0 0 65279 0 0 65279 0 0 65279 0 0 65279 0 0 65279 0 0 65279 0 0 65279 0 0 65279 0 0 65279 0 0 65279 0 0 65279 0 0 65279 0 0 65279 0 0 65279 0 0 65279 0 0 65279 0 0 65279 0 0 65279 0 0 65279 0 0 65279 0 0 65279 0 0 65279 0 0 65279 0 0 65279 0 0 65279 0 0 65279 0 0 65279 0 0 65279 0 0 65279 0 0 65279 0 0 65279 0 0 65279 0 0 65279 0 0 65279 0 0 65279 0 0 65279 0 0 65279 0 0 65279 0 0 65279 0 0 65279 0 0 65279 0 0 65279 0 0 65279 0 0 65279 0 0 65279 0 0 65279 0 0 65279 0 0 65279 0 0 65279 0 0 65279 0 0 65279 0 0 65279 0 0 65279 0 0 65279 0 0 65279 0 0 65279 0 0 65279 0 0 65279 0 0 65279 0 0 65279 0 0 65279 0 0 65279 0 0 65279 0 0 65279 0 0 65279 0 0 65279 0 0 65279 0 0 65279 0 0 65279 0 0 65279 0 0 65279 0 0 65279 0 0 65279 0 0 65279 0 0 65279 0 0 65279 0 0 65279 0 0 65279 0 0 65279 0 0 65279 0 0 65279 0 0 65279 0 0 65279 0 0 65279 0 0 65279 0 0 65279 0 0 65279 0 0 65279 0 0 65279 0 0 65279 0 0 65279 0 0 65279 0 0 65279 0 0 65279 0 0 65279 0 0 65279 0 0 65279 0 0 65279 0 0 65279 0 0 65279 0 0 65279 0 0 65279 0 0 65279 0 0 65279 0 0 65279 0 0 65279 0 0 65279 0 0 65279 0 0 65279 0 0 65279 0 0 65279 0 0 65279 0 0 65279 0 0 65279 0 0 65279 0 0 65279 0 0 65279 0 0 65279 0 0 65279 0 0 65279 0 0 65279 0 0 65279 0 0 65279 0 0 65279 0 0 65279 0 0 65279 0 0 65279 0 0 65279 0 0 65279 0 0 65279 0 0 65279 0 0 65279 0 0 65279 0 0 65279 0 0 65279 0 0 65279 0 0 65279 0 0 65279 0 0 65279 0 0 65279 0 0 65279 0 0 65279 0 0 65279 0 0 65279 0 0 65279 0 0 65279 0 0 65279 0 0 65279 0 0 65279 0 0 65279 0 0 65279 0 0 65279 0 0 65279 0 0 65279 0 0 65279 0 0 65279 0 0 65279 0 0 65279 0 0 65279 0 0 65279 0 0 65279 0 0 65279 0 0 65279 0 0 65279 0 0 65279 0 0 65279 0 0 65279 0 0 65279 0 0 65279 0 0 65279 0 0 65279 0 0 65279 0 0 65279 0 0 65279 0 0 65279 0 0 65279 0 0 65279 0 0 65279 0 0 65279 0 0 65279 0 0 65279 0 0 65279 0 0 65279 0 0 65279 0 0 65279 0 0 65279 0 0 65279 0 0 65279 0 0 65279 0 0 65279 0 0 65279 0 0 65279 0 0 65279 0 0 65279 0 0 65279 0 0 65279 0 0 65279 0 0 65279 0 0 65279 0 0 65279 0 0 65279 0 0 65279 0 0 65279 0 0 65279 0 0 65279 0 0 65279 0 0 65279 0 0 65279 0 0 65279 0 0 65279 0 0 65279 0 0 65279 0 0 65279 0 0 65279 0 0 65279 0 0 65279 0 0 65279 0 0 65279 0 0 65279 0 0 65279 0 0 65279 0 0 65279 0 0 65279 0 0 65279 0 0 65279 0 0 65279 0 0 65279 0 0 65279 0 0 65279 0 0 65279 0 0 65279 0 0 65279 0 0 65279 0 0 65279 0 0 65279 0 0 65279 0 0 65279 0 0 65279 0 0 65279 0 0 65279 0 0 65279 0 0 65279 0 0 65279 0 0 65279 0 0 65279 0 0 65279 0 0 65279 0 0 65279 0 0 65279 0 0 65279 0 0 65279 0 0 65279 0 0 65279 0 0 65279 0 0 65279 0 0 65279 0 0 65279 0 0 65279 0 0 65279 0 0 65279 0 0 65279 0 0 65279 0 0 65279 0 0 65279 0 0 65279 0 0 65279 0 0 65279 0 0 65279 0 0 65279 0 0 65279 0 0 65279 0 0 65279 0 0 65279 0 0 65279 0 0 65279 0 0 65279 0 0 65279 0 0 65279 0 0 65279 0 0 65279 0 0 65279 0 0 65279 0 0 65279 0 0 65279 0 0 65279 0 0 65279 0 0 65279 0 0 65279 0 0 65279 0 0 65279 0 0 65279 0 0 65279 0 0 65279 0 0 65279 0 0 65279 0 0 65279 0 0 65279 0 0 65279 0 0 65279 0 0 65279 0 0 65279 0 0 65279 0 0 65279 0 0 65279 0 0 65279 0 0 65279 0 0 65279 0 0 65279 0 0 65279 0 0 65279 0 0 65279 0 0 65279 0 0 65279 0 0 65279 0 0 65279 0 0 65279 0 0 65279 0 0 65279 0 0 65279 0 0 65279 0 0 65279 0 0 65279 0 0 65279 0 0 65279 0 0 65279 0 0 65279 0 0 65279 0 0 65279 0 0 65279 0 0 65279 0 0 65279 0 0 65279 0 0 65279 0 0 65279 0 0 65279 0 0 65279 0 0 65279 0 0 65279 0 0 65279 0 0 65279 0 0 65279 0 0 65279 0 0 65279 0 0 65279 0 0 65279 0 0 65279 0 0 65279 0 0 65279 0 0 65279 0 0 65279 0 0 65279 0 0 65279 0 0 65279 0 0 65279 0 0 65279 0 0 65279 0 0 65279 0 0 65279 0 0 65279 0 0 65279 0 0 65279 0 0 65279 0 0 65279 0 0 65279 0 0 65279 0 0 65279 0 0 65279 0 0 65279 0 0 65279 0 0 65279 0 0 65279 0 0 65279 0 0 65279 0 0 65279 0 0 65279 0 0 65279 0 0 65279 0 0 65279 0 0 65279 0 0 65279 0 0 65279 0 0 65279 0 0 65279 0 0 65279 0 0 65279 0 0 65279 0 0 65279 0 0 65279 0 0 65279 0 0 65279 0 0 65279 0 0 65279 0 0 65279 0 0 65279 0 0 65279 0 0 65279 0 0 65279 0 0 65279 0 0 65279 0 0 65279 0 0 65279 0 0 65279 0 0 65279 0 0 65279 0 0 65279 0 0 65279 0 0 65279 0 0 65279 0 0 65279 0 0 65279 0 0 65279 0 0 65279 0 0 65279 0 0 65279 0 0 65279 0 0 65279 0 0 65279 0 0 65279 0 0 65279 0 0 65279 0 0 65279 0 0 65279 0 0 65279 0 0 65279 0 0 65279 0 0 65279 0 0 65279 0 0 65279 0 0 65279 0 0 65279 0 0 65279 0 0 65279 0 0 65279 0 0 65279 0 0 65279 0 0 65279 0 0 65279 0 0 65279 0 0 65279 0 0 65279 0 0 65279 0 0 65279 0 0 65279 0 0 65279 0 0 65279 0 0 65279 0 0 65279 0 0 65279 0 0 65279 0 0 65279 0 0 65279 0 0 65279 0 0 65279 0 0 65279 0 0 65279 0 0 65279 0 0 65279 0 0 65279 0 0 65279 0 0 65279 0 0 65279 0 0 65279 0 0 65279 0 0 65279 0 0 65279 0 0 65279 0 0 65279 0 0 65279 0 0 65279 0 0 65279 0 0 65279 0 0 65279 0 0 65279 0 0 65279 0 0 65279 0 0 65279 0 0 65279 0 0 65279 0 0 65279 0 0 65279 0 0 65279 0 0 65279 0 0 65279 0 0 65279 0 0 65279 0 0 65279 0 0 65279 0 0 65279 0 0 65279 0 0 65279 0 0 65279 0 0 65279 0 0 65279 0 0 65279 0 0 65279 0 0 65279 0 0 65279 0 0 65279 0 0 65279 0 0 65279 0 0 65279 0 0 65279 0 0 65279 0 0 65279 0 0 65279 0 0 65279 0 0 65279 0 0 65279 0 0 65279 0 0 65279 0 0 65279 0 0 65279 0 0 65279 0 0 65279 0 0 65279 0 0 65279 0 0 65279 0 0 65279 0 0 65279 0 0 65279 0 0 65279 0 0 65279 0 0 65279 0 0 65279 0 0 65279 0 0 65279 0 0 65279 0 0 65279 0 0 65279 0 0 65279 0 0 65279 0 0 65279 0 0 65279 0 0 65279 0 0 65279 0 0 65279 0 0 65279 0 0 65279 0 0 65279 0 0 65279 0 0 65279 0 0 65279 0 0 65279 0 0 65279 0 0 65279 0 0 65279 0 0 65279 0 0 65279 0 0 65279 0 0 65279 0 0 65279 0 0 65279 0 0 65279 0 0 65279 0 0 65279 0 0 65279 0 0 65279 0 0 65279 0 0 65279 0 0 65279 0 0 65279 0 0 65279 0 0 65279 0 0 65279 0 0 65279 0 0 65279 0 0 65279 0 0 65279 0 0 65279 0 0 65279 0 0 65279 0 0 65279 0 0 65279 0 0 65279 0 0 65279 0 0 65279 0 0 65279 0 0 65279 0 0 65279 0 0 65279 0 0 65279 0 0 65279 0 0 65279 0 0 65279 0 0 65279 0 0 65279 0 0 65279 0 0 65279 0 0 65279 0 0 65279 0 0 65279 0 0 65279 0 0 65279 0 0 65279 0 0 65279 0 0 65279 0 0 65279 0 0 65279 0 0 65279 0 0 65279 0 0 65279 0 0 65279 0 0 65279 0 0 65279 0 0 65279 0 0 65279 0 0 65279 0 0 65279 0 0 65279 0 0 65279 0 0 65279 0 0 65279 0 0 65279 0 0 65279 0 0 65279 0 0 65279 0 0 65279 0 0 65279 0 0 65279 0 0 65279 0 0 65279 0 0 65279 0 0 65279 0 0 65279 0 0 65279 0 0 65279 0 0 65279 0 0 65279 0 0 65279 0 0 65279 0 0 65279 0 0 65279 0 0 65279 0 0 65279 0 0 65279 0 0 65279 0 0 65279 0 0 65279 0 0 65279 0 0 65279 0 0 65279 0 0 65279 0 0 65279 0 0 65279 0 0 65279 0 0 65279 0 0 65279 0 0 65279 0 0 65279 0 0 65279 0 0 65279 0 0 65279 0 0 65279 0 0 65279 0 0 65279 0 0 65279 0 0 65279 0 0 65279 0 0 65279 0 0 65279 0 0 65279 0 0 65279 0 0 65279 0 0 65279 0 0 65279 0 0 65279 0 0 65279 0 0 65279 0 0 65279 0 0 65279 0 0 65279 0 0 65279 0 0 65279 0 0 65279 0 0 65279 0 0 65279 0 0 65279 0 0 65279 0 0 65279 0 0 65279 0 0 65279 0 0 65279 0 0 65279 0 0 65279 0 0 65279 0 0 65279 0 0 65279 0 0 65279 0 0 65279 0 0 65279 0 0 65279 0 0 65279 0 0 65279 0 0 65279 0 0 65279 0 0 65279 0 0 65279 0 0 65279 0 0 65279 0 0 65279 0 0 65279 0 0 65279 0 0 65279 0 0 65279 0 0 65279 0 0 65279 0 0 65279 0 0 65279 0 0 65279 0 0 65279 0 0 65279 0 0 65279 0 0 65279 0 0 65279 0 0 65279 0 0 65279 0 0 65279 0 0 65279 0 0 65279 0 0 65279 0 0 65279 0 0 65279 0 0 65279 0 0 65279 0 0 65279 0 0 65279 0 0 65279 0 0 65279 0 0 65279 0 0 65279 0 0 65279 0 0 65279 0 0 65279 0 0 65279 0 0 65279 0 0 65279 0 0 65279 0 0 65279 0 0 65279 0 0 65279 0 0 65279 0 0 65279 0 0 65279 0 0 65279 0 0 65279 0 0 65279 0 0 65279 0 0 65279 0 0 65279 0 0 65279 0 0 65279 0 0 65279 0 0 65279 0 0 65279 0 0 65279 0 0 65279 0 0 65279 0 0 65279 0 0 65279 0 0 65279 0 0 65279 0 0 65279 0 0 65279 0 0 65279 0 0 65279 0 0 65279 0 0 65279 0 0 65279 0 0 65279 0 0 65279 0 0 65279 0 0 65279 0 0 65279 0 0 65279 0 0 65279 0 0 65279 0 0 65279 0 0 65279 0 0 65279 0 0 65279 0 0 65279 0 0 65279 0 0 65279 0 0 65279 0 0 65279 0 0 65279 0 0 65279 0 0 65279 0 0 65279 0 0 65279 0 0 65279 0 0 65279 0 0 65279 0 0 65279 0 0 65279 0 0 65279 0 0 65279 0 0 65279 0 0 65279 0 0 65279 0 0 65279 0 0 65279 0 0 65279 0 0 65279 0 0 65279 0 0 65279 0 0 65279 0 0 65279 0 0 65279 0 0 65279 0 0 65279 0 0 65279 0 0 65279 0 0 65279 0 0 65279 0 0 65279 0 0 65279 0 0 65279 0 0 65279 0 0 65279 0 0 65279 0 0 65279 0 0 65279 0 0 65279 0 0 65279 0 0 65279 0 0 65279 0 0 65279 0 0 65279 0 0 65279 0 0 65279 0 0 65279 0 0 65279 0 0 65279 0 0 65279 0 0 65279 0 0 65279 0 0 65279 0 0 65279 0 0 65279 0 0 65279 0 0 65279 0 0 65279 0 0 65279 0 0 65279 0 0 65279 0 0 65279 0 0 65279 0 0 65279 0 0 65279 0 0 65279 0 0 65279 0 0 65279 0 0 65279 0 0 65279 0 0 65279 0 0 65279 0 0 65279 0 0 65279 0 0 65279 0 0 65279 0 0 65279 0 0 65279 0 0 65279 0 0 65279 0 0 65279 0 0 65279 0 0 65279 0 0 65279 0 0 65279 0 0 65279 0 0 65279 0 0 65279 0 0 65279 0 0 65279 0 0 65279 0 0 65279 0 0 65279 0 0 65279 0 0 65279 0 0 65279 0 0 65279 0 0 65279 0 0 65279 0 0 65279 0 0 65279 0 0 65279 0 0 65279 0 0 65279 0 0 65279 0 0 65279 0 0 65279 0 0 65279 0 0 65279 0 0 65279 0 0 65279 0 0 65279 0 0 65279 0 0 65279 0 0 65279 0 0 65279 0 0 65279 0 0 65279 0 0 65279 0 0 65279 0 0 65279 0 0 65279 0 0 65279 0 0 65279 0 0 65279 0 0 65279 0 0 65279 0 0 65279 0 0 65279 0 0 65279 0 0 65279 0 0 65279 0 0 65279 0 0 65279 0 0 65279 0 0 65279 0 0 65279 0 0 65279 0 0 65279 0 0 65279 0 0 65279 0 0 65279 0 0 65279 0 0 65279 0 0 65279 0 0 65279 0 0 65279 0 0 65279 0 0 65279 0 0 65279 0 0 65279 0 0 65279 0 0 65279 0 0 65279 0 0 65279 0 0 65279 0 0 65279 0 0 65279 0 0 65279 0 0 65279 0 0 65279 0 0 65279 0 0 65279 0 0 65279 0 0 65279 0 0 65279 0 0 65279 0 0 65279 0 0 65279 0 0 65279 0 0 65279 0 0 65279 0 0 65279 0 0 65279 0 0 65279 0 0 65279 0 0 65279 0 0 65279 0 0 65279 0 0 65279 0 0 65279 0 0 65279 0 0 65279 0 0 65279 0 0 65279 0 0 65279 0 0 65279 0 0 65279 0 0 65279 0 0 65279 0 0 65279 0 0 65279 0 0 65279 0 0 65279 0 0 65279 0 0 65279 0 0 65279 0 0 65279 0 0 65279 0 0 65279 0 0 65279 0 0 65279 0 0 65279 0 0 65279 0 0 65279 0 0 65279 0 0 65279 0 0 65279 0 0 65279 0 0 65279 0 0 65279 0 0 65279 0 0 65279 0 0 65279 0 0 65279 0 0 65279 0 0 65279 0 0 65279 0 0 65279 0 0 65279 0 0 65279 0 0 65279 0 0 65279 0 0 65279 0 0 65279 0 0 65279 0 0 65279 0 0 65279 0 0 65279 0 0 65279 0 0 65279 0 0 65279 0 0 65279 0 0 65279 0 0 65279 0 0 65279 0 0 65279 0 0 65279 0 0 65279 0 0 65279 0 0 65279 0 0 65279 0 0 65279 0 0 65279 0 0 65279 0 0 65279 0 0 65279 0 0 65279 0 0 65279 0 0 65279 0 0 65279 0 0 65279 0 0 65279 0 0 65279 0 0 65279 0 0 65279 0 0 65279 0 0 65279 0 0 65279 0 0 65279 0 0 65279 0 0 65279 0 0 65279 0 0 65279 0 0 65279 0 0 65279 0 0 65279 0 0 65279 0 0 65279 0 0 65279 0 0 65279 0 0 65279 0 0 65279 0 0 65279 0 0 65279 0 0 65279 0 0 65279 0 0 65279 0 0 65279 0 0 65279 0 0 65279 0 0 65279 0 0 65279 0 0 65279 0 0 65279 0 0 65279 0 0 65279 0 0 65279 0 0 65279 0 0 65279 0 0 65279 0 0 65279 0 0 65279 0 0 65279 0 0 65279 0 0 65279 0 0 65279 0 0 65279 0 0 65279 0 0 65279 0 0 65279 0 0 65279 0 0 65279 0 0 65279 0 0 65279 0 0 65279 0 0 65279 0 0 65279 0 0 65279 0 0 65279 0 0 65279 0 0 65279 0 0 65279 0 0 65279 0 0 65279 0 0 65279 0 0 65279 0 0 65279 0 0 65279 0 0 65279 0 0 65279 0 0 65279 0 0 65279 0 0 65279 0 0 65279 0 0 65279 0 0 65279 0 0 65279 0 0 65279 0 0 65279 0 0 65279 0 0 65279 0 0 65279 0 0 65279 0 0 65279 0 0 65279 0 0 65279 0 0 65279 0 0 65279 0 0 65279 0 0 65279 0 0 65279 0 0 65279 0 0 65279 0 0 65279 0 0 65279 0 0 65279 0 0 65279 0 0 65279 0 0 65279 0 0 65279 0 0 65279 0 0 65279 0 0 65279 0 0 65279 0 0 65279 0 0 65279 0 0 65279 0 0 65279 0 0 65279 0 0 65279 0 0 65279 0 0 65279 0 0 65279 0 0 65279 0 0 65279 0 0 65279 0 0 65279 0 0 65279 0 0 65279 0 0 65279 0 0 65279 0 0 65279 0 0 65279 0 0 65279 0 0 65279 0 0 65279 0 0 65279 0 0 65279 0 0 65279 0 0 65279 0 0 65279 0 0 65279 0 0 65279 0 0 65279 0 0 65279 0 0 65279 0 0 65279 0 0 65279 0 0 65279 0 0 65279 0 0 65279 0 0 65279 0 0 65279 0 0 65279 0 0 65279 0 0 65279 0 0 65279 0 0 65279 0 0 65279 0 0 65279 0 0 65279 0 0 65279 0 0 65279 0 0 65279 0 0 65279 0 0 65279 0 0 65279 0 0 65279 0 0 65279 0 0 65279 0 0 65279 0 0 65279 0 0 65279 0 0 65279 0 0 65279 0 0 65279 0 0 65279 0 0 65279 0 0 65279 0 0 65279 0 0 65279 0 0 65279 0 0 65279 0 0 65279 0 0 65279 0 0 65279 0 0 65279 0 0 65279 0 0 65279 0 0 65279 0 0 65279 0 0 65279 0 0 65279 0 0 65279 0 0 65279 0 0 65279 0 0 65279 0 0 65279 0 0 65279 0 0 65279 0 0 65279 0 0 65279 0 0 65279 0 0 65279 0 0 65279 0 0 65279 0 0 65279 0 0 65279 0 0 65279 0 0 65279 0 0 65279 0 0 65279 0 0 65279 0 0 65279 0 0 65279 0 0 65279 0 0 65279 0 0 65279 0 0 65279 0 0 65279 0 0 65279 0 0 65279 0 0 65279 0 0 65279 0 0 65279 0 0 65279 0 0 65279 0 0 65279 0 0 65279 0 0 65279 0 0 65279 0 0 65279 0 0 65279 0 0 65279 0 0 65279 0 0 65279 0 0 65279 0 0 65279 0 0 65279 0 0 65279 0 0 65279 0 0 65279 0 0 65279 0 0 65279 0 0 65279 0 0 65279 0 0 65279 0 0 65279 0 0 65279 0 0 65279 0 0 65279 0 0 65279 0 0 65279 0 0 65279 0 0 65279 0 0 65279 0 0 65279 0 0 65279 0 0 65279 0 0 65279 0 0 65279 0 0 65279 0 0 65279 0 0 65279 0 0 65279 0 0 65279 0 0 65279 0 0 65279 0 0 65279 0 0 65279 0 0 65279 0 0 65279 0 0 65279 0 0 65279 0 0 65279 0 0 65279 0 0 65279 0 0 65279 0 0 65279 0 0 65279 0 0 65279 0 0 65279 0 0 65279 0 0 65279 0 0 65279 0 0 65279 0 0 65279 0 0 65279 0 0 65279 0 0 65279 0 0 65279 0 0 65279 0 0 65279 0 0 65279 0 0 65279 0 0 65279 0 0 65279 0 0 65279 0 0 65279 0 0 65279 0 0 65279 0 0 65279 0 0 65279 0 0 65279 0 0 65279 0 0 65279 0 0 65279 0 0 65279 0 0 65279 0 0 65279 0 0 65279 0 0 65279 0 0 65279 0 0 65279 0 0 65279 0 0 65279 0 0 65279 0 0 65279 0 0 65279 0 0 65279 0 0 65279 0 0 65279 0 0 65279 0 0 65279 0 0 65279 0 0 65279 0 0 65279 0 0 65279 0 0 65279 0 0 65279 0 0 65279 0 0 65279 0 0 65279 0 0 65279 0 0 65279 0 0 65279 0 0 65279 0 0 65279 0 0 65279 0 0 65279 0 0 65279 0 0 65279 0 0 65279 0 0 65279 0 0 65279 0 0 65279 0 0 65279 0 0 65279 0 0 65279 0 0 65279 0 0 65279 0 0 65279 0 0 65279 0 0 65279 0 0 65279 0 0 65279 0 0 65279 0 0 65279 0 0 65279 0 0 65279 0 0 65279 0 0 65279 0 0 65279 0 0 65279 0 0 65279 0 0 65279 0 0 65279 0 0 65279 0 0 65279 0 0 65279 0 0 65279 0 0 65279 0 0 65279 0 0 65279 0 0 65279 0 0 65279 0 0 65279 0 0 65279 0 0 65279 0 0 65279 0 0 65279 0 0 65279 0 0 65279 0 0 65279 0 0 65279 0 0 65279 0 0 65279 0 0 65279 0 0 65279 0 0 65279 0 0 65279 0 0 65279 0 0 65279 0 0 65279 0 0 65279 0 0 65279 0 0 65279 0 0 65279 0 0 65279 0 0 65279 0 0 65279 0 0 65279 0 0 65279 0 0 65279 0 0 65279 0 0 65279 0 0 65279 0 0 65279 0 0 65279 0 0 65279 0 0 65279 0 0 65279 0 0 65279 0 0 65279 0 0 65279 0 0 65279 0 0 65279 0 0 65279 0 0 65279 0 0 65279 0 0 65279 0 0 65279 0 0 65279 0 0 65279 0 0 65279 0 0 65279 0 0 65279 0 0 65279 0 0 65279 0 0 65279 0 0 65279 0 0 65279 0 0 65279 0 0 65279 0 0 65279 0 0 65279 0 0 65279 0 0 65279 0 0 65279 0 0 65279 0 0 65279 0 0 65279 0 0 65279 0 0 65279 0 0 65279 0 0 65279 0 0 65279 0 0 65279 0 0 65279 0 0 65279 0 0 65279 0 0 65279 0 0 65279 0 0 65279 0 0 65279 0 0 65279 0 0 65279 0 0 65279 0 0 65279 0 0 65279 0 0 65279 0 0 65279 0 0 65279 0 0 65279 0 0 65279 0 0 65279 0 0 65279 0 0 65279 0 0 65279 0 0 65279 0 0 65279 0 0 65279 0 0 65279 0 0 65279 0 0 65279 0 0 65279 0 0 65279 0 0 65279 0 0 65279 0 0 65279 0 0 65279 0 0 65279 0 0 65279 0 0 65279 0 0 65279 0 0 65279 0 0 65279 0 0 65279 0 0 65279 0 0 65279 0 0 65279 0 0 65279 0 0 65279 0 0 65279 0 0 65279 0 0 65279 0 0 65279 0 0 65279 0 0 65279 0 0 65279 0 0 65279 0 0 65279 0 0 65279 0 0 65279 0 0 65279 0 0 65279 0 0 65279 0 0 65279 0 0 65279 0 0 65279 0 0 65279 0 0 65279 0 0 65279 0 0 65279 0 0 65279 0 0 65279 0 0 65279 0 0 65279 0 0 65279 0 0 65279 0 0 65279 0 0 65279 0 0 65279 0 0 65279 0 0 65279 0 0 65279 0 0 65279 0 0 65279 0 0 65279 0 0 65279 0 0 65279 0 0 65279 0 0 65279 0 0 65279 0 0 65279 0 0 65279 0 0 65279 0 0 65279 0 0 65279 0 0 65279 0 0 65279 0 0 65279 0 0 65279 0 0 65279 0 0 65279 0 0 65279 0 0 65279 0 0 65279 0 0 65279 0 0 65279 0 0 65279 0 0 65279 0 0 65279 0 0 65279 0 0 65279 0 0 65279 0 0 65279 0 0 65279 0 0 65279 0 0 65279 0 0 65279 0 0 65279 0 0 65279 0 0 65279 0 0 65279 0 0 65279 0 0 65279 0 0 65279 0 0 65279 0 0 65279 0 0 65279 0 0 65279 0 0 65279 0 0 65279 0 0 65279 0 0 65279 0 0 65279 0 0 65279 0 0 65279 0 0 65279 0 0 65279 0 0 65279 0 0 65279 0 0 65279 0 0 65279 0 0 65279 0 0 65279 0 0 65279 0 0 65279 0 0 65279 0 0 65279 0 0 65279 0 0 65279 0 0 65279 0 0 65279 0 0 65279 0 0 65279 0 0 65279 0 0 65279 0 0 65279 0 0 65279 0 0 65279 0 0 65279 0 0 65279 0 0 65279 0 0 65279 0 0 65279 0 0 65279 0 0 65279 0 0 65279 0 0 65279 0 0 65279 0 0 65279 0 0 65279 0 0 65279 0 0 65279 0 0 65279 0 0 65279 0 0 65279 0 0 65279 0 0 65279 0 0 65279 0 0 65279 0 0 65279 0 0 65279 0 0 65279 0 0 65279 0 0 65279 0 0 65279 0 0 65279 0 0 65279 0 0 65279 0 0 65279 0 0 65279 0 0 65279 0 0 65279 0 0 65279 0 0 65279 0 0 65279 0 0 65279 0 0 65279 0 0 65279 0 0 65279 0 0 65279 0 0 65279 0 0 65279 0 0 65279 0 0 65279 0 0 65279 0 0 65279 0 0 65279 0 0 65279 0 0 65279 0 0 65279 0 0 65279 0 0 65279 0 0 65279 0 0 65279 0 0 65279 0 0 65279 0 0 65279 0 0 65279 0 0 65279 0 0 65279 0 0 65279 0 0 65279 0 0 65279 0 0 65279 0 0 65279 0 0 65279 0 0 65279 0 0 65279 0 0 65279 0 0 65279 0 0 65279 0 0 65279 0 0 65279 0 0 65279 0 0 65279 0 0 65279 0 0 65279 0 0 65279 0 0 65279 0 0 65279 0 0 65279 0 0 65279 0 0 65279 0 0 65279 0 0 65279 0 0 65279 0 0 65279 0 0 65279 0 0 65279 0 0 65279 0 0 65279 0 0 65279 0 0 65279 0 0 65279 0 0 65279 0 0 65279 0 0 65279 0 0 65279 0 0 65279 0 0 65279 0 0 65279 0 0 65279 0 0 65279 0 0 65279 0 0 65279 0 0 65279 0 0 65279 0 0 65279 0 0 65279 0 0 65279 0 0 65279 0 0 65279 0 0 65279 0 0 65279 0 0 65279 0 0 65279 0 0 65279 0 0 65279 0 0 65279 0 0 65279 0 0 65279 0 0 65279 0 0 65279 0 0 65279 0 0 65279 0 0 65279 0 0 65279 0 0 65279 0 0 65279 0 0 65279 0 0 65279 0 0 65279 0 0 65279 0 0 65279 0 0 65279 0 0 65279 0 0 65279 0 0 65279 0 0 65279 0 0 65279 0 0 65279 0 0 65279 0 0 65279 0 0 65279 0 0 65279 0 0 65279 0 0 65279 0 0 65279 0 0 65279 0 0 65279 0 0 65279 0 0 65279 0 0 65279 0 0 65279 0 0 65279 0 0 65279 0 0 65279 0 0 65279 0 0 65279 0 0 65279 0 0 65279 0 0 65279 0 0 65279 0 0 65279 0 0 65279 0 0 65279 0 0 65279 0 0 65279 0 0 65279 0 0 65279 0 0 65279 0 0 65279 0 0 65279 0 0 65279 0 0 65279 0 0 65279 0 0 65279 0 0 65279 0 0 65279 0 0 65279 0 0 65279 0 0 65279 0 0 65279 0 0 65279 0 0 65279 0 0 65279 0 0 65279 0 0 65279 0 0 65279 0 0 65279 0 0 65279 0 0 65279 0 0 65279 0 0 65279 0 0 65279 0 0 65279 0 0 65279 0 0 65279 0 0 65279 0 0 65279 0 0 65279 0 0 65279 0 0 65279 0 0 65279 0 0 65279 0 0 65279 0 0 65279 0 0 65279 0 0 65279 0 0 65279 0 0 65279 0 0 65279 0 0 65279 0 0 65279 0 0 65279 0 0 65279 0 0 65279 0 0 65279 0 0 65279 0 0 65279 0 0 65279 0 0 65279 0 0 65279 0 0 65279 0 0 65279 0 0 65279 0 0 65279 0 0 65279 0 0 65279 0 0 65279 0 0 65279 0 0 65279 0 0 65279 0 0 65279 0 0 65279 0 0 65279 0 0 65279 0 0 65279 0 0 65279 0 0 65279 0 0 65279 0 0 65279 0 0 65279 0 0 65279 0 0 65279 0 0 65279 0 0 65279 0 0 65279 0 0 65279 0 0 65279 0 0 65279 0 0 65279 0 0 65279 0 0 65279 0 0 65279 0 0 65279 0 0 65279 0 0 65279 0 0 65279 0 0 65279 0 0 65279 0 0 65279 0 0 65279 0 0 65279 0 0 65279 0 0 65279 0 0 65279 0 0 65279 0 0 65279 0 0 65279 0 0 65279 0 0 65279 0 0 65279 0 0 65279 0 0 65279 0 0 65279 0 0 65279 0 0 65279 0 0 65279 0 0 65279 0 0 65279 0 0 65279 0 0 65279 0 0 65279 0 0 65279 0 0 65279 0 0 65279 0 0 65279 0 0 65279 0 0 65279 0 0 65279 0 0 65279 0 0 65279 0 0 65279 0 0 65279 0 0 65279 0 0 65279 0 0 65279 0 0 65279 0 0 65279 0 0 65279 0 0 65279 0 0 65279 0 0 65279 0 0 65279 0 0 65279 0 0 65279 0 0 65279 0 0 65279 0 0 65279 0 0 65279 0 0 65279 0 0 65279 0 0 65279 0 0 65279 0 0 65279 0 0 65279 0 0 65279 0 0 65279 0 0 65279 0 0 65279 0 0 65279 0 0 65279 0 0 65279 0 0 65279 0 0 65279 0 0 65279 0 0 65279 0 0 65279 0 0 65279 0 0 65279 0 0 65279 0 0 65279 0 0 65279 0 0 65279 0 0 65279 0 0 65279 0 0 65279 0 0 65279 0 0 65279 0 0 65279 0 0 65279 0 0 65279 0 0 65279 0 0 65279 0 0 65279 0 0 65279 0 0 65279 0 0 65279 0 0 65279 0 0 65279 0 0 65279 0 0 65279 0 0 65279 0 0 65279 0 0 65279 0 0 65279 0 0 65279 0 0 65279 0 0 65279 0 0 65279 0 0 65279 0 0 65279 0 0 65279 0 0 65279 0 0 65279 0 0 65279 0 0 65279 0 0 65279 0 0 65279 0 0 65279 0 0 65279 0 0 65279 0 0 65279 0 0 65279 0 0 65279 0 0 65279 0 0 65279 0 0 65279 0 0 65279 0 0 65279 0 0 65279 0 0 65279 0 0 65279 0 0 65279 0 0 65279 0 0 65279 0 0 65279 0 0 65279 0 0 65279 0 0 65279 0 0 65279 0 0 65279 0 0 65279 0 0 65279 0 0 65279 0 0 65279 0 0 65279 0 0 65279 0 0 65279 0 0 65279 0 0 65279 0 0 65279 0 0 65279 0 0 65279 0 0 65279 0 0 65279 0 0 65279 0 0 65279 0 0 65279 0 0 65279 0 0 65279 0 0 65279 0 0 65279 0 0 65279 0 0 65279 0 0 65279 0 0 65279 0 0 65279 0 0 65279 0 0 65279 0 0 65279 0 0 65279 0 0 65279 0 0 65279 0 0 65279 0 0 65279 0 0 65279 0 0 65279 0 0 65279 0 0 65279 0 0 65279 0 0 65279 0 0 65279 0 0 65279 0 0 65279 0 0 65279 0 0 65279 0 0 65279 0 0 65279 0 0 65279 0 0 65279 0 0 65279 0 0 65279 0 0 65279 0 0 65279 0 0 65279 0 0 65279 0 0 65279 0 0 65279 0 0 65279 0 0 65279 0 0 65279 0 0 65279 0 0 65279 0 0 65279 0 0 65279 0 0 65279 0 0 65279 0 0 65279 0 0 65279 0 0 65279 0 0 65279 0 0 65279 0 0 65279 0 0 65279 0 0 65279 0 0 65279 0 0 65279 0 0 65279 0 0 65279 0 0 65279 0 0 65279 0 0 65279 0 0 65279 0 0 65279 0 0 65279 0 0 65279 0 0 65279 0 0 65279 0 0 65279 0 0 65279 0 0 65279 0 0 65279 0 0 65279 0 0 65279 0 0 65279 0 0 65279 0 0 65279 0 0 65279 0 0 65279 0 0 65279 0 0 65279 0 0 65279 0 0 65279 0 0 65279 0 0 65279 0 0 65279 0 0 65279 0 0 65279 0 0 65279 0 0 65279 0 0 65279 0 0 65279 0 0 65279 0 0 65279 0 0 65279 0 0 65279 0 0 65279 0 0 65279 0 0 65279 0 0 65279 0 0 65279 0 0 65279 0 0 65279 0 0 65279 0 0 65279 0 0 65279 0 0 65279 0 0 65279 0 0 65279 0 0 65279 0 0 65279 0 0 65279 0 0 65279 0 0 65279 0 0 65279 0 0 65279 0 0 65279 0 0 65279 0 0 65279 0 0 65279 0 0 65279 0 0 65279 0 0 65279 0 0 65279 0 0 65279 0 0 65279 0 0 65279 0 0 65279 0 0 65279 0 0 65279 0 0 65279 0 0 65279 0 0 65279 0 0 65279 0 0 65279 0 0 65279 0 0 65279 0 0 65279 0 0 65279 0 0 65279 0 0 65279 0 0 65279 0 0 65279 0 0 65279 0 0 65279 0 0 65279 0 0 65279 0 0 65279 0 0 65279 0 0 65279 0 0 65279 0 0 65279 0 0 65279 0 0 65279 0 0 65279 0 0 65279 0 0 65279 0 0 65279 0 0 65279 0 0 65279 0 0 65279 0 0 65279 0 0 65279 0 0 65279 0 0 65279 0 0 65279 0 0 65279 0 0 65279 0 0 65279 0 0 65279 0 0 65279 0 0 65279 0 0 65279 0 0 65279 0 0 65279 0 0 65279 0 0 65279 0 0 65279 0 0 65279 0 0 65279 0 0 65279 0 0 65279 0 0 65279 0 0 65279 0 0 65279 0 0 65279 0 0 65279 0 0 65279 0 0 65279 0 0 65279 0 0 65279 0 0 65279 0 0 65279 0 0 65279 0 0 65279 0 0 65279 0 0 65279 0 0 65279 0 0 65279 0 0 65279 0 0 65279 0 0 65279 0 0 65279 0 0 65279 0 0 65279 0 0 65279 0 0 65279 0 0 65279 0 0 65279 0 0 65279 0 0 65279 0 0 65279 0 0 65279 0 0 65279 0 0 65279 0 0 65279 0 0 65279 0 0 65279 0 0 65279 0 0 65279 0 0 65279 0 0 65279 0 0 65279 0 0 65279 0 0 65279 0 0 65279 0 0 65279 0 0 65279 0 0 65279 0 0 65279 0 0 65279 0 0 65279 0 0 65279 0 0 65279 0 0 65279 0 0 65279 0 0 65279 0 0 65279 0 0 65279 0 0 65279 0 0 65279 0 0 65279 0 0 65279 0 0 65279 0 0 65279 0 0 65279 0 0 65279 0 0 65279 0 0 65279 0 0 65279 0 0 65279 0 0 65279 0 0 65279 0 0 65279 0 0 65279 0 0 65279 0 0 65279 0 0 65279 0 0 65279 0 0 65279 0 0 65279 0 0 65279 0 0 65279 0 0 65279 0 0 65279 0 0 65279 0 0 65279 0 0 65279 0 0 65279 0 0 65279 0 0 65279 0 0 65279 0 0 65279 0 0 65279 0 0 65279 0 0 65279 0 0 65279 0 0 65279 0 0 65279 0 0 65279 0 0 65279 0 0 65279 0 0 65279 0 0 65279 0 0 65279 0 0 65279 0 0 65279 0 0 65279 0 0 65279 0 0 65279 0 0 65279 0 0 65279 0 0 65279 0 0 65279 0 0 65279 0 0 65279 0 0 65279 0 0 65279 0 0 65279 0 0 65279 0 0 65279 0 0 65279 0 0 65279 0 0 65279 0 0 65279 0 0 65279 0 0 65279 0 0 65279 0 0 65279 0 0 65279 0 0 65279 0 0 65279 0 0 65279 0 0 65279 0 0 65279 0 0 65279 0 0 65279 0 0 65279 0 0 65279 0 0 65279 0 0 65279 0 0 65279 0 0 65279 0 0 65279 0 0 65279 0 0 65279 0 0 65279 0 0 65279 0 0 65279 0 0 65279 0 0 65279 0 0 65279 0 0 65279 0 0 65279 0 0 65279 0 0 65279 0 0 65279 0 0 65279 0 0 65279 0 0 65279 0 0 65279 0 0 65279 0 0 65279 0 0 65279 0 0 65279 0 0 65279 0 0 65279 0 0 65279 0 0 65279 0 0 65279 0 0 65279 0 0 65279 0 0 65279 0 0 65279 0 0 65279 0 0 65279 0 0 65279 0 0 65279 0 0 65279 0 0 65279 0 0 65279 0 0 65279 0 0 65279 0 0 65279 0 0 65279 0 0 65279 0 0 65279 0 0 65279 0 0 65279 0 0 65279 0 0 65279 0 0 65279 0 0 65279 0 0 65279 0 0 65279 0 0 65279 0 0 65279 0 0 65279 0 0 65279 0 0 65279 0 0 65279 0 0 65279 0 0 65279 0 0 65279 0 0 65279 0 0 65279 0 0 65279 0 0 65279 0 0 65279 0 0 65279 0 0 65279 0 0 65279 0 0 65279 0 0 65279 0 0 65279 0 0 65279 0 0 65279 0 0 65279 0 0 65279 0 0 65279 0 0 65279 0 0 65279 0 0 65279 0 0 65279 0 0 65279 0 0 65279 0 0 65279 0 0 65279 0 0 65279 0 0 65279 0 0 65279 0 0 65279 0 0 65279 0 0 65279 0 0 65279 0 0 65279 0 0 65279 0 0 65279 0 0 65279 0 0 65279 0 0 65279 0 0 65279 0 0 65279 0 0 65279 0 0 65279 0 0 65279 0 0 65279 0 0 65279 0 0 65279 0 0 65279 0 0 65279 0 0 65279 0 0 65279 0 0 65279 0 0 65279 0 0 65279 0 0 65279 0 0 65279 0 0 65279 0 0 65279 0 0 65279 0 0 65279 0 0 65279 0 0 65279 0 0 65279 0 0 65279 0 0 65279 0 0 65279 0 0 65279 0 0 65279 0 0 65279 0 0 65279 0 0 65279 0 0 65279 0 0 65279 0 0 65279 0 0 65279 0 0 65279 0 0 65279 0 0 65279 0 0 65279 0 0 65279 0 0 65279 0 0 65279 0 0 65279 0 0 65279 0 0 65279 0 0 65279 0 0 65279 0 0 65279 0 0 65279 0 0 65279 0 0 65279 0 0 65279 0 0 65279 0 0 65279 0 0 65279 0 0 65279 0 0 65279 0 0 65279 0 0 65279 0 0 65279 0 0 65279 0 0 65279 0 0 65279 0 0 65279 0 0 65279 0 0 65279 0 0 65279 0 0 65279 0 0 65279 0 0 65279 0 0 65279 0 0 65279 0 0 65279 0 0 65279 0 0 65279 0 0 65279 0 0 65279 0 0 65279 0 0 65279 0 0 65279 0 0 65279 0 0 65279 0 0 65279 0 0 65279 0 0 65279 0 0 65279 0 0 65279 0 0 65279 0 0 65279 0 0 65279 0 0 65279 0 0 65279 0 0 65279 0 0 65279 0 0 65279 0 0 65279 0 0 65279 0 0 65279 0 0 65279 0 0 65279 0 0 65279 0 0 65279 0 0 65279 0 0 65279 0 0 65279 0 0 65279 0 0 65279 0 0 65279 0 0 65279 0 0 65279 0 0 65279 0 0 65279 0 0 65279 0 0 65279 0 0 65279 0 0 65279 0 0 65279 0 0 65279 0 0 65279 0 0 65279 0 0 65279 0 0 65279 0 0 65279 0 0 65279 0 0 65279 0 0 65279 0 0 65279 0 0 65279 0 0 65279 0 0 65279 0 0 65279 0 0 65279 0 0 65279 0 0 65279 0 0 65279 0 0 65279 0 0 65279 0 0 65279 0 0 65279 0 0 65279 0 0 65279 0 0 65279 0 0 65279 0 0 65279 0 0 65279 0 0 65279 0 0 65279 0 0 65279 0 0 65279 0 0 65279 0 0 65279 0 0 65279 0 0 65279 0 0 65279 0 0 65279 0 0 65279 0 0 65279 0 0 65279 0 0 65279 0 0 65279 0 0 65279 0 0 65279 0 0 65279 0 0 65279 0 0 65279 0 0 65279 0 0 65279 0 0 65279 0 0 65279 0 0 65279 0 0 65279 0 0 65279 0 0 65279 0 0 65279 0 0 65279 0 0 65279 0 0 65279 0 0 65279 0 0 65279 0 0 65279 0 0 65279 0 0 65279 0 0 65279 0 0 65279 0 0 65279 0 0 65279 0 0 65279 0 0 65279 0 0 65279 0 0 65279 0 0 65279 0 0 65279 0 0 65279 0 0 65279 0 0 65279 0 0 65279 0 0 65279 0 0 65279 0 0 65279 0 0 65279 0 0 65279 0 0 65279 0 0 65279 0 0 65279 0 0 65279 0 0 65279 0 0 65279 0 0 65279 0 0 65279 0 0 65279 0 0 65279 0 0 65279 0 0 65279 0 0 65279 0 0 65279 0 0 65279 0 0 65279 0 0 65279 0 0 65279 0 0 65279 0 0 65279 0 0 65279 0 0 65279 0 0 65279 0 0 65279 0 0 65279 0 0 65279 0 0 65279 0 0 65279 0 0 65279 0 0 65279 0 0 65279 0 0 65279 0 0 65279 0 0 65279 0 0 65279 0 0 65279 0 0 65279 0 0 65279 0 0 65279 0 0 65279 0 0 65279 0 0 65279 0 0 65279 0 0 65279 0 0 65279 0 0 65279 0 0 65279 0 0 65279 0 0 65279 0 0 65279 0 0 65279 0 0 65279 0 0 65279 0 0 65279 0 0 65279 0 0 65279 0 0 65279 0 0 65279 0 0 65279 0 0 65279 0 0 65279 0 0 65279 0 0 65279 0 0 65279 0 0 65279 0 0 65279 0 0 65279 0 0 65279 0 0 65279 0 0 65279 0 0 65279 0 0 65279 0 0 65279 0 0 65279 0 0 65279 0 0 65279 0 0 65279 0 0 65279 0 0 65279 0 0 65279 0 0 65279 0 0 65279 0 0 65279 0 0 65279 0 0 65279 0 0 65279 0 0 65279 0 0 65279 0 0 65279 0 0 65279 0 0 65279 0 0 65279 0 0 65279 0 0 65279 0 0 65279 0 0 65279 0 0 65279 0 0 65279 0 0 65279 0 0 65279 0 0 65279 0 0 65279 0 0 65279 0 0 65279 0 0 65279 0 0 65279 0 0 65279 0 0 65279 0 0 65279 0 0 65279 0 0 65279 0 0 65279 0 0 65279 0 0 65279 0 0 65279 0 0 65279 0 0 65279 0 0 65279 0 0 65279 0 0 65279 0 0 65279 0 0 65279 0 0 65279 0 0 65279 0 0 65279 0 0 65279 0 0 65279 0 0 65279 0 0 65279 0 0 65279 0 0 65279 0 0 65279 0 0 65279 0 0 65279 0 0 65279 0 0 65279 0 0 65279 0 0 65279 0 0 65279 0 0 65279 0 0 65279 0 0 65279 0 0 65279 0 0 65279 0 0 65279 0 0 65279 0 0 65279 0 0 65279 0 0 65279 0 0 65279 0 0 65279 0 0 65279 0 0 65279 0 0 65279 0 0 65279 0 0 65279 0 0 65279 0 0 65279 0 0 65279 0 0 65279 0 0 65279 0 0 65279 0 0 65279 0 0 65279 0 0 65279 0 0 65279 0 0 65279 0 0 65279 0 0 65279 0 0 65279 0 0 65279 0 0 65279 0 0 65279 0 0 65279 0 0 65279 0 0 65279 0 0 65279 0 0 65279 0 0 65279 0 0 65279 0 0 65279 0 0 65279 0 0 65279 0 0 65279 0 0 65279 0 0 65279 0 0 65279 0 0 65279 0 0 65279 0 0 65279 0 0 65279 0 0 65279 0 0 65279 0 0 65279 0 0 65279 0 0 65279 0 0 65279 0 0 65279 0 0 65279 0 0 65279 0 0 65279 0 0 65279 0 0 65279 0 0 65279 0 0 65279 0 0 65279 0 0 65279 0 0 65279 0 0 65279 0 0 65279 0 0 65279 0 0 65279 0 0 65279 0 0 65279 0 0 65279 0 0 65279 0 0 65279 0 0 65279 0 0 65279 0 0 65279 0 0 65279 0 0 65279 0 0 65279 0 0 65279 0 0 65279 0 0 65279 0 0 65279 0 0 65279 0 0 65279 0 0 65279 0 0 65279 0 0 65279 0 0 65279 0 0 65279 0 0 65279 0 0 65279 0 0 65279 0 0 65279 0 0 65279 0 0 65279 0 0 65279 0 0 65279 0 0 65279 0 0 65279 0 0 65279 0 0 65279 0 0 65279 0 0 65279 0 0 65279 0 0 65279 0 0 65279 0 0 65279 0 0 65279 0 0 65279 0 0 65279 0 0 65279 0 0 65279 0 0 65279 0 0 65279 0 0 65279 0 0 65279 0 0 65279 0 0 65279 0 0 65279 0 0 65279 0 0 65279 0 0 65279 0 0 65279 0 0 65279 0 0 65279 0 0 65279 0 0 65279 0 0 65279 0 0 65279 0 0 65279 0 0 65279 0 0 65279 0 0 65279 0 0 65279 0 0 65279 0 0 65279 0 0 65279 0 0 65279 0 0 65279 0 0 65279 0 0 65279 0 0 65279 0 0 65279 0 0 65279 0 0 65279 0 0 65279 0 0 65279 0 0 65279 0 0 65279 0 0 65279 0 0 65279 0 0 65279 0 0 65279 0 0 65279 0 0 65279 0 0 65279 0 0 65279 0 0 65279 0 0 65279 0 0 65279 0 0 65279 0 0 65279 0 0 65279 0 0 65279 0 0 65279 0 0 65279 0 0 65279 0 0 65279 0 0 65279 0 0 65279 0 0 65279 0 0 65279 0 0 65279 0 0 65279 0 0 65279 0 0 65279 0 0 65279 0 0 65279 0 0 65279 0 0 65279 0 0 65279 0 0 65279 0 0 65279 0 0 65279 0 0 65279 0 0 65279 0 0 65279 0 0 65279 0 0 65279 0 0 65279 0 0 65279 0 0 65279 0 0 65279 0 0 65279 0 0 65279 0 0 65279 0 0 65279 0 0 65279 0 0 65279 0 0 65279 0 0 65279 0 0 65279 0 0 65279 0 0 65279 0 0 65279 0 0 65279 0 0 65279 0 0 65279 0 0 65279 0 0 65279 0 0 65279 0 0 65279 0 0 65279 0 0 65279 0 0 65279 0 0 65279 0 0 65279 0 0 65279 0 0 65279 0 0 65279 0 0 65279 0 0 65279 0 0 65279 0 0 65279 0 0 65279 0 0 65279 0 0 65279 0 0 65279 0 0 65279 0 0 65279 0 0 65279 0 0 65279 0 0 65279 0 0 65279 0 0 65279 0 0 65279 0 0 65279 0 0 65279 0 0 65279 0 0 65279 0 0 65279 0 0 65279 0 0 65279 0 0 65279 0 0 65279 0 0 65279 0 0 65279 0 0 65279 0 0 65279 0 0 65279 0 0 65279 0 0 65279 0 0 65279 0 0 65279 0 0 65279 0 0 65279 0 0 65279 0 0 65279 0 0 65279 0 0 65279 0 0 65279 0 0 65279 0 0 65279 0 0 65279 0 0 65279 0 0 65279 0 0 65279 0 0 65279 0 0 65279 0 0 65279 0 0 65279 0 0 65279 0 0 65279 0 0 65279 0 0 65279 0 0 65279 0 0 65279 0 0 65279 0 0 65279 0 0 65279 0 0 65279 0 0 65279 0 0 65279 0 0 65279 0 0 65279 0 0 65279 0 0 65279 0 0 65279 0 0 65279 0 0 65279 0 0 65279 0 0 65279 0 0 65279 0 0 65279 0 0 65279 0 0 65279 0 0 65279 0 0 65279 0 0 65279 0 0 65279 0 0 65279 0 0 65279 0 0 65279 0 0 65279 0 0 65279 0 0 65279 0 0 65279 0 0 65279 0 0 65279 0 0 65279 0 0 65279 0 0 65279 0 0 65279 0 0 65279 0 0 65279 0 0 65279 0 0 65279 0 0 65279 0 0 65279 0 0 65279 0 0 65279 0 0 65279 0 0 65279 0 0 65279 0 0 65279 0 0 65279 0 0 65279 0 0 65279 0 0 65279 0 0 65279 0 0 65279 0 0 65279 0 0 65279 0 0 65279 0 0 65279 0 0 65279 0 0 65279 0 0 65279 0 0 65279 0 0 65279 0 0 65279 0 0 65279 0 0 65279 0 0 65279 0 0 65279 0 0 65279 0 0 65279 0 0 65279 0 0 65279 0 0 65279 0 0 65279 0 0 65279 0 0 65279 0 0 65279 0 0 65279 0 0 65279 0 0 65279 0 0 65279 0 0 65279 0 0 65279 0 0 65279 0 0 65279 0 0 65279 0 0 65279 0 0 65279 0 0 65279 0 0 65279 0 0 65279 0 0 65279 0 0 65279 0 0 65279 0 0 65279 0 0 65279 0 0 65279 0 0 65279 0 0 65279 0 0 65279 0 0 65279 0 0 65279 0 0 65279 0 0 65279 0 0 65279 0 0 65279 0 0 65279 0 0 65279 0 0 65279 0 0 65279 0 0 65279 0 0 65279 0 0 65279 0 0 65279 0 0 65279 0 0 65279 0 0 65279 0 0 65279 0 0 65279 0 0 65279 0 0 65279 0 0 65279 0 0 65279 0 0 65279 0 0 65279 0 0 65279 0 0 65279 0 0 65279 0 0 65279 0 0 65279 0 0 65279 0 0 65279 0 0 65279 0 0 65279 0 0 65279 0 0 65279 0 0 65279 0 0 65279 0 0 65279 0 0 65279 0 0 65279 0 0 65279 0 0 65279 0 0 65279 0 0 65279 0 0 65279 0 0 65279 0 0 65279 0 0 65279 0 0 65279 0 0 65279 0 0 65279 0 0 65279 0 0 65279 0 0 65279 0 0 65279 0 0 65279 0 0 65279 0 0 65279 0 0 65279 0 0 65279 0 0 65279 0 0 65279 0 0 65279 0 0 65279 0 0 65279 0 0 65279 0 0 65279 0 0 65279 0 0 65279 0 0 65279 0 0 65279 0 0 65279 0 0 65279 0 0 65279 0 0 65279 0 0 65279 0 0 65279 0 0 65279 0 0 65279 0 0 65279 0 0 65279 0 0 65279 0 0 65279 0 0 65279 0 0 65279 0 0 65279 0 0 65279 0 0 65279 0 0 65279 0 0 65279 0 0 65279 0 0 65279 0 0 65279 0 0 65279 0 0 65279 0 0 65279 0 0 65279 0 0 65279 0 0 65279 0 0 65279 0 0 65279 0 0 65279 0 0 65279 0 0 65279 0 0 65279 0 0 65279 0 0 65279 0 0 65279 0 0 65279 0 0 65279 0 0 65279 0 0 65279 0 0 65279 0 0 65279 0 0 65279 0 0 65279 0 0 65279 0 0 65279 0 0 65279 0 0 65279 0 0 65279 0 0 65279 0 0 65279 0 0 65279 0 0 65279 0 0 65279 0 0 65279 0 0 65279 0 0 65279 0 0 65279 0 0 65279 0 0 65279 0 0 65279 0 0 65279 0 0 65279 0 0 65279 0 0 65279 0 0 65279 0 0 65279 0 0 65279 0 0 65279 0 0 65279 0 0 65279 0 0 65279 0 0 65279 0 0 65279 0 0 65279 0 0 65279 0 0 65279 0 0 65279 0 0 65279 0 0 65279 0 0 65279 0 0 65279 0 0 65279 0 0 65279 0 0 65279 0 0 65279 0 0 65279 0 0 65279 0 0 65279 0 0 65279 0 0 65279 0 0 65279 0 0 65279 0 0 65279 0 0 65279 0 0 65279 0 0 65279 0 0 65279 0 0 65279 0 0 65279 0 0 65279 0 0 65279 0 0 65279 0 0 65279 0 0 65279 0 0 65279 0 0 65279 0 0 65279 0 0 65279 0 0 65279 0 0 65279 0 0 65279 0 0 65279 0 0 65279 0 0 65279 0 0 65279 0 0 65279 0 0 65279 0 0 65279 0 0 65279 0 0 65279 0 0 65279 0 0 65279 0 0 65279 0 0 65279 0 0 65279 0 0 65279 0 0 65279 0 0 65279 0 0 65279 0 0 65279 0 0 65279 0 0 65279 0 0 65279 0 0 65279 0 0 65279 0 0 65279 0 0 65279 0 0 65279 0 0 65279 0 0 65279 0 0 65279 0 0 65279 0 0 65279 0 0 65279 0 0 65279 0 0 65279 0 0 65279 0 0 65279 0 0 65279 0 0 65279 0 0 65279 0 0 65279 0 0 65279 0 0 65279 0 0 65279 0 0 65279 0 0 65279 0 0 65279 0 0 65279 0 0 65279 0 0 65279 0 0 65279 0 0 65279 0 0 65279 0 0 65279 0 0 65279 0 0 65279 0 0 65279 0 0 65279 0 0 65279 0 0 65279 0 0 65279 0 0 65279 0 0 65279 0 0 65279 0 0 65279 0 0 65279 0 0 65279 0 0 65279 0 0 65279 0 0 65279 0 0 65279 0 0 65279 0 0 65279 0 0 65279 0 0 65279 0 0 65279 0 0 65279 0 0 65279 0 0 65279 0 0 65279 0 0 65279 0 0 65279 0 0 65279 0 0 65279 0 0 65279 0 0 65279 0 0 65279 0 0 65279 0 0 65279 0 0 65279 0 0 65279 0 0 65279 0 0 65279 0 0 65279 0 0 65279 0 0 65279 0 0 65279 0 0 65279 0 0 65279 0 0 65279 0 0 65279 0 0 65279 0 0 65279 0 0 65279 0 0 65279 0 0 65279 0 0 65279 0 0 65279 0 0 65279 0 0 65279 0 0 65279 0 0 65279 0 0 65279 0 0 65279 0 0 65279 0 0 65279 0 0 65279 0 0 65279 0 0 65279 0 0 65279 0 0 65279 0 0 65279 0 0 65279 0 0 65279 0 0 65279 0 0 65279 0 0 65279 0 0 65279 0 0 65279 0 0 65279 0 0 65279 0 0 65279 0 0 65279 0 0 65279 0 0 65279 0 0 65279 0 0 65279 0 0 65279 0 0 65279 0 0 65279 0 0 65279 0 0 65279 0 0 65279 0 0 65279 0 0 65279 0 0 65279 0 0 65279 0 0 65279 0 0 65279 0 0 65279 0 0 65279 0 0 65279 0 0 65279 0 0 65279 0 0 65279 0 0 65279 0 0 65279 0 0 65279 0 0 65279 0 0 65279 0 0 65279 0 0 65279 0 0 65279 0 0 65279 0 0 65279 0 0 65279 0 0 65279 0 0 65279 0 0 65279 0 0 65279 0 0 65279 0 0 65279 0 0 65279 0 0 65279 0 0 65279 0 0 65279 0 0 65279 0 0 65279 0 0 65279 0 0 65279 0 0 65279 0 0 65279 0 0 65279 0 0 65279 0 0 65279 0 0 65279 0 0 65279 0 0 65279 0 0 65279 0 0 65279 0 0 65279 0 0 65279 0 0 65279 0 0 65279 0 0 65279 0 0 65279 0 0 65279 0 0 65279 0 0 65279 0 0 65279 0 0 65279 0 0 65279 0 0 65279 0 0 65279 0 0 65279 0 0 65279 0 0 65279 0 0 65279 0 0 65279 0 0 65279 0 0 65279 0 0 65279 0 0 65279 0 0 65279 0 0 65279 0 0 65279 0 0 65279 0 0 65279 0 0 65279 0 0 65279 0 0 65279 0 0 65279 0 0 65279 0 0 65279 0 0 65279 0 0 65279 0 0 65279 0 0 65279 0 0 65279 0 0 65279 0 0 65279 0 0 65279 0 0 65279 0 0 65279 0 0 65279 0 0 65279 0 0 65279 0 0 65279 0 0 65279 0 0 65279 0 0 65279 0 0 65279 0 0 65279 0 0 65279 0 0 65279 0 0 65279 0 0 65279 0 0 65279 0 0 65279 0 0 65279 0 0 65279 0 0 65279 0 0 65279 0 0 65279 0 0 65279 0 0 65279 0 0 65279 0 0 65279 0 0 65279 0 0 65279 0 0 65279 0 0 65279 0 0 65279 0 0 65279 0 0 65279 0 0 65279 0 0 65279 0 0 65279 0 0 65279 0 0 65279 0 0 65279 0 0 65279 0 0 65279 0 0 65279 0 0 65279 0 0 65279 0 0 65279 0 0 65279 0 0 65279 0 0 65279 0 0 65279 0 0 65279 0 0 65279 0 0 65279 0 0 65279 0 0 65279 0 0 65279 0 0 65279 0 0 65279 0 0 65279 0 0 65279 0 0 65279 0 0 65279 0 0 65279 0 0 65279 0 0 65279 0 0 65279 0 0 65279 0 0 65279 0 0 65279 0 0 65279 0 0 65279 0 0 65279 0 0 65279 0 0 65279 0 0 65279 0 0 65279 0 0 65279 0 0 65279 0 0 65279 0 0 65279 0 0 65279 0 0 65279 0 0 65279 0 0 65279 0 0 65279 0 0 65279 0 0 65279 0 0 65279 0 0 65279 0 0 65279 0 0 65279 0 0 65279 0 0 65279 0 0 65279 0 0 65279 0 0 65279 0 0 65279 0 0 65279 0 0 65279 0 0 65279 0 0 65279 0 0 65279 0 0 65279 0 0 65279 0 0 65279 0 0 65279 0 0 65279 0 0 65279 0 0 65279 0 0 65279 0 0 65279 0 0 65279 0 0 65279 0 0 65279 0 0 65279 0 0 65279 0 0 65279 0 0 65279 0 0 65279 0 0 65279 0 0 65279 0 0 65279 0 0 65279 0 0 65279 0 0 65279 0 0 65279 0 0 65279 0 0 65279 0 0 65279 0 0 65279 0 0 65279 0 0 65279 0 0 65279 0 0 65279 0 0 65279 0 0 65279 0 0 65279 0 0 65279 0 0 65279 0 0 65279 0 0 65279 0 0 65279 0 0 65279 0 0 65279 0 0 65279 0 0 65279 0 0 65279 0 0 65279 0 0 65279 0 0 65279 0 0 65279 0 0 65279 0 0 65279 0 0 65279 0 0 65279 0 0 65279 0 0 65279 0 0 65279 0 0 65279 0 0 65279 0 0 65279 0 0 65279 0 0 65279 0 0 65279 0 0 65279 0 0 65279 0 0 65279 0 0 65279 0 0 65279 0 0 65279 0 0 65279 0 0 65279 0 0 65279 0 0 65279 0 0 65279 0 0 65279 0 0 65279 0 0 65279 0 0 65279 0 0 65279 0 0 65279 0 0 65279 0 0 65279 0 0 65279 0 0 65279 0 0 65279 0 0 65279 0 0 65279 0 0 65279 0 0 65279 0 0 65279 0 0 65279 0 0 65279 0 0 65279 0 0 65279 0 0 65279 0 0 65279 0 0 65279 0 0 65279 0 0 65279 0 0 65279 0 0 65279 0 0 65279 0 0 65279 0 0 65279 0 0 65279 0 0 65279 0 0 65279 0 0 65279 0 0 65279 0 0 65279 0 0 65279 0 0 65279 0 0 65279 0 0 65279 0 0 65279 0 0 65279 0 0 65279 0 0 65279 0 0 65279 0 0 65279 0 0 65279 0 0 65279 0 0 65279 0 0 65279 0 0 65279 0 0 65279 0 0 65279 0 0 65279 0 0 65279 0 0 65279 0 0 65279 0 0 65279 0 0 65279 0 0 65279 0 0 65279 0 0 65279 0 0 65279 0 0 65279 0 0 65279 0 0 65279 0 0 65279 0 0 65279 0 0 65279 0 0 65279 0 0 65279 0 0 65279 0 0 65279 0 0 65279 0 0 65279 0 0 65279 0 0 65279 0 0 65279 0 0 65279 0 0 65279 0 0 65279 0 0 65279 0 0 65279 0 0 65279 0 0 65279 0 0 65279 0 0 65279 0 0 65279 0 0 65279 0 0 65279 0 0 65279 0 0 65279 0 0 65279 0 0 65279 0 0 65279 0 0 65279 0 0 65279 0 0 65279 0 0 65279 0 0 65279 0 0 65279 0 0 65279 0 0 65279 0 0 65279 0 0 65279 0 0 65279 0 0 65279 0 0 65279 0 0 65279 0 0 65279 0 0 65279 0 0 65279 0 0 65279 0 0 65279 0 0 65279 0 0 65279 0 0 65279 0 0 65279 0 0 65279 0 0 65279 0 0 65279 0 0 65279 0 0 65279 0 0 65279 0 0 65279 0 0 65279 0 0 65279 0 0 65279 0 0 65279 0 0 65279 0 0 65279 0 0 65279 0 0 65279 0 0 65279 0 0 65279 0 0 65279 0 0 65279 0 0 65279 0 0 65279 0 0 65279 0 0 65279 0 0 65279 0 0 65279 0 0 65279 0 0 65279 0 0 65279 0 0 65279 0 0 65279 0 0 65279 0 0 65279 0 0 65279 0 0 65279 0 0 65279 0 0 65279 0 0 65279 0 0 65279 0 0 65279 0 0 65279 0 0 65279 0 0 65279 0 0 65279 0 0 65279 0 0 65279 0 0 65279 0 0 65279 0 0 65279 0 0 65279 0 0 65279 0 0 65279 0 0 65279 0 0 65279 0 0 65279 0 0 65279 0 0 65279 0 0 65279 0 0 65279 0 0 65279 0 0 65279 0 0 65279 0 0 65279 0 0 65279 0 0 65279 0 0 65279 0 0 65279 0 0 65279 0 0 65279 0 0 65279 0 0 65279 0 0 65279 0 0 65279 0 0 65279 0 0 65279 0 0 65279 0 0 65279 0 0 65279 0 0 65279 0 0 65279 0 0 65279 0 0 65279 0 0 65279 0 0 65279 0 0 65279 0 0 65279 0 0 65279 0 0 65279 0 0 65279 0 0 65279 0 0 65279 0 0 65279 0 0 65279 0 0 65279 0 0 65279 0 0 65279 0 0 65279 0 0 65279 0 0 65279 0 0 65279 0 0 65279 0 0 65279 0 0 65279 0 0 65279 0 0 65279 0 0 65279 0 0 65279 0 0 65279 0 0 65279 0 0 65279 0 0 65279 0 0 65279 0 0 65279 0 0 65279 0 0 65279 0 0 65279 0 0 65279 0 0 65279 0 0 65279 0 0 65279 0 0 65279 0 0 65279 0 0 65279 0 0 65279 0 0 65279 0 0 65279 0 0 65279 0 0 65279 0 0 65279 0 0 65279 0 0 65279 0 0 65279 0 0 65279 0 0 65279 0 0 65279 0 0 65279 0 0 65279 0 0 65279 0 0 65279 0 0 65279 0 0 65279 0 0 65279 0 0 65279 0 0 65279 0 0 65279 0 0 65279 0 0 65279 0 0 65279 0 0 65279 0 0 65279 0 0 65279 0 0 65279 0 0 65279 0 0 65279 0 0 65279 0 0 65279 0 0 65279 0 0 65279 0 0 65279 0 0 65279 0 0 65279 0 0 65279 0 0 65279 0 0 65279 0 0 65279 0 0 65279 0 0 65279 0 0 65279 0 0 65279 0 0 65279 0 0 65279 0 0 65279 0 0 65279 0 0 65279 0 0 65279 0 0 65279 0 0 65279 0 0 65279 0 0 65279 0 0 65279 0 0 65279 0 0 65279 0 0 65279 0 0 65279 0 0 65279 0 0 65279 0 0 65279 0 0 65279 0 0 65279 0 0 65279 0 0 65279 0 0 65279 0 0 65279 0 0 65279 0 0 65279 0 0 65279 0 0 65279 0 0 65279 0 0 65279 0 0 65279 0 0 65279 0 0 65279 0 0 65279 0 0 65279 0 0 65279 0 0 65279 0 0 65279 0 0 65279 0 0 65279 0 0 65279 0 0 65279 0 0 65279 0 0 65279 0 0 65279 0 0 65279 0 0 65279 0 0 65279 0 0 65279 0 0 65279 0 0 65279 0 0 65279 0 0 65279 0 0 65279 0 0 65279 0 0 65279 0 0 65279 0 0 65279 0 0 65279 0 0 65279 0 0 65279 0 0 65279 0 0 65279 0 0 65279 0 0 65279 0 0 65279 0 0 65279 0 0 65279 0 0 65279 0 0 65279 0 0 65279 0 0 65279 0 0 65279 0 0 65279 0 0 65279 0 0 65279 0 0 65279 0 0 65279 0 0 65279 0 0 65279 0 0 65279 0 0 65279 0 0 65279 0 0 65279 0 0 65279 0 0 65279 0 0 65279 0 0 65279 0 0 65279 0 0 65279 0 0 65279 0 0 65279 0 0 65279 0 0 65279 0 0 65279 0 0 65279 0 0 65279 0 0 65279 0 0 65279 0 0 65279 0 0 65279 0 0 65279 0 0 65279 0 0 65279 0 0 65279 0 0 65279 0 0 65279 0 0 65279 0 0 65279 0 0 65279 0 0 65279 0 0 65279 0 0 65279 0 0 65279 0 0 65279 0 0 65279 0 0 65279 0 0 65279 0 0 65279 0 0 65279 0 0 65279 0 0 65279 0 0 65279 0 0 65279 0 0 65279 0 0 65279 0 0 65279 0 0 65279 0 0 65279 0 0 65279 0 0 65279 0 0 65279 0 0 65279 0 0 65279 0 0 65279 0 0 65279 0 0 65279 0 0 65279 0 0 65279 0 0 65279 0 0 65279 0 0 65279 0 0 65279 0 0 65279 0 0 65279 0 0 65279 0 0 65279 0 0 65279 0 0 65279 0 0 65279 0 0 65279 0 0 65279 0 0 65279 0 0 65279 0 0 65279 0 0 65279 0 0 65279 0 0 65279 0 0 65279 0 0 65279 0 0 65279 0 0 65279 0 0 65279 0 0 65279 0 0 65279 0 0 65279 0 0 65279 0 0 65279 0 0 65279 0 0 65279 0 0 65279 0 0 65279 0 0 65279 0 0 65279 0 0 65279 0 0 65279 0 0 65279 0 0 65279 0 0 65279 0 0 65279 0 0 65279 0 0 65279 0 0 65279 0 0 65279 0 0 65279 0 0 65279 0 0 65279 0 0 65279 0 0 65279 0 0 65279 0 0 65279 0 0 65279 0 0 65279 0 0 65279 0 0 65279 0 0 65279 0 0 65279 0 0 65279 0 0 65279 0 0 65279 0 0 65279 0 0 65279 0 0 65279 0 0 65279 0 0 65279 0 0 65279 0 0 65279 0 0 65279 0 0 65279 0 0 65279 0 0 65279 0 0 65279 0 0 65279 0 0 65279 0 0 65279 0 0 65279 0 0 65279 0 0 65279 0 0 65279 0 0 65279 0 0 65279 0 0 65279 0 0 65279 0 0 65279 0 0 65279 0 0 65279 0 0 65279 0 0 65279 0 0 65279 0 0 65279 0 0 65279 0 0 65279 0 0 65279 0 0 65279 0 0 65279 0 0 65279 0 0 65279 0 0 65279 0 0 65279 0 0 65279 0 0 65279 0 0 65279 0 0 65279 0 0 65279 0 0 65279 0 0 65279 0 0 65279 0 0 65279 0 0 65279 0 0 65279 0 0 65279 0 0 65279 0 0 65279 0 0 65279 0 0 65279 0 0 65279 0 0 65279 0 0 65279 0 0 65279 0 0 65279 0 0 65279 0 0 65279 0 0 65279 0 0 65279 0 0 65279 0 0 65279 0 0 65279 0 0 65279 0 0 65279 0 0 65279 0 0 65279 0 0 65279 0 0 65279 0 0 65279 0 0 65279 0 0 65279 0 0 65279 0 0 65279 0 0 65279 0 0 65279 0 0 65279 0 0 65279 0 0 65279 0 0 65279 0 0 65279 0 0 65279 0 0 65279 0 0 65279 0 0 65279 0 0 65279 0 0 65279 0 0 65279 0 0 65279 0 0 65279 0 0 65279 0 0 65279 0 0 65279 0 0 65279 0 0 65279 0 0 65279 0 0 65279 0 0 65279 0 0 65279 0 0 65279 0 0 65279 0 0 65279 0 0 65279 0 0 65279 0 0 65279 0 0 65279 0 0 65279 0 0 65279 0 0 65279 0 0 65279 0 0 65279 0 0 65279 0 0 65279 0 0 65279 0 0 65279 0 0 65279 0 0 65279 0 0 65279 0 0 65279 0 0 65279 0 0 65279 0 0 65279 0 0 65279 0 0 65279 0 0 65279 0 0 65279 0 0 65279 0 0 65279 0 0 65279 0 0 65279 0 0 65279 0 0 65279 0 0 65279 0 0 65279 0 0 65279 0 0 65279 0 0 65279 0 0 65279 0 0 65279 0 0 65279 0 0 65279 0 0 65279 0 0 65279 0 0 65279 0 0 65279 0 0 65279 0 0 65279 0 0 65279 0 0 65279 0 0 65279 0 0 65279 0 0 65279 0 0 65279 0 0 65279 0 0 65279 0 0 65279 0 0 65279 0 0 65279 0 0 65279 0 0 65279 0 0 65279 0 0 65279 0 0 65279 0 0 65279 0 0 65279 0 0 65279 0 0 65279 0 0 65279 0 0 65279 0 0 65279 0 0 65279 0 0 65279 0 0 65279 0 0 65279 0 0 65279 0 0 65279 0 0 65279 0 0 65279 0 0 65279 0 0 65279 0 0 65279 0 0 65279 0 0 65279 0 0 65279 0 0 65279 0 0 65279 0 0 65279 0 0 65279 0 0 65279 0 0 65279 0 0 65279 0 0 65279 0 0 65279 0 0 65279 0 0 65279 0 0 65279 0 0 65279 0 0 65279 0 0 65279 0 0 65279 0 0 65279 0 0 65279 0 0 65279 0 0 65279 0 0 65279 0 0 65279 0 0 65279 0 0 65279 0 0 65279 0 0 65279 0 0 65279 0 0 65279 0 0 65279 0 0 65279 0 0 65279 0 0 65279 0 0 65279 0 0 65279 0 0 65279 0 0 65279 0 0 65279 0 0 65279 0 0 65279 0 0 65279 0 0 65279 0 0 65279 0 0 65279 0 0 65279 0 0 65279 0 0 65279 0 0 65279 0 0 65279 0 0 65279 0 0 65279 0 0 65279 0 0 65279 0 0 65279 0 0 65279 0 0 65279 0 0 65279 0 0 65279 0 0 65279 0 0 65279 0 0 65279 0 0 65279 0 0 65279 0 0 65279 0 0 65279 0 0 65279 0 0 65279 0 0 65279 0 0 65279 0 0 65279 0 0 65279 0 0 65279 0 0 65279 0 0 65279 0 0 65279 0 0 65279 0 0 65279 0 0 65279 0 0 65279 0 0 65279 0 0 65279 0 0 65279 0 0 65279 0 0 65279 0 0 65279 0 0 65279 0 0 65279 0 0 65279 0 0 65279 0 0 65279 0 0 65279 0 0 65279 0 0 65279 0 0 65279 0 0 65279 0 0 65279 0 0 65279 0 0 65279 0 0 65279 0 0 65279 0 0 65279 0 0 65279 0 0 65279 0 0 65279 0 0 65279 0 0 65279 0 0 65279 0 0 65279 0 0 65279 0 0 65279 0 0 65279 0 0 65279 0 0 65279 0 0 65279 0 0 65279 0 0 65279 0 0 65279 0 0 65279 0 0 65279 0 0 65279 0 0 65279 0 0 65279 0 0 65279 0 0 65279 0 0 65279 0 0 65279 0 0 65279 0 0 65279 0 0 65279 0 0 65279 0 0 65279 0 0 65279 0 0 65279 0 0 65279 0 0 65279 0 0 65279 0 0 65279 0 0 65279 0 0 65279 0 0 65279 0 0 65279 0 0 65279 0 0 65279 0 0 65279 0 0 65279 0 0 65279 0 0 65279 0 0 65279 0 0 65279 0 0 65279 0 0 65279 0 0 65279 0 0 65279 0 0 65279 0 0 65279 0 0 65279 0 0 65279 0 0 65279 0 0 65279 0 0 65279 0 0 65279 0 0 65279 0 0 65279 0 0 65279 0 0 65279 0 0 65279 0 0 65279 0 0 65279 0 0 65279 0 0 65279 0 0 65279 0 0 65279 0 0 65279 0 0 65279 0 0 65279 0 0 65279 0 0 65279 0 0 65279 0 0 65279 0 0 65279 0 0 65279 0 0 65279 0 0 65279 0 0 65279 0 0 65279 0 0 65279 0 0 65279 0 0 65279 0 0 65279 0 0 65279 0 0 65279 0 0 65279 0 0 65279 0 0 65279 0 0 65279 0 0 65279 0 0 65279 0 0 65279 0 0 65279 0 0 65279 0 0 65279 0 0 65279 0 0 65279 0 0 65279 0 0 65279 0 0 65279 0 0 65279 0 0 65279 0 0 65279 0 0 65279 0 0 65279 0 0 65279 0 0 65279 0 0 65279 0 0 65279 0 0 65279 0 0 65279 0 0 65279 0 0 65279 0 0 65279 0 0 65279 0 0 65279 0 0 65279 0 0 65279 0 0 65279 0 0 65279 0 0 65279 0 0 65279 0 0 65279 0 0 65279 0 0 65279 0 0 65279 0 0 65279 0 0 65279 0 0 65279 0 0 65279 0 0 65279 0 0 65279 0 0 65279 0 0 65279 0 0 65279 0 0 65279 0 0 65279 0 0 65279 0 0 65279 0 0 65279 0 0 65279 0 0 65279 0 0 65279 0 0 65279 0 0 65279 0 0 65279 0 0 65279 0 0 65279 0 0 65279 0 0 65279 0 0 65279 0 0 65279 0 0 65279 0 0 65279 0 0 65279 0 0 65279 0 0 65279 0 0 65279 0 0 65279 0 0 65279 0 0 65279 0 0 65279 0 0 65279 0 0 65279 0 0 65279 0 0 65279 0 0 65279 0 0 65279 0 0 65279 0 0 65279 0 0 65279 0 0 65279 0 0 65279 0 0 65279 0 0 65279 0 0 65279 0 0 65279 0 0 65279 0 0 65279 0 0 65279 0 0 65279 0 0 65279 0 0 65279 0 0 65279 0 0 65279 0 0 65279 0 0 65279 0 0 65279 0 0 65279 0 0 65279 0 0 65279 0 0 65279 0 0 65279 0 0 65279 0 0 65279 0 0 65279 0 0 65279 0 0 65279 0 0 65279 0 0 65279 0 0 65279 0 0 65279 0 0 65279 0 0 65279 0 0 65279 0 0 65279 0 0 65279 0 0 65279 0 0 65279 0 0 65279 0 0 65279 0 0 65279 0 0 65279 0 0 65279 0 0 65279 0 0 65279 0 0 65279 0 0 65279 0 0 65279 0 0 65279 0 0 65279 0 0 65279 0 0 65279 0 0 65279 0 0 65279 0 0 65279 0 0 65279 0 0 65279 0 0 65279 0 0 65279 0 0 65279 0 0 65279 0 0 65279 0 0 65279 0 0 65279 0 0 65279 0 0 65279 0 0 65279 0 0 65279 0 0 65279 0 0 65279 0 0 65279 0 0 65279 0 0 65279 0 0 65279 0 0 65279 0 0 65279 0 0 65279 0 0 65279 0 0 65279 0 0 65279 0 0 65279 0 0 65279 0 0 65279 0 0 65279 0 0 65279 0 0 65279 0 0 65279 0 0 65279 0 0 65279 0 0 65279 0 0 65279 0 0 65279 0 0 65279 0 0 65279 0 0 65279 0 0 65279 0 0 65279 0 0 65279 0 0 65279 0 0 65279 0 0 65279 0 0 65279 0 0 65279 0 0 65279 0 0 65279 0 0 65279 0 0 65279 0 0 65279 0 0 65279 0 0 65279 0 0 65279 0 0 65279 0 0 65279 0 0 65279 0 0 65279 0 0 65279 0 0 65279 0 0 65279 0 0 65279 0 0 65279 0 0 65279 0 0 65279 0 0 65279 0 0 65279 0 0 65279 0 0 65279 0 0 65279 0 0 65279 0 0 65279 0 0 65279 0 0 65279 0 0 65279 0 0 65279 0 0 65279 0 0 65279 0 0 65279 0 0 65279 0 0 65279 0 0 65279 0 0 65279 0 0 65279 0 0 65279 0 0 65279 0 0 65279 0 0 65279 0 0 65279 0 0 65279 0 0 65279 0 0 65279 0 0 65279 0 0 65279 0 0 65279 0 0 65279 0 0 65279 0 0 65279 0 0 65279 0 0 65279 0 0 65279 0 0 65279 0 0 65279 0 0 65279 0 0 65279 0 0 65279 0 0 65279 0 0 65279 0 0 65279 0 0 65279 0 0 65279 0 0 65279 0 0 65279 0 0 65279 0 0 65279 0 0 65279 0 0 65279 0 0 65279 0 0 65279 0 0 65279 0 0 65279 0 0 65279 0 0 65279 0 0 65279 0 0 65279 0 0 65279 0 0 65279 0 0 65279 0 0 65279 0 0 65279 0 0 65279 0 0 65279 0 0 65279 0 0 65279 0 0 65279 0 0 65279 0 0 65279 0 0 65279 0 0 65279 0 0 65279 0 0 65279 0 0 65279 0 0 65279 0 0 65279 0 0 65279 0 0 65279 0 0 65279 0 0 65279 0 0 65279 0 0 65279 0 0 65279 0 0 65279 0 0 65279 0 0 65279 0 0 65279 0 0 65279 0 0 65279 0 0 65279 0 0 65279 0 0 65279 0 0 65279 0 0 65279 0 0 65279 0 0 65279 0 0 65279 0 0 65279 0 0 65279 0 0 65279 0 0 65279 0 0 65279 0 0 65279 0 0 65279 0 0 65279 0 0 65279 0 0 65279 0 0 65279 0 0 65279 0 0 65279 0 0 65279 0 0 65279 0 0 65279 0 0 65279 0 0 65279 0 0 65279 0 0 65279 0 0 65279 0 0 65279 0 0 65279 0 0 65279 0 0 65279 0 0 65279 0 0 65279 0 0 65279 0 0 65279 0 0 65279 0 0 65279 0 0 65279 0 0 65279 0 0 65279 0 0 65279 0 0 65279 0 0 65279 0 0 65279 0 0 65279 0 0 65279 0 0 65279 0 0 65279 0 0 65279 0 0 65279 0 0 65279 0 0 65279 0 0 65279 0 0 65279 0 0 65279 0 0 65279 0 0 65279 0 0 65279 0 0 65279 0 0 65279 0 0 65279 0 0 65279 0 0 65279 0 0 65279 0 0 65279 0 0 65279 0 0 65279 0 0 65279 0 0 65279 0 0 65279 0 0 65279 0 0 65279 0 0 65279 0 0 65279 0 0 65279 0 0 65279 0 0 65279 0 0 65279 0 0 65279 0 0 65279 0 0 65279 0 0 65279 0 0 65279 0 0 65279 0 0 65279 0 0 65279 0 0 65279 0 0 65279 0 0 65279 0 0 65279 0 0 65279 0 0 65279 0 0 65279 0 0 65279 0 0 65279 0 0 65279 0 0 65279 0 0 65279 0 0 65279 0 0 65279 0 0 65279 0 0 65279 0 0 65279 0 0 65279 0 0 65279 0 0 65279 0 0 65279 0 0 65279 0 0 65279 0 0 65279 0 0 65279 0 0 65279 0 0 65279 0 0 65279 0 0 65279 0 0 65279 0 0 65279 0 0 65279 0 0 65279 0 0 65279 0 0 65279 0 0 65279 0 0 65279 0 0 65279 0 0 65279 0 0 65279 0 0 65279 0 0 65279 0 0 65279 0 0 65279 0 0 65279 0 0 65279 0 0 65279 0 0 65279 0 0 65279 0 0 65279 0 0 65279 0 0 65279 0 0 65279 0 0 65279 0 0 65279 0 0 65279 0 0 65279 0 0 65279 0 0 65279 0 0 65279 0 0 65279 0 0 65279 0 0 65279 0 0 65279 0 0 65279 0 0 65279 0 0 65279 0 0 65279 0 0 65279 0 0 65279 0 0 65279 0 0 65279 0 0 65279 0 0 65279 0 0 65279 0 0 65279 0 0 65279 0 0 65279 0 0 65279 0 0 65279 0 0 65279 0 0 65279 0 0 65279 0 0 65279 0 0 65279 0 0 65279 0 0 65279 0 0 65279 0 0 65279 0 0 65279 0 0 65279 0 0 65279 0 0 65279 0 0 65279 0 0 65279 0 0 65279 0 0 65279 0 0 65279 0 0 65279 0 0 65279 0 0 65279 0 0 65279 0 0 65279 0 0 65279 0 0 65279 0 0 65279 0 0 65279 0 0 65279 0 0 65279 0 0 65279 0 0 65279 0 0 65279 0 0 65279 0 0 65279 0 0 65279 0 0 65279 0 0 65279 0 0 65279 0 0 65279 0 0 65279 0 0 65279 0 0 65279 0 0 65279 0 0 65279 0 0 65279 0 0 65279 0 0 65279 0 0 65279 0 0 65279 0 0 65279 0 0 65279 0 0 65279 0 0 65279 0 0 65279 0 0 65279 0 0 65279 0 0 65279 0 0 65279 0 0 65279 0 0 65279 0 0 65279 0 0 65279 0 0 65279 0 0 65279 0 0 65279 0 0 65279 0 0 65279 0 0 65279 0 0 65279 0 0 65279 0 0 65279 0 0 65279 0 0 65279 0 0 65279 0 0 65279 0 0 65279 0 0 65279 0 0 65279 0 0 65279 0 0 65279 0 0 65279 0 0 65279 0 0 65279 0 0 65279 0 0 65279 0 0 65279 0 0 65279 0 0 65279 0 0 65279 0 0 65279 0 0 65279 0 0 65279 0 0 65279 0 0 65279 0 0 65279 0 0 65279 0 0 65279 0 0 65279 0 0 65279 0 0 65279 0 0 65279 0 0 65279 0 0 65279 0 0 65279 0 0 65279 0 0 65279 0 0 65279 0 0 65279 0 0 65279 0 0 65279 0 0 65279 0 0 65279 0 0 65279 0 0 65279 0 0 65279 0 0 65279 0 0 65279 0 0 65279 0 0 65279 0 0 65279 0 0 65279 0 0 65279 0 0 65279 0 0 65279 0 0 65279 0 0 65279 0 0 65279 0 0 65279 0 0 65279 0 0 65279 0 0 65279 0 0 65279 0 0 65279 0 0 65279 0 0 65279 0 0 65279 0 0 65279 0 0 65279 0 0 65279 0 0 65279 0 0 65279 0 0 65279 0 0 65279 0 0 65279 0 0 65279 0 0 65279 0 0 65279 0 0 65279 0 0 65279 0 0 65279 0 0 65279 0 0 65279 0 0 65279 0 0 65279 0 0 65279 0 0 65279 0 0 65279 0 0 65279 0 0 65279 0 0 65279 0 0 65279 0 0 65279 0 0 65279 0 0 65279 0 0 65279 0 0 65279 0 0 65279 0 0 65279 0 0 65279 0 0 65279 0 0 65279 0 0 65279 0 0 65279 0 0 65279 0 0 65279 0 0 65279 0 0 65279 0 0 65279 0 0 65279 0 0 65279 0 0 65279 0 0 65279 0 0 65279 0 0 65279 0 0 65279 0 0 65279 0 0 65279 0 0 65279 0 0 65279 0 0 65279 0 0 65279 0 0 65279 0 0 65279 0 0 65279 0 0 65279 0 0 65279 0 0 65279 0 0 65279 0 0 65279 0 0 65279 0 0 65279 0 0 65279 0 0 65279 0 0 65279 0 0 65279 0 0 65279 0 0 65279 0 0 65279 0 0 65279 0 0 65279 0 0 65279 0 0 65279 0 0 65279 0 0 65279 0 0 65279 0 0 65279 0 0 65279 0 0 65279 0 0 65279 0 0 65279 0 0 65279 0 0 65279 0 0 65279 0 0 65279 0 0 65279 0 0 65279 0 0 65279 0 0 65279 0 0 65279 0 0 65279 0 0 65279 0 0 65279 0 0 65279 0 0 65279 0 0 65279 0 0 65279 0 0 65279 0 0 65279 0 0 65279 0 0 65279 0 0 65279 0 0 65279 0 0 65279 0 0 65279 0 0 65279 0 0 65279 0 0 65279 0 0 65279 0 0 65279 0 0 65279 0 0 65279 0 0 65279 0 0 65279 0 0 65279 0 0 65279 0 0 65279 0 0 65279 0 0 65279 0 0 65279 0 0 65279 0 0 65279 0 0 65279 0 0 65279 0 0 65279 0 0 65279 0 0 65279 0 0 65279 0 0 65279 0 0 65279 0 0 65279 0 0 65279 0 0 65279 0 0 65279 0 0 65279 0 0 65279 0 0 65279 0 0 65279 0 0 65279 0 0 65279 0 0 65279 0 0 65279 0 0 65279 0 0 65279 0 0 65279 0 0 65279 0 0 65279 0 0 65279 0 0 65279 0 0 65279 0 0 65279 0 0 65279 0 0 65279 0 0 65279 0 0 65279 0 0 65279 0 0 65279 0 0 65279 0 0 65279 0 0 65279 0 0 65279 0 0 65279 0 0 65279 0 0 65279 0 0 65279 0 0 65279 0 0 65279 0 0 65279 0 0 65279 0 0 65279 0 0 65279 0 0 65279 0 0 65279 0 0 65279 0 0 65279 0 0 65279 0 0 65279 0 0 65279 0 0 65279 0 0 65279 0 0 65279 0 0 65279 0 0 65279 0 0 65279 0 0 65279 0 0 65279 0 0 65279 0 0 65279 0 0 65279 0 0 65279 0 0 65279 0 0 65279 0 0 65279 0 0 65279 0 0 65279 0 0 65279 0 0 65279 0 0 65279 0 0 65279 0 0 65279 0 0 65279 0 0 65279 0 0 65279 0 0 65279 0 0 65279 0 0 65279 0 0 65279 0 0 65279 0 0 65279 0 0 65279 0 0 65279 0 0 65279 0 0 65279 0 0 65279 0 0 65279 0 0 65279 0 0 65279 0 0 65279 0 0 65279 0 0 65279 0 0 65279 0 0 65279 0 0 65279 0 0 65279 0 0 65279 0 0 65279 0 0 65279 0 0 65279 0 0 65279 0 0 65279 0 0 65279 0 0 65279 0 0 65279 0 0 65279 0 0 65279 0 0 65279 0 0 65279 0 0 65279 0 0 65279 0 0 65279 0 0 65279 0 0 65279 0 0 65279 0 0 65279 0 0 65279 0 0 65279 0 0 65279 0 0 65279 0 0 65279 0 0 65279 0 0 65279 0 0 65279 0 0 65279 0 0 65279 0 0 65279 0 0 65279 0 0 65279 0 0 65279 0 0 65279 0 0 65279 0 0 65279 0 0 65279 0 0 65279 0 0 65279 0 0 65279 0 0 65279 0 0 65279 0 0 65279 0 0 65279 0 0 65279 0 0 65279 0 0 65279 0 0 65279 0 0 65279 0 0 65279 0 0 65279 0 0 65279 0 0 65279 0 0 65279 0 0 65279 0 0 65279 0 0 65279 0 0 65279 0 0 65279 0 0 65279 0 0 65279 0 0 65279 0 0 65279 0 0 65279 0 0 65279 0 0 65279 0 0 65279 0 0 65279 0 0 65279 0 0 65279 0 0 65279 0 0 65279 0 0 65279 0 0 65279 0 0 65279 0 0 65279 0 0 65279 0 0 65279 0 0 65279 0 0 65279 0 0 65279 0 0 65279 0 0 65279 0 0 65279 0 0 65279 0 0 65279 0 0 65279 0 0 65279 0 0 65279 0 0 65279 0 0 65279 0 0 65279 0 0 65279 0 0 65279 0 0 65279 0 0 65279 0 0 65279 0 0 65279 0 0 65279 0 0 65279 0 0 65279 0 0 65279 0 0 65279 0 0 65279 0 0 65279 0 0 65279 0 0 65279 0 0 65279 0 0 65279 0 0 65279 0 0 65279 0 0 65279 0 0 65279 0 0 65279 0 0 65279 0 0 65279 0 0 65279 0 0 65279 0 0 65279 0 0 65279 0 0 65279 0 0 65279 0 0 65279 0 0 65279 0 0 65279 0 0 65279 0 0 65279 0 0 65279 0 0 65279 0 0 65279 0 0 65279 0 0 65279 0 0 65279 0 0 65279 0 0 65279 0 0 65279 0 0 65279 0 0 65279 0 0 65279 0 0 65279 0 0 65279 0 0 65279 0 0 65279 0 0 65279 0 0 65279 0 0 65279 0 0 65279 0 0 65279 0 0 65279 0 0 65279 0 0 65279 0 0 65279 0 0 65279 0 0 65279 0 0 65279 0 0 65279 0 0 65279 0 0 65279 0 0 65279 0 0 65279 0 0 65279 0 0 65279 0 0 65279 0 0 65279 0 0 65279 0 0 65279 0 0 65279 0 0 65279 0 0 65279 0 0 65279 0 0 65279 0 0 65279 0 0 65279 0 0 65279 0 0 65279 0 0 65279 0 0 65279 0 0 65279 0 0 65279 0 0 65279 0 0 65279 0 0 65279 0 0 65279 0 0 65279 0 0 65279 0 0 65279 0 0 65279 0 0 65279 0 0 65279 0 0 65279 0 0 65279 0 0 65279 0 0 65279 0 0 65279 0 0 65279 0 0 65279 0 0 65279 0 0 65279 0 0 65279 0 0 65279 0 0 65279 0 0 65279 0 0 65279 0 0 65279 0 0 65279 0 0 65279 0 0 65279 0 0 65279 0 0 65279 0 0 65279 0 0 65279 0 0 65279 0 0 65279 0 0 65279 0 0 65279 0 0 65279 0 0 65279 0 0 65279 0 0 65279 0 0 65279 0 0 65279 0 0 65279 0 0 65279 0 0 65279 0 0 65279 0 0 65279 0 0 65279 0 0 65279 0 0 65279 0 0 65279 0 0 65279 0 0 65279 0 0 65279 0 0 65279 0 0 65279 0 0 65279 0 0 65279 0 0 65279 0 0 65279 0 0 65279 0 0 65279 0 0 65279 0 0 65279 0 0 65279 0 0 65279 0 0 65279 0 0 65279 0 0 65279 0 0 65279 0 0 65279 0 0 65279 0 0 65279 0 0 65279 0 0 65279 0 0 65279 0 0 65279 0 0 65279 0 0 65279 0 0 65279 0 0 65279 0 0 65279 0 0 65279 0 0 65279 0 0 65279 0 0 65279 0 0 65279 0 0 65279 0 0 65279 0 0 65279 0 0 65279 0 0 65279 0 0 65279 0 0 65279 0 0 65279 0 0 65279 0 0 65279 0 0 65279 0 0 65279 0 0 65279 0 0 65279 0 0 65279 0 0 65279 0 0 65279 0 0 65279 0 0 65279 0 0 65279 0 0 65279 0 0 65279 0 0 65279 0 0 65279 0 0 65279 0 0 65279 0 0 65279 0 0 65279 0 0 65279 0 0 65279 0 0 65279 0 0 65279 0 0 65279 0 0 65279 0 0 65279 0 0 65279 0 0 65279 0 0 65279 0 0 65279 0 0 65279 0 0 65279 0 0 65279 0 0 65279 0 0 65279 0 0 65279 0 0 65279 0 0 65279 0 0 65279 0 0 65279 0 0 65279 0 0 65279 0 0 65279 0 0 65279 0 0 65279 0 0 65279 0 0 65279 0 0 65279 0 0 65279 0 0 65279 0 0 65279 0 0 65279 0 0 65279 0 0 65279 0 0 65279 0 0 65279 0 0 65279 0 0 65279 0 0 65279 0 0 65279 0 0 65279 0 0 65279 0 0 65279 0 0 65279 0 0 65279 0 0 65279 0 0 65279 0 0 65279 0 0 65279 0 0 65279 0 0 65279 0 0 65279 0 0 65279 0 0 65279 0 0 65279 0 0 65279 0 0 65279 0 0 65279 0 0 65279 0 0 65279 0 0 65279 0 0 65279 0 0 65279 0 0 65279 0 0 65279 0 0 65279 0 0 65279 0 0 65279 0 0 65279 0 0 65279 0 0 65279 0 0 65279 0 0 65279 0 0 65279 0 0 65279 0 0 65279 0 0 65279 0 0 65279 0 0 65279 0 0 65279 0 0 65279 0 0 65279 0 0 65279 0 0 65279 0 0 65279 0 0 65279 0 0 65279 0 0 65279 0 0 65279 0 0 65279 0 0 65279 0 0 65279 0 0 65279 0 0 65279 0 0 65279 0 0 65279 0 0 65279 0 0 65279 0 0 65279 0 0 65279 0 0 65279 0 0 65279 0 0 65279 0 0 65279 0 0 65279 0 0 65279 0 0 65279 0 0 65279 0 0 65279 0 0 65279 0 0 65279 0 0 65279 0 0 65279 0 0 65279 0 0 65279 0 0 65279 0 0 65279 0 0 65279 0 0 65279 0 0 65279 0 0 65279 0 0 65279 0 0 65279 0 0 65279 0 0 65279 0 0 65279 0 0 65279 0 0 65279 0 0 65279 0 0 65279 0 0 65279 0 0 65279 0 0 65279 0 0 65279 0 0 65279 0 0 65279 0 0 65279 0 0 65279 0 0 65279 0 0 65279 0 0 65279 0 0 65279 0 0 65279 0 0 65279 0 0 65279 0 0 65279 0 0 65279 0 0 65279 0 0 65279 0 0 65279 0 0 65279 0 0 65279 0 0 65279 0 0 65279 0 0 65279 0 0 65279 0 0 65279 0 0 65279 0 0 65279 0 0 65279 0 0 65279 0 0 65279 0 0 65279 0 0 65279 0 0 65279 0 0 65279 0 0 65279 0 0 65279 0 0 65279 0 0 65279 0 0 65279 0 0 65279 0 0 65279 0 0 65279 0 0 65279 0 0 65279 0 0 65279 0 0 65279 0 0 65279 0 0 65279 0 0 65279 0 0 65279 0 0 65279 0 0 65279 0 0 65279 0 0 65279 0 0 65279 0 0 65279 0 0 65279 0 0 65279 0 0 65279 0 0 65279 0 0 65279 0 0 65279 0 0 65279 0 0 65279 0 0 65279 0 0 65279 0 0 65279 0 0 65279 0 0 65279 0 0 65279 0 0 65279 0 0 65279 0 0 65279 0 0 65279 0 0 65279 0 0 65279 0 0 65279 0 0 65279 0 0 65279 0 0 65279 0 0 65279 0 0 65279 0 0 65279 0 0 65279 0 0 65279 0 0 65279 0 0 65279 0 0 65279 0 0 65279 0 0 65279 0 0 65279 0 0 65279 0 0 65279 0 0 65279 0 0 65279 0 0 65279 0 0 65279 0 0 65279 0 0 65279 0 0 65279 0 0 65279 0 0 65279 0 0 65279 0 0 65279 0 0 65279 0 0 65279 0 0 65279 0 0 65279 0 0 65279 0 0 65279 0 0 65279 0 0 65279 0 0 65279 0 0 65279 0 0 65279 0 0 65279 0 0 65279 0 0 65279 0 0 65279 0 0 65279 0 0 65279 0 0 65279 0 0 65279 0 0 65279 0 0 65279 0 0 65279 0 0 65279 0 0 65279 0 0 65279 0 0 65279 0 0 65279 0 0 65279 0 0 65279 0 0 65279 0 0 65279 0 0 65279 0 0 65279 0 0 65279 0 0 65279 0 0 65279 0 0 65279 0 0 65279 0 0 65279 0 0 65279 0 0 65279 0 0 65279 0 0 65279 0 0 65279 0 0 65279 0 0 65279 0 0 65279 0 0 65279 0 0 65279 0 0 65279 0 0 65279 0 0 65279 0 0 65279 0 0 65279 0 0 65279 0 0 65279 0 0 65279 0 0 65279 0 0 65279 0 0 65279 0 0 65279 0 0 65279 0 0 65279 0 0 65279 0 0 65279 0 0 65279 0 0 65279 0 0 65279 0 0 65279 0 0 65279 0 0 65279 0 0 65279 0 0 65279 0 0 65279 0 0 65279 0 0 65279 0 0 65279 0 0 65279 0 0 65279 0 0 65279 0 0 65279 0 0 65279 0 0 65279 0 0 65279 0 0 65279 0 0 65279 0 0 65279 0 0 65279 0 0 65279 0 0 65279 0 0 65279 0 0 65279 0 0 65279 0 0 65279 0 0 65279 0 0 65279 0 0 65279 0 0 65279 0 0 65279 0 0 65279 0 0 65279 0 0 65279 0 0 65279 0 0 65279 0 0 65279 0 0 65279 0 0 65279 0 0 65279 0 0 65279 0 0 65279 0 0 65279 0 0 65279 0 0 65279 0 0 65279 0 0 65279 0 0 65279 0 0 65279 0 0 65279 0 0 65279 0 0 65279 0 0 65279 0 0 65279 0 0 65279 0 0 65279 0 0 65279 0 0 65279 0 0 65279 0 0 65279 0 0 65279 0 0 65279 0 0 65279 0 0 65279 0 0 65279 0 0 65279 0 0 65279 0 0 65279 0 0 65279 0 0 65279 0 0 65279 0 0 65279 0 0 65279 0 0 65279 0 0 65279 0 0 65279 0 0 65279 0 0 65279 0 0 65279 0 0 65279 0 0 65279 0 0 65279 0 0 65279 0 0 65279 0 0 65279 0 0 65279 0 0 65279 0 0 65279 0 0 65279 0 0 65279 0 0 65279 0 0 65279 0 0 65279 0 0 65279 0 0 65279 0 0 65279 0 0 65279 0 0 65279 0 0 65279 0 0 65279 0 0 65279 0 0 65279 0 0 65279 0 0 65279 0 0 65279 0 0 65279 0 0 65279 0 0 65279 0 0 65279 0 0 65279 0 0 65279 0 0 65279 0 0 65279 0 0 65279 0 0 65279 0 0 65279 0 0 65279 0 0 65279 0 0 65279 0 0 65279 0 0 65279 0 0 65279 0 0 65279 0 0 65279 0 0 65279 0 0 65279 0 0 65279 0 0 65279 0 0 65279 0 0 65279 0 0 65279 0 0 65279 0 0 65279 0 0 65279 0 0 65279 0 0 65279 0 0 65279 0 0 65279 0 0 65279 0 0 65279 0 0 65279 0 0 65279 0 0 65279 0 0 65279 0 0 65279 0 0 65279 0 0 65279 0 0 65279 0 0 65279 0 0 65279 0 0 65279 0 0 65279 0 0 65279 0 0 65279 0 0 65279 0 0 65279 0 0 65279 0 0 65279 0 0 65279 0 0 65279 0 0 65279 0 0 65279 0 0 65279 0 0 65279 0 0 65279 0 0 65279 0 0 65279 0 0 65279 0 0 65279 0 0 65279 0 0 65279 0 0 65279 0 0 65279 0 0 65279 0 0 65279 0 0 65279 0 0 65279 0 0 65279 0 0 65279 0 0 65279 0 0 65279 0 0 65279 0 0 65279 0 0 65279 0 0 65279 0 0 65279 0 0 65279 0 0 65279 0 0 65279 0 0 65279 0 0 65279 0 0 65279 0 0 65279 0 0 65279 0 0 65279 0 0 65279 0 0 65279 0 0 65279 0 0 65279 0 0 65279 0 0 65279 0 0 65279 0 0 65279 0 0 65279 0 0 65279 0 0 65279 0 0 65279 0 0 65279 0 0 65279 0 0 65279 0 0 65279 0 0 65279 0 0 65279 0 0 65279 0 0 65279 0 0 65279 0 0 65279 0 0 65279 0 0 65279 0 0 65279 0 0 65279 0 0 65279 0 0 65279 0 0 65279 0 0 65279 0 0 65279 0 0 65279 0 0 65279 0 0 65279 0 0 65279 0 0 65279 0 0 65279 0 0 65279 0 0 65279 0 0 65279 0 0 65279 0 0 65279 0 0 65279 0 0 65279 0 0 65279 0 0 65279 0 0 65279 0 0 65279 0 0 65279 0 0 65279 0 0 65279 0 0 65279 0 0 65279 0 0 65279 0 0 65279 0 0 65279 0 0 65279 0 0 65279 0 0 65279 0 0 65279 0 0 65279 0 0 65279 0 0 65279 0 0 65279 0 0 65279 0 0 65279 0 0 65279 0 0 65279 0 0 65279 0 0 65279 0 0 65279 0 0 65279 0 0 65279 0 0 65279 0 0 65279 0 0 65279 0 0 65279 0 0 65279 0 0 65279 0 0 65279 0 0 65279 0 0 65279 0 0 65279 0 0 65279 0 0 65279 0 0 65279 0 0 65279 0 0 65279 0 0 65279 0 0 65279 0 0 65279 0 0 65279 0 0 65279 0 0 65279 0 0 65279 0 0 65279 0 0 65279 0 0 65279 0 0 65279 0 0 65279 0 0 65279 0 0 65279 0 0 65279 0 0 65279 0 0 65279 0 0 65279 0 0 65279 0 0 65279 0 0 65279 0 0 65279 0 0 65279 0 0 65279 0 0 65279 0 0 65279 0 0 65279 0 0 65279 0 0 65279 0 0 65279 0 0 65279 0 0 65279 0 0 65279 0 0 65279 0 0 65279 0 0 65279 0 0 65279 0 0 65279 0 0 65279 0 0 65279 0 0 65279 0 0 65279 0 0 65279 0 0 65279 0 0 65279 0 0 65279 0 0 65279 0 0 65279 0 0 65279 0 0 65279 0 0 65279 0 0 65279 0 0 65279 0 0 65279 0 0 65279 0 0 65279 0 0 65279 0 0 65279 0 0 65279 0 0 65279 0 0 65279 0 0 65279 0 0 65279 0 0 65279 0 0 65279 0 0 65279 0 0 65279 0 0 65279 0 0 65279 0 0 65279 0 0 65279 0 0 65279 0 0 65279 0 0 65279 0 0 65279 0 0 65279 0 0 65279 0 0 65279 0 0 65279 0 0 65279 0 0 65279 0 0 65279 0 0 65279 0 0 65279 0 0 65279 0 0 65279 0 0 65279 0 0 65279 0 0 65279 0 0 65279 0 0 65279 0 0 65279 0 0 65279 0 0 65279 0 0 65279 0 0 65279 0 0 65279 0 0 65279 0 0 65279 0 0 65279 0 0 65279 0 0 65279 0 0 65279 0 0 65279 0 0 65279 0 0 65279 0 0 65279 0 0 65279 0 0 65279 0 0 65279 0 0 65279 0 0 65279 0 0 65279 0 0 65279 0 0 65279 0 0 65279 0 0 65279 0 0 65279 0 0 65279 0 0 65279 0 0 65279 0 0 65279 0 0 65279 0 0 65279 0 0 65279 0 0 65279 0 0 65279 0 0 65279 0 0 65279 0 0 65279 0 0 65279 0 0 65279 0 0 65279 0 0 65279 0 0 65279 0 0 65279 0 0 65279 0 0 65279 0 0 65279 0 0 65279 0 0 65279 0 0 65279 0 0 65279 0 0 65279 0 0 65279 0 0 65279 0 0 65279 0 0 65279 0 0 65279 0 0 65279 0 0 65279 0 0 65279 0 0 65279 0 0 65279 0 0 65279 0 0 65279 0 0 65279 0 0 65279 0 0 65279 0 0 65279 0 0 65279 0 0 65279 0 0 65279 0 0 65279 0 0 65279 0 0 65279 0 0 65279 0 0 65279 0 0 65279 0 0 65279 0 0 65279 0 0 65279 0 0 65279 0 0 65279 0 0 65279 0 0 65279 0 0 65279 0 0 65279 0 0 65279 0 0 65279 0 0 65279 0 0 65279 0 0 65279 0 0 65279 0 0 65279 0 0 65279 0 0 65279 0 0 65279 0 0 65279 0 0 65279 0 0 65279 0 0 65279 0 0 65279 0 0 65279 0 0 65279 0 0 65279 0 0 65279 0 0 65279 0 0 65279 0 0 65279 0 0 65279 0 0 65279 0 0 65279 0 0 65279 0 0 65279 0 0 65279 0 0 65279 0 0 65279 0 0 65279 0 0 65279 0 0 65279 0 0 65279 0 0 65279 0 0 65279 0 0 65279 0 0 65279 0 0 65279 0 0 65279 0 0 65279 0 0 65279 0 0 65279 0 0 65279 0 0 65279 0 0 65279 0 0 65279 0 0 65279 0 0 65279 0 0 65279 0 0 65279 0 0 65279 0 0 65279 0 0 65279 0 0 65279 0 0 65279 0 0 65279 0 0 65279 0 0 65279 0 0 65279 0 0 65279 0 0 65279 0 0 65279 0 0 65279 0 0 65279 0 0 65279 0 0 65279 0 0 65279 0 0 65279 0 0 65279 0 0 65279 0 0 65279 0 0 65279 0 0 65279 0 0 65279 0 0 65279 0 0 65279 0 0 65279 0 0 65279 0 0 65279 0 0 65279 0 0 65279 0 0 65279 0 0 65279 0 0 65279 0 0 65279 0 0 65279 0 0 65279 0 0 65279 0 0 65279 0 0 65279 0 0 65279 0 0 65279 0 0 65279 0 0 65279 0 0 65279 0 0 65279 0 0 65279 0 0 65279 0 0 65279 0 0 65279 0 0 65279 0 0 65279 0 0 65279 0 0 65279 0 0 65279 0 0 65279 0 0 65279 0 0 65279 0 0 65279 0 0 65279 0 0 65279 0 0 65279 0 0 65279 0 0 65279 0 0 65279 0 0 65279 0 0 65279 0 0 65279 0 0 65279 0 0 65279 0 0 65279 0 0 65279 0 0 65279 0 0 65279 0 0 65279 0 0 65279 0 0 65279 0 0 65279 0 0 65279 0 0 65279 0 0 65279 0 0 65279 0 0 65279 0 0 65279 0 0 65279 0 0 65279 0 0 65279 0 0 65279 0 0 65279 0 0 65279 0 0 65279 0 0 65279 0 0 65279 0 0 65279 0 0 65279 0 0 65279 0 0 65279 0 0 65279 0 0 65279 0 0 65279 0 0 65279 0 0 65279 0 0 65279 0 0 65279 0 0 65279 0 0 65279 0 0 65279 0 0 65279 0 0 65279 0 0 65279 0 0 65279 0 0 65279 0 0 65279 0 0 65279 0 0 65279 0 0 65279 0 0 65279 0 0 65279 0 0 65279 0 0 65279 0 0 65279 0 0 65279 0 0 65279 0 0 65279 0 0 65279 0 0 65279 0 0 65279 0 0 65279 0 0 65279 0 0 65279 0 0 65279 0 0 65279 0 0 65279 0 0 65279 0 0 65279 0 0 65279 0 0 65279 0 0 65279 0 0 65279 0 0 65279 0 0 65279 0 0 65279 0 0 65279 0 0 65279 0 0 65279 0 0 65279 0 0 65279 0 0 65279 0 0 65279 0 0 65279 0 0 65279 0 0 65279 0 0 65279 0 0 65279 0 0 65279 0 0 65279 0 0 65279 0 0 65279 0 0 65279 0 0 65279 0 0 65279 0 0 65279 0 0 65279 0 0 65279 0 0 65279 0 0 65279 0 0 65279 0 0 65279 0 0 65279 0 0 65279 0 0 65279 0 0 65279 0 0 65279 0 0 65279 0 0 65279 0 0 65279 0 0 65279 0 0 65279 0 0 65279 0 0 65279 0 0 65279 0 0 65279 0 0 65279 0 0 65279 0 0 65279 0 0 65279 0 0 65279 0 0 65279 0 0 65279 0 0 65279 0 0 65279 0 0 65279 0 0 65279 0 0 65279 0 0 65279 0 0 65279 0 0 65279 0 0 65279 0 0 65279 0 0 65279 0 0 65279 0 0 65279 0 0 65279 0 0 65279 0 0 65279 0 0 65279 0 0 65279 0 0 65279 0 0 65279 0 0 65279 0 0 65279 0 0 65279 0 0 65279 0 0 65279 0 0 65279 0 0 65279 0 0 65279 0 0 65279 0 0 65279 0 0 65279 0 0 65279 0 0 65279 0 0 65279 0 0 65279 0 0 65279 0 0 65279 0 0 65279 0 0 65279 0 0 65279 0 0 65279 0 0 65279 0 0 65279 0 0 65279 0 0 65279 0 0 65279 0 0 65279 0 0 65279 0 0 65279 0 0 65279 0 0 65279 0 0 65279 0 0 65279 0 0 65279 0 0 65279 0 0 65279 0 0 65279 0 0 65279 0 0 65279 0 0 65279 0 0 65279 0 0 65279 0 0 65279 0 0 65279 0 0 65279 0 0 65279 0 0 65279 0 0 65279 0 0 65279 0 0 65279 0 0 65279 0 0 65279 0 0 65279 0 0 65279 0 0 65279 0 0 65279 0 0 65279 0 0 65279 0 0 65279 0 0 65279 0 0 65279 0 0 65279 0 0 65279 0 0 65279 0 0 65279 0 0 65279 0 0 65279 0 0 65279 0 0 65279 0 0 65279 0 0 65279 0 0 65279 0 0 65279 0 0 65279 0 0 65279 0 0 65279 0 0 65279 0 0 65279 0 0 65279 0 0 65279 0 0 65279 0 0 65279 0 0 65279 0 0 65279 0 0 65279 0 0 65279 0 0 65279 0 0 65279 0 0 65279 0 0 65279 0 0 65279 0 0 65279 0 0 65279 0 0 65279 0 0 65279 0 0 65279 0 0 65279 0 0 65279 0 0 65279 0 0 65279 0 0 65279 0 0 65279 0 0 65279 0 0 65279 0 0 65279 0 0 65279 0 0 65279 0 0 65279 0 0 65279 0 0 65279 0 0 65279 0 0 65279 0 0 65279 0 0 65279 0 0 65279 0 0 65279 0 0 65279 0 0 65279 0 0 65279 0 0 65279 0 0 65279 0 0 65279 0 0 65279 0 0 65279 0 0 65279 0 0 65279 0 0 65279 0 0 65279 0 0 65279 0 0 65279 0 0 65279 0 0 65279 0 0 65279 0 0 65279 0 0 65279 0 0 65279 0 0 65279 0 0 65279 0 0 65279 0 0 65279 0 0 65279 0 0 65279 0 0 65279 0 0 65279 0 0 65279 0 0 65279 0 0 65279 0 0 65279 0 0 65279 0 0 65279 0 0 65279 0 0 65279 0 0 65279 0 0 65279 0 0 65279 0 0 65279 0 0 65279 0 0 65279 0 0 65279 0 0 65279 0 0 65279 0 0 65279 0 0 65279 0 0 65279 0 0 65279 0 0 65279 0 0 65279 0 0 65279 0 0 65279 0 0 65279 0 0 65279 0 0 65279 0 0 65279 0 0 65279 0 0 65279 0 0 65279 0 0 65279 0 0 65279 0 0 65279 0 0 65279 0 0 65279 0 0 65279 0 0 65279 0 0 65279 0 0 65279 0 0 65279 0 0 65279 0 0 65279 0 0 65279 0 0 65279 0 0 65279 0 0 65279 0 0 65279 0 0 65279 0 0 65279 0 0 65279 0 0 65279 0 0 65279 0 0 65279 0 0 65279 0 0 65279 0 0 65279 0 0 65279 0 0 65279 0 0 65279 0 0 65279 0 0 65279 0 0 65279 0 0 65279 0 0 65279 0 0 65279 0 0 65279 0 0 65279 0 0 65279 0 0 65279 0 0 65279 0 0 65279 0 0 65279 0 0 65279 0 0 65279 0 0 65279 0 0 65279 0 0 65279 0 0 65279 0 0 65279 0 0 65279 0 0 65279 0 0 65279 0 0 65279 0 0 65279 0 0 65279 0 0 65279 0 0 65279 0 0 65279 0 0 65279 0 0 65279 0 0 65279 0 0 65279 0 0 65279 0 0 65279 0 0 65279 0 0 65279 0 0 65279 0 0 65279 0 0 65279 0 0 65279 0 0 65279 0 0 65279 0 0 65279 0 0 65279 0 0 65279 0 0 65279 0 0 65279 0 0 65279 0 0 65279 0 0 65279 0 0 65279 0 0 65279 0 0 65279 0 0 65279 0 0 65279 0 0 65279 0 0 65279 0 0 65279 0 0 65279 0 0 65279 0 0 65279 0 0 65279 0 0 65279 0 0 65279 0 0 65279 0 0 65279 0 0 65279 0 0 65279 0 0 65279 0 0 65279 0 0 65279 0 0 65279 0 0 65279 0 0 65279 0 0 65279 0 0 65279 0 0 65279 0 0 65279 0 0 65279 0 0 65279 0 0 65279 0 0 65279 0 0 65279 0 0 65279 0 0 65279 0 0 65279 0 0 65279 0 0 65279 0 0 65279 0 0 65279 0 0 65279 0 0 65279 0 0 65279 0 0 65279 0 0 65279 0 0 65279 0 0 65279 0 0 65279 0 0 65279 0 0 65279 0 0 65279 0 0 65279 0 0 65279 0 0 65279 0 0 65279 0 0 65279 0 0 65279 0 0 65279 0 0 65279 0 0 65279 0 0 65279 0 0 65279 0 0 65279 0 0 65279 0 0 65279 0 0 65279 0 0 65279 0 0 65279 0 0 65279 0 0 65279 0 0 65279 0 0 65279 0 0 65279 0 0 65279 0 0 65279 0 0 65279 0 0 65279 0 0 65279 0 0 65279 0 0 65279 0 0 65279 0 0 65279 0 0 65279 0 0 65279 0 0 65279 0 0 65279 0 0 65279 0 0 65279 0 0 65279 0 0 65279 0 0 65279 0 0 65279 0 0 65279 0 0 65279 0 0 65279 0 0 65279 0 0 65279 0 0 65279 0 0 65279 0 0 65279 0 0 65279 0 0 65279 0 0 65279 0 0 65279 0 0 65279 0 0 65279 0 0 65279 0 0 65279 0 0 65279 0 0 65279 0 0 65279 0 0 65279 0 0 65279 0 0 65279 0 0 65279 0 0 65279 0 0 65279 0 0 65279 0 0 65279 0 0 65279 0 0 65279 0 0 65279 0 0 65279 0 0 65279 0 0 65279 0 0 65279 0 0 65279 0 0 65279 0 0 65279 0 0 65279 0 0 65279 0 0 65279 0 0 65279 0 0 65279 0 0 65279 0 0 65279 0 0 65279 0 0 65279 0 0 65279 0 0 65279 0 0 65279 0 0 65279 0 0 65279 0 0 65279 0 0 65279 0 0 65279 0 0 65279 0 0 65279 0 0 65279 0 0 65279 0 0 65279 0 0 65279 0 0 65279 0 0 65279 0 0 65279 0 0 65279 0 0 65279 0 0 65279 0 0 65279 0 0 65279 0 0 65279 0 0 65279 0 0 65279 0 0 65279 0 0 65279 0 0 65279 0 0 65279 0 0 65279 0 0 65279 0 0 65279 0 0 65279 0 0 65279 0 0 65279 0 0 65279 0 0 65279 0 0 65279 0 0 65279 0 0 65279 0 0 65279 0 0 65279 0 0 65279 0 0 65279 0 0 65279 0 0 65279 0 0 65279 0 0 65279 0 0 65279 0 0 65279 0 0 65279 0 0 65279 0 0 65279 0 0 65279 0 0 65279 0 0 65279 0 0 65279 0 0 65279 0 0 65279 0 0 65279 0 0 65279 0 0 65279 0 0 65279 0 0 65279 0 0 65279 0 0 65279 0 0 65279 0 0 65279 0 0 65279 0 0 65279 0 0 65279 0 0 65279 0 0 65279 0 0 65279 0 0 65279 0 0 65279 0 0 65279 0 0 65279 0 0 65279 0 0 65279 0 0 65279 0 0 65279 0 0 65279 0 0 65279 0 0 65279 0 0 65279 0 0 65279 0 0 65279 0 0 65279 0 0 65279 0 0 65279 0 0 65279 0 0 65279 0 0 65279 0 0 65279 0 0 65279 0 0 65279 0 0 65279 0 0 65279 0 0 65279 0 0 65279 0 0 65279 0 0 65279 0 0 65279 0 0 65279 0 0 65279 0 0 65279 0 0 65279 0 0 65279 0 0 65279 0 0 65279 0 0 65279 0 0 65279 0 0 65279 0 0 65279 0 0 65279 0 0 65279 0 0 65279 0 0 65279 0 0 65279 0 0 65279 0 0 65279 0 0 65279 0 0 65279 0 0 65279 0 0 65279 0 0 65279 0 0 65279 0 0 65279 0 0 65279 0 0 65279 0 0 65279 0 0 65279 0 0 65279 0 0 65279 0 0 65279 0 0 65279 0 0 65279 0 0 65279 0 0 65279 0 0 65279 0 0 65279 0 0 65279 0 0 65279 0 0 65279 0 0 65279 0 0 65279 0 0 65279 0 0 65279 0 0 65279 0 0 65279 0 0 65279 0 0 65279 0 0 65279 0 0 65279 0 0 65279 0 0 65279 0 0 65279 0 0 65279 0 0 65279 0 0 65279 0 0 65279 0 0 65279 0 0 65279 0 0 65279 0 0 65279 0 0 65279 0 0 65279 0 0 65279 0 0 65279 0 0 65279 0 0 65279 0 0 65279 0 0 65279 0 0 65279 0 0 65279 0 0 65279 0 0 65279 0 0 65279 0 0 65279 0 0 65279 0 0 65279 0 0 65279 0 0 65279 0 0 65279 0 0 65279 0 0 65279 0 0 65279 0 0 65279 0 0 65279 0 0 65279 0 0 65279 0 0 65279 0 0 65279 0 0 65279 0 0 65279 0 0 65279 0 0 65279 0 0 65279 0 0 65279 0 0 65279 0 0 65279 0 0 65279 0 0 65279 0 0 65279 0 0 65279 0 0 65279 0 0 65279 0 0 65279 0 0 65279 0 0 65279 0 0 65279 0 0 65279 0 0 65279 0 0 65279 0 0 65279 0 0 65279 0 0 65279 0 0 65279 0 0 65279 0 0 65279 0 0 65279 0 0 65279 0 0 65279 0 0 65279 0 0 65279 0 0 65279 0 0 65279 0 0 65279 0 0 65279 0 0 65279 0 0 65279 0 0 65279 0 0 65279 0 0 65279 0 0 65279 0 0 65279 0 0 65279 0 0 65279 0 0 65279 0 0 65279 0 0 65279 0 0 65279 0 0 65279 0 0 65279 0 0 65279 0 0 65279 0 0 65279 0 0 65279 0 0 65279 0 0 65279 0 0 65279 0 0 65279 0 0 65279 0 0 65279 0 0 65279 0 0 65279 0 0 65279 0 0 65279 0 0 65279 0 0 65279 0 0 65279 0 0 65279 0 0 65279 0 0 65279 0 0 65279 0 0 65279 0 0 65279 0 0 65279 0 0 65279 0 0 65279 0 0 65279 0 0 65279 0 0 65279 0 0 65279 0 0 65279 0 0 65279 0 0 65279 0 0 65279 0 0 65279 0 0 65279 0 0 65279 0 0 65279 0 0 65279 0 0 65279 0 0 65279 0 0 65279 0 0 65279 0 0 65279 0 0 65279 0 0 65279 0 0 65279 0 0 65279 0 0 65279 0 0 65279 0 0 65279 0 0 65279 0 0 65279 0 0 65279 0 0 65279 0 0 65279 0 0 65279 0 0 65279 0 0 65279 0 0 65279 0 0 65279 0 0 65279 0 0 65279 0 0 65279 0 0 65279 0 0 65279 0 0 65279 0 0 65279 0 0 65279 0 0 65279 0 0 65279 0 0 65279 0 0 65279 0 0 65279 0 0 65279 0 0 65279 0 0 65279 0 0 65279 0 0 65279 0 0 65279 0 0 65279 0 0 65279 0 0 65279 0 0 65279 0 0 65279 0 0 65279 0 0 65279 0 0 65279 0 0 65279 0 0 65279 0 0 65279 0 0 65279 0 0 65279 0 0 65279 0 0 65279 0 0 65279 0 0 65279 0 0 65279 0 0 65279 0 0 65279 0 0 65279 0 0 65279 0 0 65279 0 0 65279 0 0 65279 0 0 65279 0 0 65279 0 0 65279 0 0 65279 0 0 65279 0 0 65279 0 0 65279 0 0 65279 0 0 65279 0 0 65279 0 0 65279 0 0 65279 0 0 65279 0 0 65279 0 0 65279 0 0 65279 0 0 65279 0 0 65279 0 0 65279 0 0 65279 0 0 65279 0 0 65279 0 0 65279 0 0 65279 0 0 65279 0 0 65279 0 0 65279 0 0 65279 0 0 65279 0 0 65279 0 0 65279 0 0 65279 0 0 65279 0 0 65279 0 0 65279 0 0 65279 0 0 65279 0 0 65279 0 0 65279 0 0 65279 0 0 65279 0 0 65279 0 0 65279 0 0 65279 0 0 65279 0 0 65279 0 0 65279 0 0 65279 0 0 65279 0 0 65279 0 0 65279 0 0 65279 0 0 65279 0 0 65279 0 0 65279 0 0 65279 0 0 65279 0 0 65279 0 0 65279 0 0 65279 0 0 65279 0 0 65279 0 0 65279 0 0 65279 0 0 65279 0 0 65279 0 0 65279 0 0 65279 0 0 65279 0 0 65279 0 0 65279 0 0 65279 0 0 65279 0 0 65279 0 0 65279 0 0 65279 0 0 65279 0 0 65279 0 0 65279 0 0 65279 0 0 65279 0 0 65279 0 0 65279 0 0 65279 0 0 65279 0 0 65279 0 0 65279 0 0 65279 0 0 65279 0 0 65279 0 0 65279 0 0 65279 0 0 65279 0 0 65279 0 0 65279 0 0 65279 0 0 65279 0 0 65279 0 0 65279 0 0 65279 0 0 65279 0 0 65279 0 0 65279 0 0 65279 0 0 65279 0 0 65279 0 0 65279 0 0 65279 0 0 65279 0 0 65279 0 0 65279 0 0 65279 0 0 65279 0 0 65279 0 0 65279 0 0 65279 0 0 65279 0 0 65279 0 0 65279 0 0 65279 0 0 65279 0 0 65279 0 0 65279 0 0 65279 0 0 65279 0 0 65279 0 0 65279 0 0 65279 0 0 65279 0 0 65279 0 0 65279 0 0 65279 0 0 65279 0 0 65279 0 0 65279 0 0 65279 0 0 65279 0 0 65279 0 0 65279 0 0 65279 0 0 65279 0 0 65279 0 0 65279 0 0 65279 0 0 65279 0 0 65279 0 0 65279 0 0 65279 0 0 65279 0 0 65279 0 0 65279 0 0 65279 0 0 65279 0 0 65279 0 0 65279 0 0 65279 0 0 65279 0 0 65279 0 0 65279 0 0 65279 0 0 65279 0 0 65279 0 0 65279 0 0 65279 0 0 65279 0 0 65279 0 0 65279 0 0 65279 0 0 65279 0 0 65279 0 0 65279 0 0 65279 0 0 65279 0 0 65279 0 0 65279 0 0 65279 0 0 65279 0 0 65279 0 0 65279 0 0 65279 0 0 65279 0 0 65279 0 0 65279 0 0 65279 0 0 65279 0 0 65279 0 0 65279 0 0 65279 0 0 65279 0 0 65279 0 0 65279 0 0 65279 0 0 65279 0 0 65279 0 0 65279 0 0 65279 0 0 65279 0 0 65279 0 0 65279 0 0 65279 0 0 65279 0 0 65279 0 0 65279 0 0 65279 0 0 65279 0 0 65279 0 0 65279 0 0 65279 0 0 65279 0 0 65279 0 0 65279 0 0 65279 0 0 65279 0 0 65279 0 0 65279 0 0 65279 0 0 65279 0 0 65279 0 0 65279 0 0 65279 0 0 65279 0 0 65279 0 0 65279 0 0 65279 0 0 65279 0 0 65279 0 0 65279 0 0 65279 0 0 65279 0 0 65279 0 0 65279 0 0 65279 0 0 65279 0 0 65279 0 0 65279 0 0 65279 0 0 65279 0 0 65279 0 0 65279 0 0 65279 0 0 65279 0 0 65279 0 0 65279 0 0 65279 0 0 65279 0 0 65279 0 0 65279 0 0 65279 0 0 65279 0 0 65279 0 0 65279 0 0 65279 0 0 65279 0 0 65279 0 0 65279 0 0 65279 0 0 65279 0 0 65279 0 0 65279 0 0 65279 0 0 65279 0 0 65279 0 0 65279 0 0 65279 0 0 65279 0 0 65279 0 0 65279 0 0 65279 0 0 65279 0 0 65279 0 0 65279 0 0 65279 0 0 65279 0 0 65279 0 0 65279 0 0 65279 0 0 65279 0 0 65279 0 0 65279 0 0 65279 0 0 65279 0 0 65279 0 0 65279 0 0 65279 0 0 65279 0 0 65279 0 0 65279 0 0 65279 0 0 65279 0 0 65279 0 0 65279 0 0 65279 0 0 65279 0 0 65279 0 0 65279 0 0 65279 0 0 65279 0 0 65279 0 0 65279 0 0 65279 0 0 65279 0 0 65279 0 0 65279 0 0 65279 0 0 65279 0 0 65279 0 0 65279 0 0 65279 0 0 65279 0 0 65279 0 0 65279 0 0 65279 0 0 65279 0 0 65279 0 0 65279 0 0 65279 0 0 65279 0 0 65279 0 0 65279 0 0 65279 0 0 65279 0 0 65279 0 0 65279 0 0 65279 0 0 65279 0 0 65279 0 0 65279 0 0 65279 0 0 65279 0 0 65279 0 0 65279 0 0 65279 0 0 65279 0 0 65279 0 0 65279 0 0 65279 0 0 65279 0 0 65279 0 0 65279 0 0 65279 0 0 65279 0 0 65279 0 0 65279 0 0 65279 0 0 65279 0 0 65279 0 0 65279 0 0 65279 0 0 65279 0 0 65279 0 0 65279 0 0 65279 0 0 65279 0 0 65279 0 0 65279 0 0 65279 0 0 65279 0 0 65279 0 0 65279 0 0 65279 0 0 65279 0 0 65279 0 0 65279 0 0 65279 0 0 65279 0 0 65279 0 0 65279 0 0 65279 0 0 65279 0 0 65279 0 0 65279 0 0 65279 0 0 65279 0 0 65279 0 0 65279 0 0 65279 0 0 65279 0 0 65279 0 0 65279 0 0 65279 0 0 65279 0 0 65279 0 0 65279 0 0 65279 0 0 65279 0 0 65279 0 0 65279 0 0 65279 0 0 65279 0 0 65279 0 0 65279 0 0 65279 0 0 65279 0 0 65279 0 0 65279 0 0 65279 0 0 65279 0 0 65279 0 0 65279 0 0 65279 0 0 65279 0 0 65279 0 0 65279 0 0 65279 0 0 65279 0 0 65279 0 0 65279 0 0 65279 0 0 65279 0 0 65279 0 0 65279 0 0 65279 0 0 65279 0 0 65279 0 0 65279 0 0 65279 0 0 65279 0 0 65279 0 0 65279 0 0 65279 0 0 65279 0 0 65279 0 0 65279 0 0 65279 0 0 65279 0 0 65279 0 0 65279 0 0 65279 0 0 65279 0 0 65279 0 0 65279 0 0 65279 0 0 65279 0 0 65279 0 0 65279 0 0 65279 0 0 65279 0 0 65279 0 0 65279 0 0 65279 0 0 65279 0 0 65279 0 0 65279 0 0 65279 0 0 65279 0 0 65279 0 0 65279 0 0 65279 0 0 65279 0 0 65279 0 0 65279 0 0 65279 0 0 65279 0 0 65279 0 0 65279 0 0 65279 0 0 65279 0 0 65279 0 0 65279 0 0 65279 0 0 65279 0 0 65279 0 0 65279 0 0 65279 0 0 65279 0 0 65279 0 0 65279 0 0 65279 0 0 65279 0 0 65279 0 0 65279 0 0 65279 0 0 65279 0 0 65279 0 0 65279 0 0 65279 0 0 65279 0 0 65279 0 0 65279 0 0 65279 0 0 65279 0 0 65279 0 0 65279 0 0 65279 0 0 65279 0 0 65279 0 0 65279 0 0 65279 0 0 65279 0 0 65279 0 0 65279 0 0 65279 0 0 65279 0 0 65279 0 0 65279 0 0 65279 0 0 65279 0 0 65279 0 0 65279 0 0 65279 0 0 65279 0 0 65279 0 0 65279 0 0 65279 0 0 65279 0 0 65279 0 0 65279 0 0 65279 0 0 65279 0 0 65279 0 0 65279 0 0 65279 0 0 65279 0 0 65279 0 0 65279 0 0 65279 0 0 65279 0 0 65279 0 0 65279 0 0 65279 0 0 65279 0 0 65279 0 0 65279 0 0 65279 0 0 65279 0 0 65279 0 0 65279 0 0 65279 0 0 65279 0 0 65279 0 0 65279 0 0 65279 0 0 65279 0 0 65279 0 0 65279 0 0 65279 0 0 65279 0 0 65279 0 0 65279 0 0 65279 0 0 65279 0 0 65279 0 0 65279 0 0 65279 0 0 65279 0 0 65279 0 0 65279 0 0 65279 0 0 65279 0 0 65279 0 0 65279 0 0 65279 0 0 65279 0 0 65279 0 0 65279 0 0 65279 0 0 65279 0 0 65279 0 0 65279 0 0 65279 0 0 65279 0 0 65279 0 0 65279 0 0 65279 0 0 65279 0 0 65279 0 0 65279 0 0 65279 0 0 65279 0 0 65279 0 0 65279 0 0 65279 0 0 65279 0 0 65279 0 0 65279 0 0 65279 0 0 65279 0 0 65279 0 0 65279 0 0 65279 0 0 65279 0 0 65279 0 0 65279 0 0 65279 0 0 65279 0 0 65279 0 0 65279 0 0 65279 0 0 65279 0 0 65279 0 0 65279 0 0 65279 0 0 65279 0 0 65279 0 0 65279 0 0 65279 0 0 65279 0 0 65279 0 0 65279 0 0 65279 0 0 65279 0 0 65279 0 0 65279 0 0 65279 0 0 65279 0 0 65279 0 0 65279 0 0 65279 0 0 65279 0 0 65279 0 0 65279 0 0 65279 0 0 65279 0 0 65279 0 0 65279 0 0 65279 0 0 65279 0 0 65279 0 0 65279 0 0 65279 0 0 65279 0 0 65279 0 0 65279 0 0 65279 0 0 65279 0 0 65279 0 0 65279 0 0 65279 0 0 65279 0 0 65279 0 0 65279 0 0 65279 0 0 65279 0 0 65279 0 0 65279 0 0 65279 0 0 65279 0 0 65279 0 0 65279 0 0 65279 0 0 65279 0 0 65279 0 0 65279 0 0 65279 0 0 65279 0 0 65279 0 0 65279 0 0 65279 0 0 65279 0 0 65279 0 0 65279 0 0 65279 0 0 65279 0 0 65279 0 0 65279 0 0 65279 0 0 65279 0 0 65279 0 0 65279 0 0 65279 0 0 65279 0 0 65279 0 0 65279 0 0 65279 0 0 65279 0 0 65279 0 0 65279 0 0 65279 0 0 65279 0 0 65279 0 0 65279 0 0 65279 0 0 65279 0 0 65279 0 0 65279 0 0 65279 0 0 65279 0 0 65279 0 0 65279 0 0 65279 0 0 65279 0 0 65279 0 0 65279 0 0 65279 0 0 65279 0 0 65279 0 0 65279 0 0 65279 0 0 65279 0 0 65279 0 0 65279 0 0 65279 0 0 65279 0 0 65279 0 0 65279 0 0 65279 0 0 65279 0 0 65279 0 0 65279 0 0 65279 0 0 65279 0 0 65279 0 0 65279 0 0 65279 0 0 65279 0 0 65279 0 0 65279 0 0 65279 0 0 65279 0 0 65279 0 0 65279 0 0 65279 0 0 65279 0 0 65279 0 0 65279 0 0 65279 0 0 65279 0 0 65279 0 0 65279 0 0 65279 0 0 65279 0 0 65279 0 0 65279 0 0 65279 0 0 65279 0 0 65279 0 0 65279 0 0 65279 0 0 65279 0 0 65279 0 0 65279 0 0 65279 0 0 65279 0 0 65279 0 0 65279 0 0 65279 0 0 65279 0 0 65279 0 0 65279 0 0 65279 0 0 65279 0 0 65279 0 0 65279 0 0 65279 0 0 65279 0 0 65279 0 0 65279 0 0 65279 0 0 65279 0 0 65279 0 0 65279 0 0 65279 0 0 65279 0 0 65279 0 0 65279 0 0 65279 0 0 65279 0 0 65279 0 0 65279 0 0 65279 0 0 65279 0 0 65279 0 0 65279 0 0 65279 0 0 65279 0 0 65279 0 0 65279 0 0 65279 0 0 65279 0 0 65279 0 0 65279 0 0 65279 0 0 65279 0 0 65279 0 0 65279 0 0 65279 0 0 65279 0 0 65279 0 0 65279 0 0 65279 0 0 65279 0 0 65279 0 0 65279 0 0 65279 0 0 65279 0 0 65279 0 0 65279 0 0 65279 0 0 65279 0 0 65279 0 0 65279 0 0 65279 0 0 65279 0 0 65279 0 0 65279 0 0 65279 0 0 65279 0 0 65279 0 0 65279 0 0 65279 0 0 65279 0 0 65279 0 0 65279 0 0 65279 0 0 65279 0 0 65279 0 0 65279 0 0 65279 0 0 65279 0 0 65279 0 0 65279 0 0 65279 0 0 65279 0 0 65279 0 0 65279 0 0 65279 0 0 65279 0 0 65279 0 0 65279 0 0 65279 0 0 65279 0 0 65279 0 0 65279 0 0 65279 0 0 65279 0 0 65279 0 0 65279 0 0 65279 0 0 65279 0 0 65279 0 0 65279 0 0 65279 0 0 65279 0 0 65279 0 0 65279 0 0 65279 0 0 65279 0 0 65279 0 0 65279 0 0 65279 0 0 65279 0 0 65279 0 0 65279 0 0 65279 0 0 65279 0 0 65279 0 0 65279 0 0 65279 0 0 65279 0 0 65279 0 0 65279 0 0 65279 0 0 65279 0 0 65279 0 0 65279 0 0 65279 0 0 65279 0 0 65279 0 0 65279 0 0 65279 0 0 65279 0 0 65279 0 0 65279 0 0 65279 0 0 65279 0 0 65279 0 0 65279 0 0 65279 0 0 65279 0 0 65279 0 0 65279 0 0 65279 0 0 65279 0 0 65279 0 0 65279 0 0 65279 0 0 65279 0 0 65279 0 0 65279 0 0 65279 0 0 65279 0 0 65279 0 0 65279 0 0 65279 0 0 65279 0 0 65279 0 0 65279 0 0 65279 0 0 65279 0 0 65279 0 0 65279 0 0 65279 0 0 65279 0 0 65279 0 0 65279 0 0 65279 0 0 65279 0 0 65279 0 0 65279 0 0 65279 0 0 65279 0 0 65279 0 0 65279 0 0 65279 0 0 65279 0 0 65279 0 0 65279 0 0 65279 0 0 65279 0 0 65279 0 0 65279 0 0 65279 0 0 65279 0 0 65279 0 0 65279 0 0 65279 0 0 65279 0 0 65279 0 0 65279 0 0 65279 0 0 65279 0 0 65279 0 0 65279 0 0 65279 0 0 65279 0 0 65279 0 0 65279 0 0 65279 0 0 65279 0 0 65279 0 0 65279 0 0 65279 0 0 65279 0 0 65279 0 0 65279 0 0 65279 0 0 65279 0 0 65279 0 0 65279 0 0 65279 0 0 65279 0 0 65279 0 0 65279 0 0 65279 0 0 65279 0 0 65279 0 0 65279 0 0 65279 0 0 65279 0 0 65279 0 0 65279 0 0 65279 0 0 65279 0 0 65279 0 0 65279 0 0 65279 0 0 65279 0 0 65279 0 0 65279 0 0 65279 0 0 65279 0 0 65279 0 0 65279 0 0 65279 0 0 65279 0 0 65279 0 0 65279 0 0 65279 0 0 65279 0 0 65279 0 0 65279 0 0 65279 0 0 65279 0 0 65279 0 0 65279 0 0 65279 0 0 65279 0 0 65279 0 0 65279 0 0 65279 0 0 65279 0 0 65279 0 0 65279 0 0 65279 0 0 65279 0 0 65279 0 0 65279 0 0 65279 0 0 65279 0 0 65279 0 0 65279 0 0 65279 0 0 65279 0 0 65279 0 0 65279 0 0 65279 0 0 65279 0 0 65279 0 0 65279 0 0 65279 0 0 65279 0 0 65279 0 0 65279 0 0 65279 0 0 65279 0 0 65279 0 0 65279 0 0 65279 0 0 65279 0 0 65279 0 0 65279 0 0 65279 0 0 65279 0 0 65279 0 0 65279 0 0 65279 0 0 65279 0 0 65279 0 0 65279 0 0 65279 0 0 65279 0 0 65279 0 0 65279 0 0 65279 0 0 65279 0 0 65279 0 0 65279 0 0 65279 0 0 65279 0 0 65279 0 0 65279 0 0 65279 0 0 65279 0 0 65279 0 0 65279 0 0 65279 0 0 65279 0 0 65279 0 0 65279 0 0 65279 0 0 65279 0 0 65279 0 0 65279 0 0 65279 0 0 65279 0 0 65279 0 0 65279 0 0 65279 0 0 65279 0 0 65279 0 0 65279 0 0 65279 0 0 65279 0 0 65279 0 0 65279 0 0 65279 0 0 65279 0 0 65279 0 0 65279 0 0 65279 0 0 65279 0 0 65279 0 0 65279 0 0 65279 0 0 65279 0 0 65279 0 0 65279 0 0 65279 0 0 65279 0 0 65279 0 0 65279 0 0 65279 0 0 65279 0 0 65279 0 0 65279 0 0 65279 0 0 65279 0 0 65279 0 0 65279 0 0 65279 0 0 65279 0 0 65279 0 0 65279 0 0 65279 0 0 65279 0 0 65279 0 0 65279 0 0 65279 0 0 65279 0 0 65279 0 0 65279 0 0 65279 0 0 65279 0 0 65279 0 0 65279 0 0 65279 0 0 65279 0 0 65279 0 0 65279 0 0 65279 0 0 65279 0 0 65279 0 0 65279 0 0 65279 0 0 65279 0 0 65279 0 0 65279 0 0 65279 0 0 65279 0 0 65279 0 0 65279 0 0 65279 0 0 65279 0 0 65279 0 0 65279 0 0 65279 0 0 65279 0 0 65279 0 0 65279 0 0 65279 0 0 65279 0 0 65279 0 0 65279 0 0 65279 0 0 65279 0 0 65279 0 0 65279 0 0 65279 0 0 65279 0 0 65279 0 0 65279 0 0 65279 0 0 65279 0 0 65279 0 0 65279 0 0 65279 0 0 65279 0 0 65279 0 0 65279 0 0 65279 0 0 65279 0 0 65279 0 0 65279 0 0 65279 0 0 65279 0 0 65279 0 0 65279 0 0 65279 0 0 65279 0 0 65279 0 0 65279 0 0 65279 0 0 65279 0 0 65279 0 0 65279 0 0 65279 0 0 65279 0 0 65279 0 0 65279 0 0 65279 0 0 65279 0 0 65279 0 0 65279 0 0 65279 0 0 65279 0 0 65279 0 0 65279 0 0 65279 0 0 65279 0 0 65279 0 0 65279 0 0 65279 0 0 65279 0 0 65279 0 0 65279 0 0 65279 0 0 65279 0 0 65279 0 0 65279 0 0 65279 0 0 65279 0 0 65279 0 0 65279 0 0 65279 0 0 65279 0 0 65279 0 0 65279 0 0 65279 0 0 65279 0 0 65279 0 0 65279 0 0 65279 0 0 65279 0 0 65279 0 0 65279 0 0 65279 0 0 65279 0 0 65279 0 0 65279 0 0 65279 0 0 65279 0 0 65279 0 0 65279 0 0 65279 0 0 65279 0 0 65279 0 0 65279 0 0 65279 0 0 65279 0 0 65279 0 0 65279 0 0 65279 0 0 65279 0 0 65279 0 0 65279 0 0 65279 0 0 65279 0 0 65279 0 0 65279 0 0 65279 0 0 65279 0 0 65279 0 0 65279 0 0 65279 0 0 65279 0 0 65279 0 0 65279 0 0 65279 0 0 65279 0 0 65279 0 0 65279 0 0 65279 0 0 65279 0 0 65279 0 0 65279 0 0 65279 0 0 65279 0 0 65279 0 0 65279 0 0 65279 0 0 65279 0 0 65279 0 0 65279 0 0 65279 0 0 65279 0 0 65279 0 0 65279 0 0 65279 0 0 65279 0 0 65279 0 0 65279 0 0 65279 0 0 65279 0 0 65279 0 0 65279 0 0 65279 0 0 65279 0 0 65279 0 0 65279 0 0 65279 0 0 65279 0 0 65279 0 0 65279 0 0 65279 0 0 65279 0 0 65279 0 0 65279 0 0 65279 0 0 65279 0 0 65279 0 0 65279 0 0 65279 0 0 65279 0 0 65279 0 0 65279 0 0 65279 0 0 65279 0 0 65279 0 0 65279 0 0 65279 0 0 65279 0 0 65279 0 0 65279 0 0 65279 0 0 65279 0 0 65279 0 0 65279 0 0 65279 0 0 65279 0 0 65279 0 0 65279 0 0 65279 0 0 65279 0 0 65279 0 0 65279 0 0 65279 0 0 65279 0 0 65279 0 0 65279 0 0 65279 0 0 65279 0 0 65279 0 0 65279 0 0 65279 0 0 65279 0 0 65279 0 0 65279 0 0 65279 0 0 65279 0 0 65279 0 0 65279 0 0 65279 0 0 65279 0 0 65279 0 0 65279 0 0 65279 0 0 65279 0 0 65279 0 0 65279 0 0 65279 0 0 65279 0 0 65279 0 0 65279 0 0 65279 0 0 65279 0 0 65279 0 0 65279 0 0 65279 0 0 65279 0 0 65279 0 0 65279 0 0 65279 0 0 65279 0 0 65279 0 0 65279 0 0 65279 0 0 65279 0 0 65279 0 0 65279 0 0 65279 0 0 65279 0 0 65279 0 0 65279 0 0 65279 0 0 65279 0 0 65279 0 0 65279 0 0 65279 0 0 65279 0 0 65279 0 0 65279 0 0 65279 0 0 65279 0 0 65279 0 0 65279 0 0 65279 0 0 65279 0 0 65279 0 0 65279 0 0 65279 0 0 65279 0 0 65279 0 0 65279 0 0 65279 0 0 65279 0 0 65279 0 0 65279 0 0 65279 0 0 65279 0 0 65279 0 0 65279 0 0 65279 0 0 65279 0 0 65279 0 0 65279 0 0 65279 0 0 65279 0 0 65279 0 0 65279 0 0 65279 0 0 65279 0 0 65279 0 0 65279 0 0 65279 0 0 65279 0 0 65279 0 0 65279 0 0 65279 0 0 65279 0 0 65279 0 0 65279 0 0 65279 0 0 65279 0 0 65279 0 0 65279 0 0 65279 0 0 65279 0 0 65279 0 0 65279 0 0 65279 0 0 65279 0 0 65279 0 0 65279 0 0 65279 0 0 65279 0 0 65279 0 0 65279 0 0 65279 0 0 65279 0 0 65279 0 0 65279 0 0 65279 0 0 65279 0 0 65279 0 0 65279 0 0 65279 0 0 65279 0 0 65279 0 0 65279 0 0 65279 0 0 65279 0 0 65279 0 0 65279 0 0 65279 0 0 65279 0 0 65279 0 0 65279 0 0 65279 0 0 65279 0 0 65279 0 0 65279 0 0 65279 0 0 65279 0 0 65279 0 0 65279 0 0 65279 0 0 65279 0 0 65279 0 0 65279 0 0 65279 0 0 65279 0 0 65279 0 0 65279 0 0 65279 0 0 65279 0 0 65279 0 0 65279 0 0 65279 0 0 65279 0 0 65279 0 0 65279 0 0 65279 0 0 65279 0 0 65279 0 0 65279 0 0 65279 0 0 65279 0 0 65279 0 0 65279 0 0 65279 0 0 65279 0 0 65279 0 0 65279 0 0 65279 0 0 65279 0 0 65279 0 0 65279 0 0 65279 0 0 65279 0 0 65279 0 0 65279 0 0 65279 0 0 65279 0 0 65279 0 0 65279 0 0 65279 0 0 65279 0 0 65279 0 0 65279 0 0 65279 0 0 65279 0 0 65279 0 0 65279 0 0 65279 0 0 65279 0 0 65279 0 0 65279 0 0 65279 0 0 65279 0 0 65279 0 0 65279 0 0 65279 0 0 65279 0 0 65279 0 0 65279 0 0 65279 0 0 65279 0 0 65279 0 0 65279 0 0 65279 0 0 65279 0 0 65279 0 0 65279 0 0 65279 0 0 65279 0 0 65279 0 0 65279 0 0 65279 0 0 65279 0 0 65279 0 0 65279 0 0 65279 0 0 65279 0 0 65279 0 0 65279 0 0 65279 0 0 65279 0 0 65279 0 0 65279 0 0 65279 0 0 65279 0 0 65279 0 0 65279 0 0 65279 0 0 65279 0 0 65279 0 0 65279 0 0 65279 0 0 65279 0 0 65279 0 0 65279 0 0 65279 0 0 65279 0 0 65279 0 0 65279 0 0 65279 0 0 65279 0 0 65279 0 0 65279 0 0 65279 0 0 65279 0 0 65279 0 0 65279 0 0 65279 0 0 65279 0 0 65279 0 0 65279 0 0 65279 0 0 65279 0 0 65279 0 0 65279 0 0 65279 0 0 65279 0 0 65279 0 0 65279 0 0 65279 0 0 65279 0 0 65279 0 0 65279 0 0 65279 0 0 65279 0 0 65279 0 0 65279 0 0 65279 0 0 65279 0 0 65279 0 0 65279 0 0 65279 0 0 65279 0 0 65279 0 0 65279 0 0 65279 0 0 65279 0 0 65279 0 0 65279 0 0 65279 0 0 65279 0 0 65279 0 0 65279 0 0 65279 0 0 65279 0 0 65279 0 0 65279 0 0 65279 0 0 65279 0 0 65279 0 0 65279 0 0 65279 0 0 65279 0 0 65279 0 0 65279 0 0 65279 0 0 65279 0 0 65279 0 0 65279 0 0 65279 0 0 65279 0 0 65279 0 0 65279 0 0 65279 0 0 65279 0 0 65279 0 0 65279 0 0 65279 0 0 65279 0 0 65279 0 0 65279 0 0 65279 0 0 65279 0 0 65279 0 0 65279 0 0 65279 0 0 65279 0 0 65279 0 0 65279 0 0 65279 0 0 65279 0 0 65279 0 0 65279 0 0 65279 0 0 65279 0 0 65279 0 0 65279 0 0 65279 0 0 65279 0 0 65279 0 0 65279 0 0 65279 0 0 65279 0 0 65279 0 0 65279 0 0 65279 0 0 65279 0 0 65279 0 0 65279 0 0 65279 0 0 65279 0 0 65279 0 0 65279 0 0 65279 0 0 65279 0 0 65279 0 0 65279 0 0 65279 0 0 65279 0 0 65279 0 0 65279 0 0 65279 0 0 65279 0 0 65279 0 0 65279 0 0 65279 0 0 65279 0 0 65279 0 0 65279 0 0 65279 0 0 65279 0 0 65279 0 0 65279 0 0 65279 0 0 65279 0 0 65279 0 0 65279 0 0 65279 0 0 65279 0 0 65279 0 0 65279 0 0 65279 0 0 65279 0 0 65279 0 0 65279 0 0 65279 0 0 65279 0 0 65279 0 0 65279 0 0 65279 0 0 65279 0 0 65279 0 0 65279 0 0 65279 0 0 65279 0 0 65279 0 0 65279 0 0 65279 0 0 65279 0 0 65279 0 0 65279 0 0 65279 0 0 65279 0 0 65279 0 0 65279 0 0 65279 0 0 65279 0 0 65279 0 0 65279 0 0 65279 0 0 65279 0 0 65279 0 0 65279 0 0 65279 0 0 65279 0 0 65279 0 0 65279 0 0 65279 0 0 65279 0 0 65279 0 0 65279 0 0 65279 0 0 65279 0 0 65279 0 0 65279 0 0 65279 0 0 65279 0 0 65279 0 0 65279 0 0 65279 0 0 65279 0 0 65279 0 0 65279 0 0 65279 0 0 65279 0 0 65279 0 0 65279 0 0 65279 0 0 65279 0 0 65279 0 0 65279 0 0 65279 0 0 65279 0 0 65279 0 0 65279 0 0 65279 0 0 65279 0 0 65279 0 0 65279 0 0 65279 0 0 65279 0 0 65279 0 0 65279 0 0 65279 0 0 65279 0 0 65279 0 0 65279 0 0 65279 0 0 65279 0 0 65279 0 0 65279 0 0 65279 0 0 65279 0 0 65279 0 0 65279 0 0 65279 0 0 65279 0 0 65279 0 0 65279 0 0 65279 0 0 65279 0 0 65279 0 0 65279 0 0 65279 0 0 65279 0 0 65279 0 0 65279 0 0 65279 0 0 65279 0 0 65279 0 0 65279 0 0 65279 0 0 65279 0 0 65279 0 0 65279 0 0 65279 0 0 65279 0 0 65279 0 0 65279 0 0 65279 0 0 65279 0 0 65279 0 0 65279 0 0 65279 0 0 65279 0 0 65279 0 0 65279 0 0 65279 0 0 65279 0 0 65279 0 0 65279 0 0 65279 0 0 65279 0 0 65279 0 0 65279 0 0 65279 0 0 65279 0 0 65279 0 0 65279 0 0 65279 0 0 65279 0 0 65279 0 0 65279 0 0 65279 0 0 65279 0 0 65279 0 0 65279 0 0 65279 0 0 65279 0 0 65279 0 0 65279 0 0 65279 0 0 65279 0 0 65279 0 0 65279 0 0 65279 0 0 65279 0 0 65279 0 0 65279 0 0 65279 0 0 65279 0 0 65279 0 0 65279 0 0 65279 0 0 65279 0 0 65279 0 0 65279 0 0 65279 0 0 65279 0 0 65279 0 0 65279 0 0 65279 0 0 65279 0 0 65279 0 0 65279 0 0 65279 0 0 65279 0 0 65279 0 0 65279 0 0 65279 0 0 65279 0 0 65279 0 0 65279 0 0 65279 0 0 65279 0 0 65279 0 0 65279 0 0 65279 0 0 65279 0 0 65279 0 0 65279 0 0 65279 0 0 65279 0 0 65279 0 0 65279 0 0 65279 0 0 65279 0 0 65279 0 0 65279 0 0 65279 0 0 65279 0 0 65279 0 0 65279 0 0 65279 0 0 65279 0 0 65279 0 0 65279 0 0 65279 0 0 65279 0 0 65279 0 0 65279 0 0 65279 0 0 65279 0 0 65279 0 0 65279 0 0 65279 0 0 65279 0 0 65279 0 0 65279 0 0 65279 0 0 65279 0 0 65279 0 0 65279 0 0 65279 0 0 65279 0 0 65279 0 0 65279 0 0 65279 0 0 65279 0 0 65279 0 0 65279 0 0 65279 0 0 65279 0 0 65279 0 0 65279 0 0 65279 0 0 65279 0 0 65279 0 0 65279 0 0 65279 0 0 65279 0 0 65279 0 0 65279 0 0 65279 0 0 65279 0 0 65279 0 0 65279 0 0 65279 0 0 65279 0 0 65279 0 0 65279 0 0 65279 0 0 65279 0 0 65279 0 0 65279 0 0 65279 0 0 65279 0 0 65279 0 0 65279 0 0 65279 0 0 65279 0 0 65279 0 0 65279 0 0 65279 0 0 65279 0 0 65279 0 0 65279 0 0 65279 0 0 65279 0 0 65279 0 0 65279 0 0 65279 0 0 65279 0 0 65279 0 0 65279 0 0 65279 0 0 65279 0 0 65279 0 0 65279 0 0 65279 0 0 65279 0 0 65279 0 0 65279 0 0 65279 0 0 65279 0 0 65279 0 0 65279 0 0 65279 0 0 65279 0 0 65279 0 0 65279 0 0 65279 0 0 65279 0 0 65279 0 0 65279 0 0 65279 0 0 65279 0 0 65279 0 0 65279 0 0 65279 0 0 65279 0 0 65279 0 0 65279 0 0 65279 0 0 65279 0 0 65279 0 0 65279 0 0 65279 0 0 65279 0 0 65279 0 0 65279 0 0 65279 0 0 65279 0 0 65279 0 0 65279 0 0 65279 0 0 65279 0 0 65279 0 0 65279 0 0 65279 0 0 65279 0 0 65279 0 0 65279 0 0 65279 0 0 65279 0 0 65279 0 0 65279 0 0 65279 0 0 65279 0 0 65279 0 0 65279 0 0 65279 0 0 65279 0 0 65279 0 0 65279 0 0 65279 0 0 65279 0 0 65279 0 0 65279 0 0 65279 0 0 65279 0 0 65279 0 0 65279 0 0 65279 0 0 65279 0 0 65279 0 0 65279 0 0 65279 0 0 65279 0 0 65279 0 0 65279 0 0 65279 0 0 65279 0 0 65279 0 0 65279 0 0 65279 0 0 65279 0 0 65279 0 0 65279 0 0 65279 0 0 65279 0 0 65279 0 0 65279 0 0 65279 0 0 65279 0 0 65279 0 0 65279 0 0 65279 0 0 65279 0 0 65279 0 0 65279 0 0 65279 0 0 65279 0 0 65279 0 0 65279 0 0 65279 0 0 65279 0 0 65279 0 0 65279 0 0 65279 0 0 65279 0 0 65279 0 0 65279 0 0 65279 0 0 65279 0 0 65279 0 0 65279 0 0 65279 0 0 65279 0 0 65279 0 0 65279 0 0 65279 0 0 65279 0 0 65279 0 0 65279 0 0 65279 0 0 65279 0 0 65279 0 0 65279 0 0 65279 0 0 65279 0 0 65279 0 0 65279 0 0 65279 0 0 65279 0 0 65279 0 0 65279 0 0 65279 0 0 65279 0 0 65279 0 0 65279 0 0 65279 0 0 65279 0 0 65279 0 0 65279 0 0 65279 0 0 65279 0 0 65279 0 0 65279 0 0 65279 0 0 65279 0 0 65279 0 0 65279 0 0 65279 0 0 65279 0 0 65279 0 0 65279 0 0 65279 0 0 65279 0 0 65279 0 0 65279 0 0 65279 0 0 65279 0 0 65279 0 0 65279 0 0 65279 0 0 65279 0 0 65279 0 0 65279 0 0 65279 0 0 65279 0 0 65279 0 0 65279 0 0 65279 0 0 65279 0 0 65279 0 0 65279 0 0 65279 0 0 65279 0 0 65279 0 0 65279 0 0 65279 0 0 65279 0 0 65279 0 0 65279 0 0 65279 0 0 65279 0 0 65279 0 0 65279 0 0 65279 0 0 65279 0 0 65279 0 0 65279 0 0 65279 0 0 65279 0 0 65279 0 0 65279 0 0 65279 0 0 65279 0 0 65279 0 0 65279 0 0 65279 0 0 65279 0 0 65279 0 0 65279 0 0 65279 0 0 65279 0 0 65279 0 0 65279 0 0 65279 0 0 65279 0 0 65279 0 0 65279 0 0 65279 0 0 65279 0 0 65279 0 0 65279 0 0 65279 0 0 65279 0 0 65279 0 0 65279 0 0 65279 0 0 65279 0 0 65279 0 0 65279 0 0 65279 0 0 65279 0 0 65279 0 0 65279 0 0 65279 0 0 65279 0 0 65279 0 0 65279 0 0 65279 0 0 65279 0 0 65279 0 0 65279 0 0 65279 0 0 65279 0 0 65279 0 0 65279 0 0 65279 0 0 65279 0 0 65279 0 0 65279 0 0 65279 0 0 65279 0 0 65279 0 0 65279 0 0 65279 0 0 65279 0 0 65279 0 0 65279 0 0 65279 0 0 65279 0 0 65279 0 0 65279 0 0 65279 0 0 65279 0 0 65279 0 0 65279 0 0 65279 0 0 65279 0 0 65279 0 0 65279 0 0 65279 0 0 65279 0 0 65279 0 0 65279 0 0 65279 0 0 65279 0 0 65279 0 0 65279 0 0 65279 0 0 65279 0 0 65279 0 0 65279 0 0 65279 0 0 65279 0 0 65279 0 0 65279 0 0 65279 0 0 65279 0 0 65279 0 0 65279 0 0 65279 0 0 65279 0 0 65279 0 0 65279 0 0 65279 0 0 65279 0 0 65279 0 0 65279 0 0 65279 0 0 65279 0 0 65279 0 0 65279 0 0 65279 0 0 65279 0 0 65279 0 0 65279 0 0 65279 0 0 65279 0 0 65279 0 0 65279 0 0 65279 0 0 65279 0 0 65279 0 0 65279 0 0 65279 0 0 65279 0 0 65279 0 0 65279 0 0 65279 0 0 65279 0 0 65279 0 0 65279 0 0 65279 0 0 65279 0 0 65279 0 0 65279 0 0 65279 0 0 65279 0 0 65279 0 0 65279 0 0 65279 0 0 65279 0 0 65279 0 0 65279 0 0 65279 0 0 65279 0 0 65279 0 0 65279 0 0 65279 0 0 65279 0 0 65279 0 0 65279 0 0 65279 0 0 65279 0 0 65279 0 0 65279 0 0 65279 0 0 65279 0 0 65279 0 0 65279 0 0 65279 0 0 65279 0 0 65279 0 0 65279 0 0 65279 0 0 65279 0 0 65279 0 0 65279 0 0 65279 0 0 65279 0 0 65279 0 0 65279 0 0 65279 0 0 65279 0 0 65279 0 0 65279 0 0 65279 0 0 65279 0 0 65279 0 0 65279 0 0 65279 0 0 65279 0 0 65279 0 0 65279 0 0 65279 0 0 65279 0 0 65279 0 0 65279 0 0 65279 0 0 65279 0 0 65279 0 0 65279 0 0 65279 0 0 65279 0 0 65279 0 0 65279 0 0 65279 0 0 65279 0 0 65279 0 0 65279 0 0 65279 0 0 65279 0 0 65279 0 0 65279 0 0 65279 0 0 65279 0 0 65279 0 0 65279 0 0 65279 0 0 65279 0 0 65279 0 0 65279 0 0 65279 0 0 65279 0 0 65279 0 0 65279 0 0 65279 0 0 65279 0 0 65279 0 0 65279 0 0 65279 0 0 65279 0 0 65279 0 0 65279 0 0 65279 0 0 65279 0 0 65279 0 0 65279 0 0 65279 0 0 65279 0 0 65279 0 0 65279 0 0 65279 0 0 65279 0 0 65279 0 0 65279 0 0 65279 0 0 65279 0 0 65279 0 0 65279 0 0 65279 0 0 65279 0 0 65279 0 0 65279 0 0 65279 0 0 65279 0 0 65279 0 0 65279 0 0 65279 0 0 65279 0 0 65279 0 0 65279 0 0 65279 0 0 65279 0 0 65279 0 0 65279 0 0 65279 0 0 65279 0 0 65279 0 0 65279 0 0 65279 0 0 65279 0 0 65279 0 0 65279 0 0 65279 0 0 65279 0 0 65279 0 0 65279 0 0 65279 0 0 65279 0 0 65279 0 0 65279 0 0 65279 0 0 65279 0 0 65279 0 0 65279 0 0 65279 0 0 65279 0 0 65279 0 0 65279 0 0 65279 0 0 65279 0 0 65279 0 0 65279 0 0 65279 0 0 65279 0 0 65279 0 0 65279 0 0 65279 0 0 65279 0 0 65279 0 0 65279 0 0 65279 0 0 65279 0 0 65279 0 0 65279 0 0 65279 0 0 65279 0 0 65279 0 0 65279 0 0 65279 0 0 65279 0 0 65279 0 0 65279 0 0 65279 0 0 65279 0 0 65279 0 0 65279 0 0 65279 0 0 65279 0 0 65279 0 0 65279 0 0 65279 0 0 65279 0 0 65279 0 0 65279 0 0 65279 0 0 65279 0 0 65279 0 0 65279 0 0 65279 0 0 65279 0 0 65279 0 0 65279 0 0 65279 0 0 65279 0 0 65279 0 0 65279 0 0 65279 0 0 65279 0 0 65279 0 0 65279 0 0 65279 0 0 65279 0 0 65279 0 0 65279 0 0 65279 0 0 65279 0 0 65279 0 0 65279 0 0 65279 0 0 65279 0 0 65279 0 0 65279 0 0 65279 0 0 65279 0 0 65279 0 0 65279 0 0 65279 0 0 65279 0 0 65279 0 0 65279 0 0 65279 0 0 65279 0 0 65279 0 0 65279 0 0 65279 0 0 65279 0 0 65279 0 0 65279 0 0 65279 0 0 65279 0 0 65279 0 0 65279 0 0 65279 0 0 65279 0 0 65279 0 0 65279 0 0 65279 0 0 65279 0 0 65279 0 0 65279 0 0 65279 0 0 65279 0 0 65279 0 0 65279 0 0 65279 0 0 65279 0 0 65279 0 0 65279 0 0 65279 0 0 65279 0 0 65279 0 0 65279 0 0 65279 0 0 65279 0 0 65279 0 0 65279 0 0 65279 0 0 65279 0 0 65279 0 0 65279 0 0 65279 0 0 65279 0 0 65279 0 0 65279 0 0 65279 0 0 65279 0 0 65279 0 0 65279 0 0 65279 0 0 65279 0 0 65279 0 0 65279 0 0 65279 0 0 65279 0 0 65279 0 0 65279 0 0 65279 0 0 65279 0 0 65279 0 0 65279 0 0 65279 0 0 65279 0 0 65279 0 0 65279 0 0 65279 0 0 65279 0 0 65279 0 0 65279 0 0 65279 0 0 65279 0 0 65279 0 0 65279 0 0 65279 0 0 65279 0 0 65279 0 0 65279 0 0 65279 0 0 65279 0 0 65279 0 0 65279 0 0 65279 0 0 65279 0 0 65279 0 0 65279 0 0 65279 0 0 65279 0 0 65279 0 0 65279 0 0 65279 0 0 65279 0 0 65279 0 0 65279 0 0 65279 0 0 65279 0 0 65279 0 0 65279 0 0 65279 0 0 65279 0 0 65279 0 0 65279 0 0 65279 0 0 65279 0 0 65279 0 0 65279 0 0 65279 0 0 65279 0 0 65279 0 0 65279 0 0 65279 0 0 65279 0 0 65279 0 0 65279 0 0 65279 0 0 65279 0 0 65279 0 0 65279 0 0 65279 0 0 65279 0 0 65279 0 0 65279 0 0 65279 0 0 65279 0 0 65279 0 0 65279 0 0 65279 0 0 65279 0 0 65279 0 0 65279 0 0 65279 0 0 65279 0 0 65279 0 0 65279 0 0 65279 0 0 65279 0 0 65279 0 0 65279 0 0 65279 0 0 65279 0 0 65279 0 0 65279 0 0 65279 0 0 65279 0 0 65279 0 0 65279 0 0 65279 0 0 65279 0 0 65279 0 0 65279 0 0 65279 0 0 65279 0 0 65279 0 0 65279 0 0 65279 0 0 65279 0 0 65279 0 0 65279 0 0 65279 0 0 65279 0 0 65279 0 0 65279 0 0 65279 0 0 65279 0 0 65279 0 0 65279 0 0 65279 0 0 65279 0 0 65279 0 0 65279 0 0 65279 0 0 65279 0 0 65279 0 0 65279 0 0 65279 0 0 65279 0 0 65279 0 0 65279 0 0 65279 0 0 65279 0 0 65279 0 0 65279 0 0 65279 0 0 65279 0 0 65279 0 0 65279 0 0 65279 0 0 65279 0 0 65279 0 0 65279 0 0 65279 0 0 65279 0 0 65279 0 0 65279 0 0 65279 0 0 65279 0 0 65279 0 0 65279 0 0 65279 0 0 65279 0 0 65279 0 0 65279 0 0 65279 0 0 65279 0 0 65279 0 0 65279 0 0 65279 0 0 65279 0 0 65279 0 0 65279 0 0 65279 0 0 65279 0 0 65279 0 0 65279 0 0 65279 0 0 65279 0 0 65279 0 0 65279 0 0 65279 0 0 65279 0 0 65279 0 0 65279 0 0 65279 0 0 65279 0 0 65279 0 0 65279 0 0 65279 0 0 65279 0 0 65279 0 0 65279 0 0 65279 0 0 65279 0 0 65279 0 0 65279 0 0 65279 0 0 65279 0 0 65279 0 0 65279 0 0 65279 0 0 65279 0 0 65279 0 0 65279 0 0 65279 0 0 65279 0 0 65279 0 0 65279 0 0 65279 0 0 65279 0 0 65279 0 0 65279 0 0 65279 0 0 65279 0 0 65279 0 0 65279 0 0 65279 0 0 65279 0 0 65279 0 0 65279 0 0 65279 0 0 65279 0 0 65279 0 0 65279 0 0 65279 0 0 65279 0 0 65279 0 0 65279 0 0 65279 0 0 65279 0 0 65279 0 0 65279 0 0 65279 0 0 65279 0 0 65279 0 0 65279 0 0 65279 0 0 65279 0 0 65279 0 0 65279 0 0 65279 0 0 65279 0 0 65279 0 0 65279 0 0 65279 0 0 65279 0 0 65279 0 0 65279 0 0 65279 0 0 65279 0 0 65279 0 0 65279 0 0 65279 0 0 65279 0 0 65279 0 0 65279 0 0 65279 0 0 65279 0 0 65279 0 0 65279 0 0 65279 0 0 65279 0 0 65279 0 0 65279 0 0 65279 0 0 65279 0 0 65279 0 0 65279 0 0 65279 0 0 65279 0 0 65279 0 0 65279 0 0 65279 0 0 65279 0 0 65279 0 0 65279 0 0 65279 0 0 65279 0 0 65279 0 0 65279 0 0 65279 0 0 65279 0 0 65279 0 0 65279 0 0 65279 0 0 65279 0 0 65279 0 0 65279 0 0 65279 0 0 65279 0 0 65279 0 0 65279 0 0 65279 0 0 65279 0 0 65279 0 0 65279 0 0 65279 0 0 65279 0 0 65279 0 0 65279 0 0 65279 0 0 65279 0 0 65279 0 0 65279 0 0 65279 0 0 65279 0 0 65279 0 0 65279 0 0 65279 0 0 65279 0 0 65279 0 0 65279 0 0 65279 0 0 65279 0 0 65279 0 0 65279 0 0 65279 0 0 65279 0 0 65279 0 0 65279 0 0 65279 0 0 65279 0 0 65279 0 0 65279 0 0 65279 0 0 65279 0 0 65279 0 0 65279 0 0 65279 0 0 65279 0 0 65279 0 0 65279 0 0 65279 0 0 65279 0 0 65279 0 0 65279 0 0 65279 0 0 65279 0 0 65279 0 0 65279 0 0 65279 0 0 65279 0 0 65279 0 0 65279 0 0 65279 0 0 65279 0 0 65279 0 0 65279 0 0 65279 0 0 65279 0 0 65279 0 0 65279 0 0 65279 0 0 65279 0 0 65279 0 0 65279 0 0 65279 0 0 65279 0 0 65279 0 0 65279 0 0 65279 0 0 65279 0 0 65279 0 0 65279 0 0 65279 0 0 65279 0 0 65279 0 0 65279 0 0 65279 0 0 65279 0 0 65279 0 0 65279 0 0 65279 0 0 65279 0 0 65279 0 0 65279 0 0 65279 0 0 65279 0 0 65279 0 0 65279 0 0 65279 0 0 65279 0 0 65279 0 0 65279 0 0 65279 0 0 65279 0 0 65279 0 0 65279 0 0 65279 0 0 65279 0 0 65279 0 0 65279 0 0 65279 0 0 65279 0 0 65279 0 0 65279 0 0 65279 0 0 65279 0 0 65279 0 0 65279 0 0 65279 0 0 65279 0 0 65279 0 0 65279 0 0 65279 0 0 65279 0 0 65279 0 0 65279 0 0 65279 0 0 65279 0 0 65279 0 0 65279 0 0 65279 0 0 65279 0 0 65279 0 0 65279 0 0 65279 0 0 65279 0 0 65279 0 0 65279 0 0 65279 0 0 65279 0 0 65279 0 0 65279 0 0 65279 0 0 65279 0 0 65279 0 0 65279 0 0 65279 0 0 65279 0 0 65279 0 0 65279 0 0 65279 0 0 65279 0 0 65279 0 0 65279 0 0 65279 0 0 65279 0 0 65279 0 0 65279 0 0 65279 0 0 65279 0 0 65279 0 0 65279 0 0 65279 0 0 65279 0 0 65279 0 0 65279 0 0 65279 0 0 65279 0 0 65279 0 0 65279 0 0 65279 0 0 65279 0 0 65279 0 0 65279 0 0 65279 0 0 65279 0 0 65279 0 0 65279 0 0 65279 0 0 65279 0 0 65279 0 0 65279 0 0 65279 0 0 65279 0 0 65279 0 0 65279 0 0 65279 0 0 65279 0 0 65279 0 0 65279 0 0 65279 0 0 65279 0 0 65279 0 0 65279 0 0 65279 0 0 65279 0 0 65279 0 0 65279 0 0 65279 0 0 65279 0 0 65279 0 0 65279 0 0 65279 0 0 65279 0 0 65279 0 0 65279 0 0 65279 0 0 65279 0 0 65279 0 0 65279 0 0 65279 0 0 65279 0 0 65279 0 0 65279 0 0 65279 0 0 65279 0 0 65279 0 0 65279 0 0 65279 0 0 65279 0 0 65279 0 0 65279 0 0 65279 0 0 65279 0 0 65279 0 0 65279 0 0 65279 0 0 65279 0 0 65279 0 0 65279 0 0 65279 0 0 65279 0 0 65279 0 0 65279 0 0 65279 0 0 65279 0 0 65279 0 0 65279 0 0 65279 0 0 65279 0 0 65279 0 0 65279 0 0 65279 0 0 65279 0 0 65279 0 0 65279 0 0 65279 0 0 65279 0 0 65279 0 0 65279 0 0 65279 0 0 65279 0 0 65279 0 0 65279 0 0 65279 0 0 65279 0 0 65279 0 0 65279 0 0 65279 0 0 65279 0 0 65279 0 0 65279 0 0 65279 0 0 65279 0 0 65279 0 0 65279 0 0 65279 0 0 65279 0 0 65279 0 0 65279 0 0 65279 0 0 65279 0 0 65279 0 0 65279 0 0 65279 0 0 65279 0 0 65279 0 0 65279 0 0 65279 0 0 65279 0 0 65279 0 0 65279 0 0 65279 0 0 65279 0 0 65279 0 0 65279 0 0 65279 0 0 65279 0 0 65279 0 0 65279 0 0 65279 0 0 65279 0 0 65279 0 0 65279 0 0 65279 0 0 65279 0 0 65279 0 0 65279 0 0 65279 0 0 65279 0 0 65279 0 0 65279 0 0 65279 0 0 65279 0 0 65279 0 0 65279 0 0 65279 0 0 65279 0 0 65279 0 0 65279 0 0 65279 0 0 65279 0 0 65279 0 0 65279 0 0 65279 0 0 65279 0 0 65279 0 0 65279 0 0 65279 0 0 65279 0 0 65279 0 0 65279 0 0 65279 0 0 65279 0 0 65279 0 0 65279 0 0 65279 0 0 65279 0 0 65279 0 0 65279 0 0 65279 0 0 65279 0 0 65279 0 0 65279 0 0 65279 0 0 65279 0 0 65279 0 0 65279 0 0 65279 0 0 65279 0 0 65279 0 0 65279 0 0 65279 0 0 65279 0 0 65279 0 0 65279 0 0 65279 0 0 65279 0 0 65279 0 0 65279 0 0 65279 0 0 65279 0 0 65279 0 0 65279 0 0 65279 0 0 65279 0 0 65279 0 0 65279 0 0 65279 0 0 65279 0 0 65279 0 0 65279 0 0 65279 0 0 65279 0 0 65279 0 0 65279 0 0 65279 0 0 65279 0 0 65279 0 0 65279 0 0 65279 0 0 65279 0 0 65279 0 0 65279 0 0 65279 0 0 65279 0 0 65279 0 0 65279 0 0 65279 0 0 65279 0 0 65279 0 0 65279 0 0 65279 0 0 65279 0 0 65279 0 0 65279 0 0 65279 0 0 65279 0 0 65279 0 0 65279 0 0 65279 0 0 65279 0 0 65279 0 0 65279 0 0 65279 0 0 65279 0 0 65279 0 0 65279 0 0 65279 0 0 65279 0 0 65279 0 0 65279 0 0 65279 0 0 65279 0 0 65279 0 0 65279 0 0 65279 0 0 65279 0 0 65279 0 0 65279 0 0 65279 0 0 65279 0 0 65279 0 0 65279 0 0 65279 0 0 65279 0 0 65279 0 0 65279 0 0 65279 0 0 65279 0 0 65279 0 0 65279 0 0 65279 0 0 65279 0 0 65279 0 0 65279 0 0 65279 0 0 65279 0 0 65279 0 0 65279 0 0 65279 0 0 65279 0 0 65279 0 0 65279 0 0 65279 0 0 65279 0 0 65279 0 0 65279 0 0 65279 0 0 65279 0 0 65279 0 0 65279 0 0 65279 0 0 65279 0 0 65279 0 0 65279 0 0 65279 0 0 65279 0 0 65279 0 0 65279 0 0 65279 0 0 65279 0 0 65279 0 0 65279 0 0 65279 0 0 65279 0 0 65279 0 0 65279 0 0 65279 0 0 65279 0 0 65279 0 0 65279 0 0 65279 0 0 65279 0 0 65279 0 0 65279 0 0 65279 0 0 65279 0 0 65279 0 0 65279 0 0 65279 0 0 65279 0 0 65279 0 0 65279 0 0 65279 0 0 65279 0 0 65279 0 0 65279 0 0 65279 0 0 65279 0 0 65279 0 0 65279 0 0 65279 0 0 65279 0 0 65279 0 0 65279 0 0 65279 0 0 65279 0 0 65279 0 0 65279 0 0 65279 0 0 65279 0 0 65279 0 0 65279 0 0 65279 0 0 65279 0 0 65279 0 0 65279 0 0 65279 0 0 65279 0 0 65279 0 0 65279 0 0 65279 0 0 65279 0 0 65279 0 0 65279 0 0 65279 0 0 65279 0 0 65279 0 0 65279 0 0 65279 0 0 65279 0 0 65279 0 0 65279 0 0 65279 0 0 65279 0 0 65279 0 0 65279 0 0 65279 0 0 65279 0 0 65279 0 0 65279 0 0 65279 0 0 65279 0 0 65279 0 0 65279 0 0 65279 0 0 65279 0 0 65279 0 0 65279 0 0 65279 0 0 65279 0 0 65279 0 0 65279 0 0 65279 0 0 65279 0 0 65279 0 0 65279 0 0 65279 0 0 65279 0 0 65279 0 0 65279 0 0 65279 0 0 65279 0 0 65279 0 0 65279 0 0 65279 0 0 65279 0 0 65279 0 0 65279 0 0 65279 0 0 65279 0 0 65279 0 0 65279 0 0 65279 0 0 65279 0 0 65279 0 0 65279 0 0 65279 0 0 65279 0 0 65279 0 0 65279 0 0 65279 0 0 65279 0 0 65279 0 0 65279 0 0 65279 0 0 65279 0 0 65279 0 0 65279 0 0 65279 0 0 65279 0 0 65279 0 0 65279 0 0 65279 0 0 65279 0 0 65279 0 0 65279 0 0 65279 0 0 65279 0 0 65279 0 0 65279 0 0 65279 0 0 65279 0 0 65279 0 0 65279 0 0 65279 0 0 65279 0 0 65279 0 0 65279 0 0 65279 0 0 65279 0 0 65279 0 0 65279 0 0 65279 0 0 65279 0 0 65279 0 0 65279 0 0 65279 0 0 65279 0 0 65279 0 0 65279 0 0 65279 0 0 65279 0 0 65279 0 0 65279 0 0 65279 0 0 65279 0 0 65279 0 0 65279 0 0 65279 0 0 65279 0 0 65279 0 0 65279 0 0 65279 0 0 65279 0 0 65279 0 0 65279 0 0 65279 0 0 65279 0 0 65279 0 0 65279 0 0 65279 0 0 65279 0 0 65279 0 0 65279 0 0 65279 0 0 65279 0 0 65279 0 0 65279 0 0 65279 0 0 65279 0 0 65279 0 0 65279 0 0 65279 0 0 65279 0 0 65279 0 0 65279 0 0 65279 0 0 65279 0 0 65279 0 0 65279 0 0 65279 0 0 65279 0 0 65279 0 0 65279 0 0 65279 0 0 65279 0 0 65279 0 0 65279 0 0 65279 0 0 65279 0 0 65279 0 0 65279 0 0 65279 0 0 65279 0 0 65279 0 0 65279 0 0 65279 0 0 65279 0 0 65279 0 0 65279 0 0 65279 0 0 65279 0 0 65279 0 0 65279 0 0 65279 0 0 65279 0 0 65279 0 0 65279 0 0 65279 0 0 65279 0 0 65279 0 0 65279 0 0 65279 0 0 65279 0 0 65279 0 0 65279 0 0 65279 0 0 65279 0 0 65279 0 0 65279 0 0 65279 0 0 65279 0 0 65279 0 0 65279 0 0 65279 0 0 65279 0 0 65279 0 0 65279 0 0 65279 0 0 65279 0 0 65279 0 0 65279 0 0 65279 0 0 65279 0 0 65279 0 0 65279 0 0 65279 0 0 65279 0 0 65279 0 0 65279 0 0 65279 0 0 65279 0 0 65279 0 0 65279 0 0 65279 0 0 65279 0 0 65279 0 0 65279 0 0 65279 0 0 65279 0 0 65279 0 0 65279 0 0 65279 0 0 65279 0 0 65279 0 0 65279 0 0 65279 0 0 65279 0 0 65279 0 0 65279 0 0 65279 0 0 65279 0 0 65279 0 0 65279 0 0 65279 0 0 65279 0 0 65279 0 0 65279 0 0 65279 0 0 65279 0 0 65279 0 0 65279 0 0 65279 0 0 65279 0 0 65279 0 0 65279 0 0 65279 0 0 65279 0 0 65279 0 0 65279 0 0 65279 0 0 65279 0 0 65279 0 0 65279 0 0 65279 0 0 65279 0 0 65279 0 0 65279 0 0 65279 0 0 65279 0 0 65279 0 0 65279 0 0 65279 0 0 65279 0 0 65279 0 0 65279 0 0 65279 0 0 65279 0 0 65279 0 0 65279 0 0 65279 0 0 65279 0 0 65279 0 0 65279 0 0 65279 0 0 65279 0 0 65279 0 0 65279 0 0 65279 0 0 65279 0 0 65279 0 0 65279 0 0 65279 0 0 65279 0 0 65279 0 0 65279 0 0 65279 0 0 65279 0 0 65279 0 0 65279 0 0 65279 0 0 65279 0 0 65279 0 0 65279 0 0 65279 0 0 65279 0 0 65279 0 0 65279 0 0 65279 0 0 65279 0 0 65279 0 0 65279 0 0 65279 0 0 65279 0 0 65279 0 0 65279 0 0 65279 0 0 65279 0 0 65279 0 0 65279 0 0 65279 0 0 65279 0 0 65279 0 0 65279 0 0 65279 0 0 65279 0 0 65279 0 0 65279 0 0 65279 0 0 65279 0 0 65279 0 0 65279 0 0 65279 0 0 65279 0 0 65279 0 0 65279 0 0 65279 0 0 65279 0 0 65279 0 0 65279 0 0 65279 0 0 65279 0 0 65279 0 0 65279 0 0 65279 0 0 65279 0 0 65279 0 0 65279 0 0 65279 0 0 65279 0 0 65279 0 0 65279 0 0 65279 0 0 65279 0 0 65279 0 0 65279 0 0 65279 0 0 65279 0 0 65279 0 0 65279 0 0 65279 0 0 65279 0 0 65279 0 0 65279 0 0 65279 0 0 65279 0 0 65279 0 0 65279 0 0 65279 0 0 65279 0 0 65279 0 0 65279 0 0 65279 0 0 65279 0 0 65279 0 0 65279 0 0 65279 0 0 65279 0 0 65279 0 0 65279 0 0 65279 0 0 65279 0 0 65279 0 0 65279 0 0 65279 0 0 65279 0 0 65279 0 0 65279 0 0 65279 0 0 65279 0 0 65279 0 0 65279 0 0 65279 0 0 65279 0 0 65279 0 0 65279 0 0 65279 0 0 65279 0 0 65279 0 0 65279 0 0 65279 0 0 65279 0 0 65279 0 0 65279 0 0 65279 0 0 65279 0 0 65279 0 0 65279 0 0 65279 0 0 65279 0 0 65279 0 0 65279 0 0 65279 0 0 65279 0 0 65279 0 0 65279 0 0 65279 0 0 65279 0 0 65279 0 0 65279 0 0 65279 0 0 65279 0 0 65279 0 0 65279 0 0 65279 0 0 65279 0 0 65279 0 0 65279 0 0 65279 0 0 65279 0 0 65279 0 0 65279 0 0 65279 0 0 65279 0 0 65279 0 0 65279 0 0 65279 0 0 65279 0 0 65279 0 0 65279 0 0 65279 0 0 65279 0 0 65279 0 0 65279 0 0 65279 0 0 65279 0 0 65279 0 0 65279 0 0 65279 0 0 65279 0 0 65279 0 0 65279 0 0 65279 0 0 65279 0 0 65279 0 0 65279 0 0 65279 0 0 65279 0 0 65279 0 0 65279 0 0 65279 0 0 65279 0 0 65279 0 0 65279 0 0 65279 0 0 65279 0 0 65279 0 0 65279 0 0 65279 0 0 65279 0 0 65279 0 0 65279 0 0 65279 0 0 65279 0 0 65279 0 0 65279 0 0 65279 0 0 65279 0 0 65279 0 0 65279 0 0 65279 0 0 65279 0 0 65279 0 0 65279 0 0 65279 0 0 65279 0 0 65279 0 0 65279 0 0 65279 0 0 65279 0 0 65279 0 0 65279 0 0 65279 0 0 65279 0 0 65279 0 0 65279 0 0 65279 0 0 65279 0 0 65279 0 0 65279 0 0 65279 0 0 65279 0 0 65279 0 0 65279 0 0 65279 0 0 65279 0 0 65279 0 0 65279 0 0 65279 0 0 65279 0 0 65279 0 0 65279 0 0 65279 0 0 65279 0 0 65279 0 0 65279 0 0 65279 0 0 65279 0 0 65279 0 0 65279 0 0 65279 0 0 65279 0 0 65279 0 0 65279 0 0 65279 0 0 65279 0 0 65279 0 0 65279 0 0 65279 0 0 65279 0 0 65279 0 0 65279 0 0 65279 0 0 65279 0 0 65279 0 0 65279 0 0 65279 0 0 65279 0 0 65279 0 0 65279 0 0 65279 0 0 65279 0 0 65279 0 0 65279 0 0 65279 0 0 65279 0 0 65279 0 0 65279 0 0 65279 0 0 65279 0 0 65279 0 0 65279 0 0 65279 0 0 65279 0 0 65279 0 0 65279 0 0 65279 0 0 65279 0 0 65279 0 0 65279 0 0 65279 0 0 65279 0 0 65279 0 0 65279 0 0 65279 0 0 65279 0 0 65279 0 0 65279 0 0 65279 0 0 65279 0 0 65279 0 0 65279 0 0 65279 0 0 65279 0 0 65279 0 0 65279 0 0 65279 0 0 65279 0 0 65279 0 0 65279 0 0 65279 0 0 65279 0 0 65279 0 0 65279 0 0 65279 0 0 65279 0 0 65279 0 0 65279 0 0 65279 0 0 65279 0 0 65279 0 0 65279 0 0 65279 0 0 65279 0 0 65279 0 0 65279 0 0 65279 0 0 65279 0 0 65279 0 0 65279 0 0 65279 0 0 65279 0 0 65279 0 0 65279 0 0 65279 0 0 65279 0 0 65279 0 0 65279 0 0 65279 0 0 65279 0 0 65279 0 0 65279 0 0 65279 0 0 65279 0 0 65279 0 0 65279 0 0 65279 0 0 65279 0 0 65279 0 0 65279 0 0 65279 0 0 65279 0 0 65279 0 0 65279 0 0 65279 0 0 65279 0 0 65279 0 0 65279 0 0 65279 0 0 65279 0 0 65279 0 0 65279 0 0 65279 0 0 65279 0 0 65279 0 0 65279 0 0 65279 0 0 65279 0 0 65279 0 0 65279 0 0 65279 0 0 65279 0 0 65279 0 0 65279 0 0 65279 0 0 65279 0 0 65279 0 0 65279 0 0 65279 0 0 65279 0 0 65279 0 0 65279 0 0 65279 0 0 65279 0 0 65279 0 0 65279 0 0 65279 0 0 65279 0 0 65279 0 0 65279 0 0 65279 0 0 65279 0 0 65279 0 0 65279 0 0 65279 0 0 65279 0 0 65279 0 0 65279 0 0 65279 0 0 65279 0 0 65279 0 0 65279 0 0 65279 0 0 65279 0 0 65279 0 0 65279 0 0 65279 0 0 65279 0 0 65279 0 0 65279 0 0 65279 0 0 65279 0 0 65279 0 0 65279 0 0 65279 0 0 65279 0 0 65279 0 0 65279 0 0 65279 0 0 65279 0 0 65279 0 0 65279 0 0 65279 0 0 65279 0 0 65279 0 0 65279 0 0 65279 0 0 65279 0 0 65279 0 0 65279 0 0 65279 0 0 65279 0 0 65279 0 0 65279 0 0 65279 0 0 65279 0 0 65279 0 0 65279 0 0 65279 0 0 65279 0 0 65279 0 0 65279 0 0 65279 0 0 65279 0 0 65279 0 0 65279 0 0 65279 0 0 65279 0 0 65279 0 0 65279 0 0 65279 0 0 65279 0 0 65279 0 0 65279 0 0 65279 0 0 65279 0 0 65279 0 0 65279 0 0 65279 0 0 65279 0 0 65279 0 0 65279 0 0 65279 0 0 65279 0 0 65279 0 0 65279 0 0 65279 0 0 65279 0 0 65279 0 0 65279 0 0 65279 0 0 65279 0 0 65279 0 0 65279 0 0 65279 0 0 65279 0 0 65279 0 0 65279 0 0 65279 0 0 65279 0 0 65279 0 0 65279 0 0 65279 0 0 65279 0 0 65279 0 0 65279 0 0 65279 0 0 65279 0 0 65279 0 0 65279 0 0 65279 0 0 65279 0 0 65279 0 0 65279 0 0 65279 0 0 65279 0 0 65279 0 0 65279 0 0 65279 0 0 65279 0 0 65279 0 0 65279 0 0 65279 0 0 65279 0 0 65279 0 0 65279 0 0 65279 0 0 65279 0 0 65279 0 0 65279 0 0 65279 0 0 65279 0 0 65279 0 0 65279 0 0 65279 0 0 65279 0 0 65279 0 0 65279 0 0 65279 0 0 65279 0 0 65279 0 0 65279 0 0 65279 0 0 65279 0 0 65279 0 0 65279 0 0 65279 0 0 65279 0 0 65279 0 0 65279 0 0 65279 0 0 65279 0 0 65279 0 0 65279 0 0 65279 0 0 65279 0 0 65279 0 0 65279 0 0 65279 0 0 65279 0 0 65279 0 0 65279 0 0 65279 0 0 65279 0 0 65279 0 0 65279 0 0 65279 0 0 65279 0 0 65279 0 0 65279 0 0 65279 0 0 65279 0 0 65279 0 0 65279 0 0 65279 0 0 65279 0 0 65279 0 0 65279 0 0 65279 0 0 65279 0 0 65279 0 0 65279 0 0 65279 0 0 65279 0 0 65279 0 0 65279 0 0 65279 0 0 65279 0 0 65279 0 0 65279 0 0 65279 0 0 65279 0 0 65279 0 0 65279 0 0 65279 0 0 65279 0 0 65279 0 0 65279 0 0 65279 0 0 65279 0 0 65279 0 0 65279 0 0 65279 0 0 65279 0 0 65279 0 0 65279 0 0 65279 0 0 65279 0 0 65279 0 0 65279 0 0 65279 0 0 65279 0 0 65279 0 0 65279 0 0 65279 0 0 65279 0 0 65279 0 0 65279 0 0 65279 0 0 65279 0 0 65279 0 0 65279 0 0 65279 0 0 65279 0 0 65279 0 0 65279 0 0 65279 0 0 65279 0 0 65279 0 0 65279 0 0 65279 0 0 65279 0 0 65279 0 0 65279 0 0 65279 0 0 65279 0 0 65279 0 0 65279 0 0 65279 0 0 65279 0 0 65279 0 0 65279 0 0 65279 0 0 65279 0 0 65279 0 0 65279 0 0 65279 0 0 65279 0 0 65279 0 0 65279 0 0 65279 0 0 65279 0 0 65279 0 0 65279 0 0 65279 0 0 65279 0 0 65279 0 0 65279 0 0 65279 0 0 65279 0 0 65279 0 0 65279 0 0 65279 0 0 65279 0 0 65279 0 0 65279 0 0 65279 0 0 65279 0 0 65279 0 0 65279 0 0 65279 0 0 65279 0 0 65279 0 0 65279 0 0 65279 0 0 65279 0 0 65279 0 0 65279 0 0 65279 0 0 65279 0 0 65279 0 0 65279 0 0 65279 0 0 65279 0 0 65279 0 0 65279 0 0 65279 0 0 65279 0 0 65279 0 0 65279 0 0 65279 0 0 65279 0 0 65279 0 0 65279 0 0 65279 0 0 65279 0 0 65279 0 0 65279 0 0 65279 0 0 65279 0 0 65279 0 0 65279 0 0 65279 0 0 65279 0 0 65279 0 0 65279 0 0 65279 0 0 65279 0 0 65279 0 0 65279 0 0 65279 0 0 65279 0 0 65279 0 0 65279 0 0 65279 0 0 65279 0 0 65279 0 0 65279 0 0 65279 0 0 65279 0 0 65279 0 0 65279 0 0 65279 0 0 65279 0 0 65279 0 0 65279 0 0 65279 0 0 65279 0 0 65279 0 0 65279 0 0 65279 0 0 65279 0 0 65279 0 0 65279 0 0 65279 0 0 65279 0 0 65279 0 0 65279 0 0 65279 0 0 65279 0 0 65279 0 0 65279 0 0 65279 0 0 65279 0 0 65279 0 0 65279 0 0 65279 0 0 65279 0 0 65279 0 0 65279 0 0 65279 0 0 65279 0 0 65279 0 0 65279 0 0 65279 0 0 65279 0 0 65279 0 0 65279 0 0 65279 0 0 65279 0 0 65279 0 0 65279 0 0 65279 0 0 65279 0 0 65279 0 0 65279 0 0 65279 0 0 65279 0 0 65279 0 0 65279 0 0 65279 0 0 65279 0 0 65279 0 0 65279 0 0 65279 0 0 65279 0 0 65279 0 0 65279 0 0 65279 0 0 65279 0 0 65279 0 0 65279 0 0 65279 0 0 65279 0 0 65279 0 0 65279 0 0 65279 0 0 65279 0 0 65279 0 0 65279 0 0 65279 0 0 65279 0 0 65279 0 0 65279 0 0 65279 0 0 65279 0 0 65279 0 0 65279 0 0 65279 0 0 65279 0 0 65279 0 0 65279 0 0 65279 0 0 65279 0 0 65279 0 0 65279 0 0 65279 0 0 65279 0 0 65279 0 0 65279 0 0 65279 0 0 65279 0 0 65279 0 0 65279 0 0 65279 0 0 65279 0 0 65279 0 0 65279 0 0 65279 0 0 65279 0 0 65279 0 0 65279 0 0 65279 0 0 65279 0 0 65279 0 0 65279 0 0 65279 0 0 65279 0 0 65279 0 0 65279 0 0 65279 0 0 65279 0 0 65279 0 0 65279 0 0 65279 0 0 65279 0 0 65279 0 0 65279 0 0 65279 0 0 65279 0 0 65279 0 0 65279 0 0 65279 0 0 65279 0 0 65279 0 0 65279 0 0 65279 0 0 65279 0 0 65279 0 0 65279 0 0 65279 0 0 65279 0 0 65279 0 0 65279 0 0 65279 0 0 65279 0 0 65279 0 0 65279 0 0 65279 0 0 65279 0 0 65279 0 0 65279 0 0 65279 0 0 65279 0 0 65279 0 0 65279 0 0 65279 0 0 65279 0 0 65279 0 0 65279 0 0 65279 0 0 65279 0 0 65279 0 0 65279 0 0 65279 0 0 65279 0 0 65279 0 0 65279 0 0 65279 0 0 65279 0 0 65279 0 0 65279 0 0 65279 0 0 65279 0 0 65279 0 0 65279 0 0 65279 0 0 65279 0 0 65279 0 0 65279 0 0 65279 0 0 65279 0 0 65279 0 0 65279 0 0 65279 0 0 65279 0 0 65279 0 0 65279 0 0 65279 0 0 65279 0 0 65279 0 0 65279 0 0 65279 0 0 65279 0 0 65279 0 0 65279 0 0 65279 0 0 65279 0 0 65279 0 0 65279 0 0 65279 0 0 65279 0 0 65279 0 0 65279 0 0 65279 0 0 65279 0 0 65279 0 0 65279 0 0 65279 0 0 65279 0 0 65279 0 0 65279 0 0 65279 0 0 65279 0 0 65279 0 0 65279 0 0 65279 0 0 65279 0 0 65279 0 0 65279 0 0 65279 0 0 65279 0 0 65279 0 0 65279 0 0 65279 0 0 65279 0 0 65279 0 0 65279 0 0 65279 0 0 65279 0 0 65279 0 0 65279 0 0 65279 0 0 65279 0 0 65279 0 0 65279 0 0 65279 0 0 65279 0 0 65279 0 0 65279 0 0 65279 0 0 65279 0 0 65279 0 0 65279 0 0 65279 0 0 65279 0 0 65279 0 0 65279 0 0 65279 0 0 65279 0 0 65279 0 0 65279 0 0 65279 0 0 65279 0 0 65279 0 0 65279 0 0 65279 0 0 65279 0 0 65279 0 0 65279 0 0 65279 0 0 65279 0 0 65279 0 0 65279 0 0 65279 0 0 65279 0 0 65279 0 0 65279 0 0 65279 0 0 65279 0 0 65279 0 0 65279 0 0 65279 0 0 65279 0 0 65279 0 0 65279 0 0 65279 0 0 65279 0 0 65279 0 0 65279 0 0 65279 0 0 65279 0 0 65279 0 0 65279 0 0 65279 0 0 65279 0 0 65279 0 0 65279 0 0 65279 0 0 65279 0 0 65279 0 0 65279 0 0 65279 0 0 65279 0 0 65279 0 0 65279 0 0 65279 0 0 65279 0 0 65279 0 0 65279 0 0 65279 0 0 65279 0 0 65279 0 0 65279 0 0 65279 0 0 65279 0 0 65279 0 0 65279 0 0 65279 0 0 65279 0 0 65279 0 0 65279 0 0 65279 0 0 65279 0 0 65279 0 0 65279 0 0 65279 0 0 65279 0 0 65279 0 0 65279 0 0 65279 0 0 65279 0 0 65279 0 0 65279 0 0 65279 0 0 65279 0 0 65279 0 0 65279 0 0 65279 0 0 65279 0 0 65279 0 0 65279 0 0 65279 0 0 65279 0 0 65279 0 0 65279 0 0 65279 0 0 65279 0 0 65279 0 0 65279 0 0 65279 0 0 65279 0 0 65279 0 0 65279 0 0 65279 0 0 65279 0 0 65279 0 0 65279 0 0 65279 0 0 65279 0 0 65279 0 0 65279 0 0 65279 0 0 65279 0 0 65279 0 0 65279 0 0 65279 0 0 65279 0 0 65279 0 0 65279 0 0 65279 0 0 65279 0 0 65279 0 0 65279 0 0 65279 0 0 65279 0 0 65279 0 0 65279 0 0 65279 0 0 65279 0 0 65279 0 0 65279 0 0 65279 0 0 65279 0 0 65279 0 0 65279 0 0 65279 0 0 65279 0 0 65279 0 0 65279 0 0 65279 0 0 65279 0 0 65279 0 0 65279 0 0 65279 0 0 65279 0 0 65279 0 0 65279 0 0 65279 0 0 65279 0 0 65279 0 0 65279 0 0 65279 0 0 65279 0 0 65279 0 0 65279 0 0 65279 0 0 65279 0 0 65279 0 0 65279 0 0 65279 0 0 65279 0 0 65279 0 0 65279 0 0 65279 0 0 65279 0 0 65279 0 0 65279 0 0 65279 0 0 65279 0 0 65279 0 0 65279 0 0 65279 0 0 65279 0 0 65279 0 0 65279 0 0 65279 0 0 65279 0 0 65279 0 0 65279 0 0 65279 0 0 65279 0 0 65279 0 0 65279 0 0 65279 0 0 65279 0 0 65279 0 0 65279 0 0 65279 0 0 65279 0 0 65279 0 0 65279 0 0 65279 0 0 65279 0 0 65279 0 0 65279 0 0 65279 0 0 65279 0 0 65279 0 0 65279 0 0 65279 0 0 65279 0 0 65279 0 0 65279 0 0 65279 0 0 65279 0 0 65279 0 0 65279 0 0 65279 0 0 65279 0 0 65279 0 0 65279 0 0 65279 0 0 65279 0 0 65279 0 0 65279 0 0 65279 0 0 65279 0 0 65279 0 0 65279 0 0 65279 0 0 65279 0 0 65279 0 0 65279 0 0 65279 0 0 65279 0 0 65279 0 0 65279 0 0 65279 0 0 65279 0 0 65279 0 0 65279 0 0 65279 0 0 65279 0 0 65279 0 0 65279 0 0 65279 0 0 65279 0 0 65279 0 0 65279 0 0 65279 0 0 65279 0 0 65279 0 0 65279 0 0 65279 0 0 65279 0 0 65279 0 0 65279 0 0 65279 0 0 65279 0 0 65279 0 0 65279 0 0 65279 0 0 65279 0 0 65279 0 0 65279 0 0 65279 0 0 65279 0 0 65279 0 0 65279 0 0 65279 0 0 65279 0 0 65279 0 0 65279 0 0 65279 0 0 65279 0 0 65279 0 0 65279 0 0 65279 0 0 65279 0 0 65279 0 0 65279 0 0 65279 0 0 65279 0 0 65279 0 0 65279 0 0 65279 0 0 65279 0 0 65279 0 0 65279 0 0 65279 0 0 65279 0 0 65279 0 0 65279 0 0 65279 0 0 65279 0 0 65279 0 0 65279 0 0 65279 0 0 65279 0 0 65279 0 0 65279 0 0 65279 0 0 65279 0 0 65279 0 0 65279 0 0 65279 0 0 65279 0 0 65279 0 0 65279 0 0 65279 0 0 65279 0 0 65279 0 0 65279 0 0 65279 0 0 65279 0 0 65279 0 0 65279 0 0 65279 0 0 65279 0 0 65279 0 0 65279 0 0 65279 0 0 65279 0 0 65279 0 0 65279 0 0 65279 0 0 65279 0 0 65279 0 0 65279 0 0 65279 0 0 65279 0 0 65279 0 0 65279 0 0 65279 0 0 65279 0 0 65279 0 0 65279 0 0 65279 0 0 65279 0 0 65279 0 0 65279 0 0 65279 0 0 65279 0 0 65279 0 0 65279 0 0 65279 0 0 65279 0 0 65279 0 0 65279 0 0 65279 0 0 65279 0 0 65279 0 0 65279 0 0 65279 0 0 65279 0 0 65279 0 0 65279 0 0 65279 0 0 65279 0 0 65279 0 0 65279 0 0 65279 0 0 65279 0 0 65279 0 0 65279 0 0 65279 0 0 65279 0 0 65279 0 0 65279 0 0 65279 0 0 65279 0 0 65279 0 0 65279 0 0 65279 0 0 65279 0 0 65279 0 0 65279 0 0 65279 0 0 65279 0 0 65279 0 0 65279 0 0 65279 0 0 65279 0 0 65279 0 0 65279 0 0 65279 0 0 65279 0 0 65279 0 0 65279 0 0 65279 0 0 65279 0 0 65279 0 0 65279 0 0 65279 0 0 65279 0 0 65279 0 0 65279 0 0 65279 0 0 65279 0 0 65279 0 0 65279 0 0 65279 0 0 65279 0 0 65279 0 0 65279 0 0 65279 0 0 65279 0 0 65279 0 0 65279 0 0 65279 0 0 65279 0 0 65279 0 0 65279 0 0 65279 0 0 65279 0 0 65279 0 0 65279 0 0 65279 0 0 65279 0 0 65279 0 0 65279 0 0 65279 0 0 65279 0 0 65279 0 0 65279 0 0 65279 0 0 65279 0 0 65279 0 0 65279 0 0 65279 0 0 65279 0 0 65279 0 0 65279 0 0 65279 0 0 65279 0 0 65279 0 0 65279 0 0 65279 0 0 65279 0 0 65279 0 0 65279 0 0 65279 0 0 65279 0 0 65279 0 0 65279 0 0 65279 0 0 65279 0 0 65279 0 0 65279 0 0 65279 0 0 65279 0 0 65279 0 0 65279 0 0 65279 0 0 65279 0 0 65279 0 0 65279 0 0 65279 0 0 65279 0 0 65279 0 0 65279 0 0 65279 0 0 65279 0 0 65279 0 0 65279 0 0 65279 0 0 65279 0 0 65279 0 0 65279 0 0 65279 0 0 65279 0 0 65279 0 0 65279 0 0 65279 0 0 65279 0 0 65279 0 0 65279 0 0 65279 0 0 65279 0 0 65279 0 0 65279 0 0 65279 0 0 65279 0 0 65279 0 0 65279 0 0 65279 0 0 65279 0 0 65279 0 0 65279 0 0 65279 0 0 65279 0 0 65279 0 0 65279 0 0 65279 0 0 65279 0 0 65279 0 0 65279 0 0 65279 0 0 65279 0 0 65279 0 0 65279 0 0 65279 0 0 65279 0 0 65279 0 0 65279 0 0 65279 0 0 65279 0 0 65279 0 0 65279 0 0 65279 0 0 65279 0 0 65279 0 0 65279 0 0 65279 0 0 65279 0 0 65279 0 0 65279 0 0 65279 0 0 65279 0 0 65279 0 0 65279 0 0 65279 0 0 65279 0 0 65279 0 0 65279 0 0 65279 0 0 65279 0 0 65279 0 0 65279 0 0 65279 0 0 65279 0 0 65279 0 0 65279 0 0 65279 0 0 65279 0 0 65279 0 0 65279 0 0 65279 0 0 65279 0 0 65279 0 0 65279 0 0 65279 0 0 65279 0 0 65279 0 0 65279 0 0 65279 0 0 65279 0 0 65279 0 0 65279 0 0 65279 0 0 65279 0 0 65279 0 0 65279 0 0 65279 0 0 65279 0 0 65279 0 0 65279 0 0 65279 0 0 65279 0 0 65279 0 0 65279 0 0 65279 0 0 65279 0 0 65279 0 0 65279 0 0 65279 0 0 65279 0 0 65279 0 0 65279 0 0 65279 0 0 65279 0 0 65279 0 0 65279 0 0 65279 0 0 65279 0 0 65279 0 0 65279 0 0 65279 0 0 65279 0 0 65279 0 0 65279 0 0 65279 0 0 65279 0 0 65279 0 0 65279 0 0 65279 0 0 65279 0 0 65279 0 0 65279 0 0 65279 0 0 65279 0 0 65279 0 0 65279 0 0 65279 0 0 65279 0 0 65279 0 0 65279 0 0 65279 0 0 65279 0 0 65279 0 0 65279 0 0 65279 0 0 65279 0 0 65279 0 0 65279 0 0 65279 0 0 65279 0 0 65279 0 0 65279 0 0 65279 0 0 65279 0 0 65279 0 0 65279 0 0 65279 0 0 65279 0 0 65279 0 0 65279 0 0 65279 0 0 65279 0 0 65279 0 0 65279 0 0 65279 0 0 65279 0 0 65279 0 0 65279 0 0 65279 0 0 65279 0 0 65279 0 0 65279 0 0 65279 0 0 65279 0 0 65279 0 0 65279 0 0 65279 0 0 65279 0 0 65279 0 0 65279 0 0 65279 0 0 65279 0 0 65279 0 0 65279 0 0 65279 0 0 65279 0 0 65279 0 0 65279 0 0 65279 0 0 65279 0 0 65279 0 0 65279 0 0 65279 0 0 65279 0 0 65279 0 0 65279 0 0 65279 0 0 65279 0 0 65279 0 0 65279 0 0 65279 0 0 65279 0 0 65279 0 0 65279 0 0 65279 0 0 65279 0 0 65279 0 0 65279 0 0 65279 0 0 65279 0 0 65279 0 0 65279 0 0 65279 0 0 65279 0 0 65279 0 0 65279 0 0 65279 0 0 65279 0 0 65279 0 0 65279 0 0 65279 0 0 65279 0 0 65279 0 0 65279 0 0 65279 0 0 65279 0 0 65279 0 0 65279 0 0 65279 0 0 65279 0 0 65279 0 0 65279 0 0 65279 0 0 65279 0 0 65279 0 0 65279 0 0 65279 0 0 65279 0 0 65279 0 0 65279 0 0 65279 0 0 65279 0 0 65279 0 0 65279 0 0 65279 0 0 65279 0 0 65279 0 0 65279 0 0 65279 0 0 65279 0 0 65279 0 0 65279 0 0 65279 0 0 65279 0 0 65279 0 0 65279 0 0 65279 0 0 65279 0 0 65279 0 0 65279 0 0 65279 0 0 65279 0 0 65279 0 0 65279 0 0 65279 0 0 65279 0 0 65279 0 0 65279 0 0 65279 0 0 65279 0 0 65279 0 0 65279 0 0 65279 0 0 65279 0 0 65279 0 0 65279 0 0 65279 0 0 65279 0 0 65279 0 0 65279 0 0 65279 0 0 65279 0 0 65279 0 0 65279 0 0 65279 0 0 65279 0 0 65279 0 0 65279 0 0 65279 0 0 65279 0 0 65279 0 0 65279 0 0 65279 0 0 65279 0 0 65279 0 0 65279 0 0 65279 0 0 65279 0 0 65279 0 0 65279 0 0 65279 0 0 65279 0 0 65279 0 0 65279 0 0 65279 0 0 65279 0 0 65279 0 0 65279 0 0 65279 0 0 65279 0 0 65279 0 0 65279 0 0 65279 0 0 65279 0 0 65279 0 0 65279 0 0 65279 0 0 65279 0 0 65279 0 0 65279 0 0 65279 0 0 65279 0 0 65279 0 0 65279 0 0 65279 0 0 65279 0 0 65279 0 0 65279 0 0 65279 0 0 65279 0 0 65279 0 0 65279 0 0 65279 0 0 65279 0 0 65279 0 0 65279 0 0 65279 0 0 65279 0 0 65279 0 0 65279 0 0 65279 0 0 65279 0 0 65279 0 0 65279 0 0 65279 0 0 65279 0 0 65279 0 0 65279 0 0 65279 0 0 65279 0 0 65279 0 0 65279 0 0 65279 0 0 65279 0 0 65279 0 0 65279 0 0 65279 0 0 65279 0 0 65279 0 0 65279 0 0 65279 0 0 65279 0 0 65279 0 0 65279 0 0 65279 0 0 65279 0 0 65279 0 0 65279 0 0 65279 0 0 65279 0 0 65279 0 0 65279 0 0 65279 0 0 65279 0 0 65279 0 0 65279 0 0 65279 0 0 65279 0 0 65279 0 0 65279 0 0 65279 0 0 65279 0 0 65279 0 0 65279 0 0 65279 0 0 65279 0 0 65279 0 0 65279 0 0 65279 0 0 65279 0 0 65279 0 0 65279 0 0 65279 0 0 65279 0 0 65279 0 0 65279 0 0 65279 0 0 65279 0 0 65279 0 0 65279 0 0 65279 0 0 65279 0 0 65279 0 0 65279 0 0 65279 0 0 65279 0 0 65279 0 0 65279 0 0 65279 0 0 65279 0 0 65279 0 0 65279 0 0 65279 0 0 65279 0 0 65279 0 0 65279 0 0 65279 0 0 65279 0 0 65279 0 0 65279 0 0 65279 0 0 65279 0 0 65279 0 0 65279 0 0 65279 0 0 65279 0 0 65279 0 0 65279 0 0 65279 0 0 65279 0 0 65279 0 0 65279 0 0 65279 0 0 65279 0 0 65279 0 0 65279 0 0 65279 0 0 65279 0 0 65279 0 0 65279 0 0 65279 0 0 65279 0 0 65279 0 0 65279 0 0 65279 0 0 65279 0 0 65279 0 0 65279 0 0 65279 0 0 65279 0 0 65279 0 0 65279 0 0 65279 0 0 65279 0 0 65279 0 0 65279 0 0 65279 0 0 65279 0 0 65279 0 0 65279 0 0 65279 0 0 65279 0 0 65279 0 0 65279 0 0 65279 0 0 65279 0 0 65279 0 0 65279 0 0 65279 0 0 65279 0 0 65279 0 0 65279 0 0 65279 0 0 65279 0 0 65279 0 0 65279 0 0 65279 0 0 65279 0 0 65279 0 0 65279 0 0 65279 0 0 65279 0 0 65279 0 0 65279 0 0 65279 0 0 65279 0 0 65279 0 0 65279 0 0 65279 0 0 65279 0 0 65279 0 0 65279 0 0 65279 0 0 65279 0 0 65279 0 0 65279 0 0 65279 0 0 65279 0 0 65279 0 0 65279 0 0 65279 0 0 65279 0 0 65279 0 0 65279 0 0 65279 0 0 65279 0 0 65279 0 0 65279 0 0 65279 0 0 65279 0 0 65279 0 0 65279 0 0 65279 0 0 65279 0 0 65279 0 0 65279 0 0 65279 0 0 65279 0 0 65279 0 0 65279 0 0 65279 0 0 65279 0 0 65279 0 0 65279 0 0 65279 0 0 65279 0 0 65279 0 0 65279 0 0 65279 0 0 65279 0 0 65279 0 0 65279 0 0 65279 0 0 65279 0 0 65279 0 0 65279 0 0 65279 0 0 65279 0 0 65279 0 0 65279 0 0 65279 0 0 65279 0 0 65279 0 0 65279 0 0 65279 0 0 65279 0 0 65279 0 0 65279 0 0 65279 0 0 65279 0 0 65279 0 0 65279 0 0 65279 0 0 65279 0 0 65279 0 0 65279 0 0 65279 0 0 65279 0 0 65279 0 0 65279 0 0 65279 0 0 65279 0 0 65279 0 0 65279 0 0 65279 0 0 65279 0 0 65279 0 0 65279 0 0 65279 0 0 65279 0 0 65279 0 0 65279 0 0 65279 0 0 65279 0 0 65279 0 0 65279 0 0 65279 0 0 65279 0 0 65279 0 0 65279 0 0 65279 0 0 65279 0 0 65279 0 0 65279 0 0 65279 0 0 65279 0 0 65279 0 0 65279 0 0 65279 0 0 65279 0 0 65279 0 0 65279 0 0 65279 0 0 65279 0 0 65279 0 0 65279 0 0 65279 0 0 65279 0 0 65279 0 0 65279 0 0 65279 0 0 65279 0 0 65279 0 0 65279 0 0 65279 0 0 65279 0 0 65279 0 0 65279 0 0 65279 0 0 65279 0 0 65279 0 0 65279 0 0 65279 0 0 65279 0 0 65279 0 0 65279 0 0 65279 0 0 65279 0 0 65279 0 0 65279 0 0 65279 0 0 65279 0 0 65279 0 0 65279 0 0 65279 0 0 65279 0 0 65279 0 0 65279 0 0 65279 0 0 65279 0 0 65279 0 0 65279 0 0 65279 0 0 65279 0 0 65279 0 0 65279 0 0 65279 0 0 65279 0 0 65279 0 0 65279 0 0 65279 0 0 65279 0 0 65279 0 0 65279 0 0 65279 0 0 65279 0 0 65279 0 0 65279 0 0 65279 0 0 65279 0 0 65279 0 0 65279 0 0 65279 0 0 65279 0 0 65279 0 0 65279 0 0 65279 0 0 65279 0 0 65279 0 0 65279 0 0 65279 0 0 65279 0 0 65279 0 0 65279 0 0 65279 0 0 65279 0 0 65279 0 0 65279 0 0 65279 0 0 65279 0 0 65279 0 0 65279 0 0 65279 0 0 65279 0 0 65279 0 0 65279 0 0 65279 0 0 65279 0 0 65279 0 0 65279 0 0 65279 0 0 65279 0 0 65279 0 0 65279 0 0 65279 0 0 65279 0 0 65279 0 0 65279 0 0 65279 0 0 65279 0 0 65279 0 0 65279 0 0 65279 0 0 65279 0 0 65279 0 0 65279 0 0 65279 0 0 65279 0 0 65279 0 0 65279 0 0 65279 0 0 65279 0 0 65279 0 0 65279 0 0 65279 0 0 65279 0 0 65279 0 0 65279 0 0 65279 0 0 65279 0 0 65279 0 0 65279 0 0 65279 0 0 65279 0 0 65279 0 0 65279 0 0 65279 0 0 65279 0 0 65279 0 0 65279 0 0 65279 0 0 65279 0 0 65279 0 0 65279 0 0 65279 0 0 65279 0 0 65279 0 0 65279 0 0 65279 0 0 65279 0 0 65279 0 0 65279 0 0 65279 0 0 65279 0 0 65279 0 0 65279 0 0 65279 0 0 65279 0 0 65279 0 0 65279 0 0 65279 0 0 65279 0 0 65279 0 0 65279 0 0 65279 0 0 65279 0 0 65279 0 0 65279 0 0 65279 0 0 65279 0 0 65279 0 0 65279 0 0 65279 0 0 65279 0 0 65279 0 0 65279 0 0 65279 0 0 65279 0 0 65279 0 0 65279 0 0 65279 0 0 65279 0 0 65279 0 0 65279 0 0 65279 0 0 65279 0 0 65279 0 0 65279 0 0 65279 0 0 65279 0 0 65279 0 0 65279 0 0 65279 0 0 65279 0 0 65279 0 0 65279 0 0 65279 0 0 65279 0 0 65279 0 0 65279 0 0 65279 0 0 65279 0 0 65279 0 0 65279 0 0 65279 0 0 65279 0 0 65279 0 0 65279 0 0 65279 0 0 65279 0 0 65279 0 0 65279 0 0 65279 0 0 65279 0 0 65279 0 0 65279 0 0 65279 0 0 65279 0 0 65279 0 0 65279 0 0 65279 0 0 65279 0 0 65279 0 0 65279 0 0 65279 0 0 65279 0 0 65279 0 0 65279 0 0 65279 0 0 65279 0 0 65279 0 0 65279 0 0 65279 0 0 65279 0 0 65279 0 0 65279 0 0 65279 0 0 65279 0 0 65279 0 0 65279 0 0 65279 0 0 65279 0 0 65279 0 0 65279 0 0 65279 0 0 65279 0 0 65279 0 0 65279 0 0 65279 0 0 65279 0 0 65279 0 0 65279 0 0 65279 0 0 65279 0 0 65279 0 0 65279 0 0 65279 0 0 65279 0 0 65279 0 0 65279 0 0 65279 0 0 65279 0 0 65279 0 0 65279 0 0 65279 0 0 65279 0 0 65279 0 0 65279 0 0 65279 0 0 65279 0 0 65279 0 0 65279 0 0 65279 0 0 65279 0 0 65279 0 0 65279 0 0 65279 0 0 65279 0 0 65279 0 0 65279 0 0 65279 0 0 65279 0 0 65279 0 0 65279 0 0 65279 0 0 65279 0 0 65279 0 0 65279 0 0 65279 0 0 65279 0 0 65279 0 0 65279 0 0 65279 0 0 65279 0 0 65279 0 0 65279 0 0 65279 0 0 65279 0 0 65279 0 0 65279 0 0 65279 0 0 65279 0 0 65279 0 0 65279 0 0 65279 0 0 65279 0 0 65279 0 0 65279 0 0 65279 0 0 65279 0 0 65279 0 0 65279 0 0 65279 0 0 65279 0 0 65279 0 0 65279 0 0 65279 0 0 65279 0 0 65279 0 0 65279 0 0 65279 0 0 65279 0 0 65279 0 0 65279 0 0 65279 0 0 65279 0 0 65279 0 0 65279 0 0 65279 0 0 65279 0 0 65279 0 0 65279 0 0 65279 0 0 65279 0 0 65279 0 0 65279 0 0 65279 0 0 65279 0 0 65279 0 0 65279 0 0 65279 0 0 65279 0 0 65279 0 0 65279 0 0 65279 0 0 65279 0 0 65279 0 0 65279 0 0 65279 0 0 65279 0 0 65279 0 0 65279 0 0 65279 0 0 65279 0 0 65279 0 0 65279 0 0 65279 0 0 65279 0 0 65279 0 0 65279 0 0 65279 0 0 65279 0 0 65279 0 0 65279 0 0 65279 0 0 65279 0 0 65279 0 0 65279 0 0 65279 0 0 65279 0 0 65279 0 0 65279 0 0 65279 0 0 65279 0 0 65279 0 0 65279 0 0 65279 0 0 65279 0 0 65279 0 0 65279 0 0 65279 0 0 65279 0 0 65279 0 0 65279 0 0 65279 0 0 65279 0 0 65279 0 0 65279 0 0 65279 0 0 65279 0 0 65279 0 0 65279 0 0 65279 0 0 65279 0 0 65279 0 0 65279 0 0 65279 0 0 65279 0 0 65279 0 0 65279 0 0 65279 0 0 65279 0 0 65279 0 0 65279 0 0 65279 0 0 65279 0 0 65279 0 0 65279 0 0 65279 0 0 65279 0 0 65279 0 0 65279 0 0 65279 0 0 65279 0 0 65279 0 0 65279 0 0 65279 0 0 65279 0 0 65279 0 0 65279 0 0 65279 0 0 65279 0 0 65279 0 0 65279 0 0 65279 0 0 65279 0 0 65279 0 0 65279 0 0 65279 0 0 65279 0 0 65279 0 0 65279 0 0 65279 0 0 65279 0 0 65279 0 0 65279 0 0 65279 0 0 65279 0 0 65279 0 0 65279 0 0 65279 0 0 65279 0 0 65279 0 0 65279 0 0 65279 0 0 65279 0 0 65279 0 0 65279 0 0 65279 0 0 65279 0 0 65279 0 0 65279 0 0 65279 0 0 65279 0 0 65279 0 0 65279 0 0 65279 0 0 65279 0 0 65279 0 0 65279 0 0 65279 0 0 65279 0 0 65279 0 0 65279 0 0 65279 0 0 65279 0 0 65279 0 0 65279 0 0 65279 0 0 65279 0 0 65279 0 0 65279 0 0 65279 0 0 65279 0 0 65279 0 0 65279 0 0 65279 0 0 65279 0 0 65279 0 0 65279 0 0 65279 0 0 65279 0 0 65279 0 0 65279 0 0 65279 0 0 65279 0 0 65279 0 0 65279 0 0 65279 0 0 65279 0 0 65279 0 0 65279 0 0 65279 0 0 65279 0 0 65279 0 0 65279 0 0 65279 0 0 65279 0 0 65279 0 0 65279 0 0 65279 0 0 65279 0 0 65279 0 0 65279 0 0 65279 0 0 65279 0 0 65279 0 0 65279 0 0 65279 0 0 65279 0 0 65279 0 0 65279 0 0 65279 0 0 65279 0 0 65279 0 0 65279 0 0 65279 0 0 65279 0 0 65279 0 0 65279 0 0 65279 0 0 65279 0 0 65279 0 0 65279 0 0 65279 0 0 65279 0 0 65279 0 0 65279 0 0 65279 0 0 65279 0 0 65279 0 0 65279 0 0 65279 0 0 65279 0 0 65279 0 0 65279 0 0 65279 0 0 65279 0 0 65279 0 0 65279 0 0 65279 0 0 65279 0 0 65279 0 0 65279 0 0 65279 0 0 65279 0 0 65279 0 0 65279 0 0 65279 0 0 65279 0 0 65279 0 0 65279 0 0 65279 0 0 65279 0 0 65279 0 0 65279 0 0 65279 0 0 65279 0 0 65279 0 0 65279 0 0 65279 0 0 65279 0 0 65279 0 0 65279 0 0 65279 0 0 65279 0 0 65279 0 0 65279 0 0 65279 0 0 65279 0 0 65279 0 0 65279 0 0 65279 0 0 65279 0 0 65279 0 0 65279 0 0 65279 0 0 65279 0 0 65279 0 0 65279 0 0 65279 0 0 65279 0 0 65279 0 0 65279 0 0 65279 0 0 65279 0 0 65279 0 0 65279 0 0 65279 0 0 65279 0 0 65279 0 0 65279 0 0 65279 0 0 65279 0 0 65279 0 0 65279 0 0 65279 0 0 65279 0 0 65279 0 0 65279 0 0 65279 0 0 65279 0 0 65279 0 0 65279 0 0 65279 0 0 65279 0 0 65279 0 0 65279 0 0 65279 0 0 65279 0 0 65279 0 0 65279 0 0 65279 0 0 65279 0 0 65279 0 0 65279 0 0 65279 0 0 65279 0 0 65279 0 0 65279 0 0 65279 0 0 65279 0 0 65279 0 0 65279 0 0 65279 0 0 65279 0 0 65279 0 0 65279 0 0 65279 0 0 65279 0 0 65279 0 0 65279 0 0 65279 0 0 65279 0 0 65279 0 0 65279 0 0 65279 0 0 65279 0 0 65279 0 0 65279 0 0 65279 0 0 65279 0 0 65279 0 0 65279 0 0 65279 0 0 65279 0 0 65279 0 0 65279 0 0 65279 0 0 65279 0 0 65279 0 0 65279 0 0 65279 0 0 65279 0 0 65279 0 0 65279 0 0 65279 0 0 65279 0 0 65279 0 0 65279 0 0 65279 0 0 65279 0 0 65279 0 0 65279 0 0 65279 0 0 65279 0 0 65279 0 0 65279 0 0 65279 0 0 65279 0 0 65279 0 0 65279 0 0 65279 0 0 65279 0 0 65279 0 0 65279 0 0 65279 0 0 65279 0 0 65279 0 0 65279 0 0 65279 0 0 65279 0 0 65279 0 0 65279 0 0 65279 0 0 65279 0 0 65279 0 0 65279 0 0 65279 0 0 65279 0 0 65279 0 0 65279 0 0 65279 0 0 65279 0 0 65279 0 0 65279 0 0 65279 0 0 65279 0 0 65279 0 0 65279 0 0 65279 0 0 65279 0 0 65279 0 0 65279 0 0 65279 0 0 65279 0 0 65279 0 0 65279 0 0 65279 0 0 65279 0 0 65279 0 0 65279 0 0 65279 0 0 65279 0 0 65279 0 0 65279 0 0 65279 0 0 65279 0 0 65279 0 0 65279 0 0 65279 0 0 65279 0 0 65279 0 0 65279 0 0 65279 0 0 65279 0 0 65279 0 0 65279 0 0 65279 0 0 65279 0 0 65279 0 0 65279 0 0 65279 0 0 65279 0 0 65279 0 0 65279 0 0 65279 0 0 65279 0 0 65279 0 0 65279 0 0 65279 0 0 65279 0 0 65279 0 0 65279 0 0 65279 0 0 65279 0 0 65279 0 0 65279 0 0 65279 0 0 65279 0 0 65279 0 0 65279 0 0 65279 0 0 65279 0 0 65279 0 0 65279 0 0 65279 0 0 65279 0 0 65279 0 0 65279 0 0 65279 0 0 65279 0 0 65279 0 0 65279 0 0 65279 0 0 65279 0 0 65279 0 0 65279 0 0 65279 0 0 65279 0 0 65279 0 0 65279 0 0 65279 0 0 65279 0 0 65279 0 0 65279 0 0 65279 0 0 65279 0 0 65279 0 0 65279 0 0 65279 0 0 65279 0 0 65279 0 0 65279 0 0 65279 0 0 65279 0 0 65279 0 0 65279 0 0 65279 0 0 65279 0 0 65279 0 0 65279 0 0 65279 0 0 65279 0 0 65279 0 0 65279 0 0 65279 0 0 65279 0 0 65279 0 0 65279 0 0 65279 0 0 65279 0 0 65279 0 0 65279 0 0 65279 0 0 65279 0 0 65279 0 0 65279 0 0 65279 0 0 65279 0 0 65279 0 0 65279 0 0 65279 0 0 65279 0 0 65279 0 0 65279 0 0 65279 0 0 65279 0 0 65279 0 0 65279 0 0 65279 0 0 65279 0 0 65279 0 0 65279 0 0 65279 0 0 65279 0 0 65279 0 0 65279 0 0 65279 0 0 65279 0 0 65279 0 0 65279 0 0 65279 0 0 65279 0 0 65279 0 0 65279 0 0 65279 0 0 65279 0 0 65279 0 0 65279 0 0 65279 0 0 65279 0 0 65279 0 0 65279 0 0 65279 0 0 65279 0 0 65279 0 0 65279 0 0 65279 0 0 65279 0 0 65279 0 0 65279 0 0 65279 0 0 65279 0 0 65279 0 0 65279 0 0 65279 0 0 65279 0 0 65279 0 0 65279 0 0 65279 0 0 65279 0 0 65279 0 0 65279 0 0 65279 0 0 65279 0 0 65279 0 0 65279 0 0 65279 0 0 65279 0 0 65279 0 0 65279 0 0 65279 0 0 65279 0 0 65279 0 0 65279 0 0 65279 0 0 65279 0 0 65279 0 0 65279 0 0 65279 0 0 65279 0 0 65279 0 0 65279 0 0 65279 0 0 65279 0 0 65279 0 0 65279 0 0 65279 0 0 65279 0 0 65279 0 0 65279 0 0 65279 0 0 65279 0 0 65279 0 0 65279 0 0 65279 0 0 65279 0 0 65279 0 0 65279 0 0 65279 0 0 65279 0 0 65279 0 0 65279 0 0 65279 0 0 65279 0 0 65279 0 0 65279 0 0 65279 0 0 65279 0 0 65279 0 0 65279 0 0 65279 0 0 65279 0 0 65279 0 0 65279 0 0 65279 0 0 65279 0 0 65279 0 0 65279 0 0 65279 0 0 65279 0 0 65279 0 0 65279 0 0 65279 0 0 65279 0 0 65279 0 0 65279 0 0 65279 0 0 65279 0 0 65279 0 0 65279 0 0 65279 0 0 65279 0 0 65279 0 0 65279 0 0 65279 0 0 65279 0 0 65279 0 0 65279 0 0 65279 0 0 65279 0 0 65279 0 0 65279 0 0 65279 0 0 65279 0 0 65279 0 0 65279 0 0 65279 0 0 65279 0 0 65279 0 0 65279 0 0 65279 0 0 65279 0 0 65279 0 0 65279 0 0 65279 0 0 65279 0 0 65279 0 0 65279 0 0 65279 0 0 65279 0 0 65279 0 0 65279 0 0 65279 0 0 65279 0 0 65279 0 0 65279 0 0 65279 0 0 65279 0 0 65279 0 0 65279 0 0 65279 0 0 65279 0 0 65279 0 0 65279 0 0 65279 0 0 65279 0 0 65279 0 0 65279 0 0 65279 0 0 65279 0 0 65279 0 0 65279 0 0 65279 0 0 65279 0 0 65279 0 0 65279 0 0 65279 0 0 65279 0 0 65279 0 0 65279 0 0 65279 0 0 65279 0 0 65279 0 0 65279 0 0 65279 0 0 65279 0 0 65279 0 0 65279 0 0 65279 0 0 65279 0 0 65279 0 0 65279 0 0 65279 0 0 65279 0 0 65279 0 0 65279 0 0 65279 0 0 65279 0 0 65279 0 0 65279 0 0 65279 0 0 65279 0 0 65279 0 0 65279 0 0 65279 0 0 65279 0 0 65279 0 0 65279 0 0 65279 0 0 65279 0 0 65279 0 0 65279 0 0 65279 0 0 65279 0 0 65279 0 0 65279 0 0 65279 0 0 65279 0 0 65279 0 0 65279 0 0 65279 0 0 65279 0 0 65279 0 0 65279 0 0 65279 0 0 65279 0 0 65279 0 0 65279 0 0 65279 0 0 65279 0 0 65279 0 0 65279 0 0 65279 0 0 65279 0 0 65279 0 0 65279 0 0 65279 0 0 65279 0 0 65279 0 0 65279 0 0 65279 0 0 65279 0 0 65279 0 0 65279 0 0 65279 0 0 65279 0 0 65279 0 0 65279 0 0 65279 0 0 65279 0 0 65279 0 0 65279 0 0 65279 0 0 65279 0 0 65279 0 0 65279 0 0 65279 0 0 65279 0 0 65279 0 0 65279 0 0 65279 0 0 65279 0 0 65279 0 0 65279 0 0 65279 0 0 65279 0 0 65279 0 0 65279 0 0 65279 0 0 65279 0 0 65279 0 0 65279 0 0 65279 0 0 65279 0 0 65279 0 0 65279 0 0 65279 0 0 65279 0 0 65279 0 0 65279 0 0 65279 0 0 65279 0 0 65279 0 0 65279 0 0 65279 0 0 65279 0 0 65279 0 0 65279 0 0 65279 0 0 65279 0 0 65279 0 0 65279 0 0 65279 0 0 65279 0 0 65279 0 0 65279 0 0 65279 0 0 65279 0 0 65279 0 0 65279 0 0 65279 0 0 65279 0 0 65279 0 0 65279 0 0 65279 0 0 65279 0 0 65279 0 0 65279 0 0 65279 0 0 65279 0 0 65279 0 0 65279 0 0 65279 0 0 65279 0 0 65279 0 0 65279 0 0 65279 0 0 65279 0 0 65279 0 0 65279 0 0 65279 0 0 65279 0 0 65279 0 0 65279 0 0 65279 0 0 65279 0 0 65279 0 0 65279 0 0 65279 0 0 65279 0 0 65279 0 0 65279 0 0 65279 0 0 65279 0 0 65279 0 0 65279 0 0 65279 0 0 65279 0 0 65279 0 0 65279 0 0 65279 0 0 65279 0 0 65279 0 0 65279 0 0 65279 0 0 65279 0 0 65279 0 0 65279 0 0 65279 0 0 65279 0 0 65279 0 0 65279 0 0 65279 0 0 65279 0 0 65279 0 0 65279 0 0 65279 0 0 65279 0 0 65279 0 0 65279 0 0 65279 0 0 65279 0 0 65279 0 0 65279 0 0 65279 0 0 65279 0 0 65279 0 0 65279 0 0 65279 0 0 65279 0 0 65279 0 0 65279 0 0 65279 0 0 65279 0 0 65279 0 0 65279 0 0 65279 0 0 65279 0 0 65279 0 0 65279 0 0 65279 0 0 65279 0 0 65279 0 0 65279 0 0 65279 0 0 65279 0 0 65279 0 0 65279 0 0 65279 0 0 65279 0 0 65279 0 0 65279 0 0 65279 0 0 65279 0 0 65279 0 0 65279 0 0 65279 0 0 65279 0 0 65279 0 0 65279 0 0 65279 0 0 65279 0 0 65279 0 0 65279 0 0 65279 0 0 65279 0 0 65279 0 0 65279 0 0 65279 0 0 65279 0 0 65279 0 0 65279 0 0 65279 0 0 65279 0 0 65279 0 0 65279 0 0 65279 0 0 65279 0 0 65279 0 0 65279 0 0 65279 0 0 65279 0 0 65279 0 0 65279 0 0 65279 0 0 65279 0 0 65279 0 0 65279 0 0 65279 0 0 65279 0 0 65279 0 0 65279 0 0 65279 0 0 65279 0 0 65279 0 0 65279 0 0 65279 0 0 65279 0 0 65279 0 0 65279 0 0 65279 0 0 65279 0 0 65279 0 0 65279 0 0 65279 0 0 65279 0 0 65279 0 0 65279 0 0 65279 0 0 65279 0 0 65279 0 0 65279 0 0 65279 0 0 65279 0 0 65279 0 0 65279 0 0 65279 0 0 65279 0 0 65279 0 0 65279 0 0 65279 0 0 65279 0 0 65279 0 0 65279 0 0 65279 0 0 65279 0 0 65279 0 0 65279 0 0 65279 0 0 65279 0 0 65279 0 0 65279 0 0 65279 0 0 65279 0 0 65279 0 0 65279 0 0 65279 0 0 65279 0 0 65279 0 0 65279 0 0 65279 0 0 65279 0 0 65279 0 0 65279 0 0 65279 0 0 65279 0 0 65279 0 0 65279 0 0 65279 0 0 65279 0 0 65279 0 0 65279 0 0 65279 0 0 65279 0 0 65279 0 0 65279 0 0 65279 0 0 65279 0 0 65279 0 0 65279 0 0 65279 0 0 65279 0 0 65279 0 0 65279 0 0 65279 0 0 65279 0 0 65279 0 0 65279 0 0 65279 0 0 65279 0 0 65279 0 0 65279 0 0 65279 0 0 65279 0 0 65279 0 0 65279 0 0 65279 0 0 65279 0 0 65279 0 0 65279 0 0 65279 0 0 65279 0 0 65279 0 0 65279 0 0 65279 0 0 65279 0 0 65279 0 0 65279 0 0 65279 0 0 65279 0 0 65279 0 0 65279 0 0 65279 0 0 65279 0 0 65279 0 0 65279 0 0 65279 0 0 65279 0 0 65279 0 0 65279 0 0 65279 0 0 65279 0 0 65279 0 0 65279 0 0 65279 0 0 65279 0 0 65279 0 0 65279 0 0 65279 0 0 65279 0 0 65279 0 0 65279 0 0 65279 0 0 65279 0 0 65279 0 0 65279 0 0 65279 0 0 65279 0 0 65279 0 0 65279 0 0 65279 0 0 65279 0 0 65279 0 0 65279 0 0 65279 0 0 65279 0 0 65279 0 0 65279 0 0 65279 0 0 65279 0 0 65279 0 0 65279 0 0 65279 0 0 65279 0 0 65279 0 0 65279 0 0 65279 0 0 65279 0 0 65279 0 0 65279 0 0 65279 0 0 65279 0 0 65279 0 0 65279 0 0 65279 0 0 65279 0 0 65279 0 0 65279 0 0 65279 0 0 65279 0 0 65279 0 0 65279 0 0 65279 0 0 65279 0 0 65279 0 0 65279 0 0 65279 0 0 65279 0 0 65279 0 0 65279 0 0 65279 0 0 65279 0 0 65279 0 0 65279 0 0 65279 0 0 65279 0 0 65279 0 0 65279 0 0 65279 0 0 65279 0 0 65279 0 0 65279 0 0 65279 0 0 65279 0 0 65279 0 0 65279 0 0 65279 0 0 65279 0 0 65279 0 0 65279 0 0 65279 0 0 65279 0 0 65279 0 0 65279 0 0 65279 0 0 65279 0 0 65279 0 0 65279 0 0 65279 0 0 65279 0 0 65279 0 0 65279 0 0 65279 0 0 65279 0 0 65279 0 0 65279 0 0 65279 0 0 65279 0 0 65279 0 0 65279 0 0 65279 0 0 65279 0 0 65279 0 0 65279 0 0 65279 0 0 65279 0 0 65279 0 0 65279 0 0 65279 0 0 65279 0 0 65279 0 0 65279 0 0 65279 0 0 65279 0 0 65279 0 0 65279 0 0 65279 0 0 65279 0 0 65279 0 0 65279 0 0 65279 0 0 65279 0 0 65279 0 0 65279 0 0 65279 0 0 65279 0 0 65279 0 0 65279 0 0 65279 0 0 65279 0 0 65279 0 0 65279 0 0 65279 0 0 65279 0 0 65279 0 0 65279 0 0 65279 0 0 65279 0 0 65279 0 0 65279 0 0 65279 0 0 65279 0 0 65279 0 0 65279 0 0 65279 0 0 65279 0 0 65279 0 0 65279 0 0 65279 0 0 65279 0 0 65279 0 0 65279 0 0 65279 0 0 65279 0 0 65279 0 0 65279 0 0 65279 0 0 65279 0 0 65279 0 0 65279 0 0 65279 0 0 65279 0 0 65279 0 0 65279 0 0 65279 0 0 65279 0 0 65279 0 0 65279 0 0 65279 0 0 65279 0 0 65279 0 0 65279 0 0 65279 0 0 65279 0 0 65279 0 0 65279 0 0 65279 0 0 65279 0 0 65279 0 0 65279 0 0 65279 0 0 65279 0 0 65279 0 0 65279 0 0 65279 0 0 65279 0 0 65279 0 0 65279 0 0 65279 0 0 65279 0 0 65279 0 0 65279 0 0 65279 0 0 65279 0 0 65279 0 0 65279 0 0 65279 0 0 65279 0 0 65279 0 0 65279 0 0 65279 0 0 65279 0 0 65279 0 0 65279 0 0 65279 0 0 65279 0 0 65279 0 0 65279 0 0 65279 0 0 65279 0 0 65279 0 0 65279 0 0 65279 0 0 65279 0 0 65279 0 0 65279 0 0 65279 0 0 65279 0 0 65279 0 0 65279 0 0 65279 0 0 65279 0 0 65279 0 0 65279 0 0 65279 0 0 65279 0 0 65279 0 0 65279 0 0 65279 0 0 65279 0 0 65279 0 0 65279 0 0 65279 0 0 65279 0 0 65279 0 0 65279 0 0 65279 0 0 65279 0 0 65279 0 0 65279 0 0 65279 0 0 65279 0 0 65279 0 0 65279 0 0 65279 0 0 65279 0 0 65279 0 0 65279 0 0 65279 0 0 65279 0 0 65279 0 0 65279 0 0 65279 0 0 65279 0 0 65279 0 0 65279 0 0 65279 0 0 65279 0 0 65279 0 0 65279 0 0 65279 0 0 65279 0 0 65279 0 0 65279 0 0 65279 0 0 65279 0 0 65279 0 0 65279 0 0 65279 0 0 65279 0 0 65279 0 0 65279 0 0 65279 0 0 65279 0 0 65279 0 0 65279 0 0 65279 0 0 65279 0 0 65279 0 0 65279 0 0 65279 0 0 65279 0 0 65279 0 0 65279 0 0 65279 0 0 65279 0 0 65279 0 0 65279 0 0 65279 0 0 65279 0 0 65279 0 0 65279 0 0 65279 0 0 65279 0 0 65279 0 0 65279 0 0 65279 0 0 65279 0 0 65279 0 0 65279 0 0 65279 0 0 65279 0 0 65279 0 0 65279 0 0 65279 0 0 65279 0 0 65279 0 0 65279 0 0 65279 0 0 65279 0 0 65279 0 0 65279 0 0 65279 0 0 65279 0 0 65279 0 0 65279 0 0 65279 0 0 65279 0 0 65279 0 0 65279 0 0 65279 0 0 65279 0 0 65279 0 0 65279 0 0 65279 0 0 65279 0 0 65279 0 0 65279 0 0 65279 0 0 65279 0 0 65279 0 0 65279 0 0 65279 0 0 65279 0 0 65279 0 0 65279 0 0 65279 0 0 65279 0 0 65279 0 0 65279 0 0 65279 0 0 65279 0 0 65279 0 0 65279 0 0 65279 0 0 65279 0 0 65279 0 0 65279 0 0 65279 0 0 65279 0 0 65279 0 0 65279 0 0 65279 0 0 65279 0 0 65279 0 0 65279 0 0 65279 0 0 65279 0 0 65279 0 0 65279 0 0 65279 0 0 65279 0 0 65279 0 0 65279 0 0 65279 0 0 65279 0 0 65279 0 0 65279 0 0 65279 0 0 65279 0 0 65279 0 0 65279 0 0 65279 0 0 65279 0 0 65279 0 0 65279 0 0 65279 0 0 65279 0 0 65279 0 0 65279 0 0 65279 0 0 65279 0 0 65279 0 0 65279 0 0 65279 0 0 65279 0 0 65279 0 0 65279 0 0 65279 0 0 65279 0 0 65279 0 0 65279 0 0 65279 0 0 65279 0 0 65279 0 0 65279 0 0 65279 0 0 65279 0 0 65279 0 0 65279 0 0 65279 0 0 65279 0 0 65279 0 0 65279 0 0 65279 0 0 65279 0 0 65279 0 0 65279 0 0 65279 0 0 65279 0 0 65279 0 0 65279 0 0 65279 0 0 65279 0 0 65279 0 0 65279 0 0 65279 0 0 65279 0 0 65279 0 0 65279 0 0 65279 0 0 65279 0 0 65279 0 0 65279 0 0 65279 0 0 65279 0 0 65279 0 0 65279 0 0 65279 0 0 65279 0 0 65279 0 0 65279 0 0 65279 0 0 65279 0 0 65279 0 0 65279 0 0 65279 0 0 65279 0 0 65279 0 0 65279 0 0 65279 0 0 65279 0 0 65279 0 0 65279 0 0 65279 0 0 65279 0 0 65279 0 0 65279 0 0 65279 0 0 65279 0 0 65279 0 0 65279 0 0 65279 0 0 65279 0 0 65279 0 0 65279 0 0 65279 0 0 65279 0 0 65279 0 0 65279 0 0 65279 0 0 65279 0 0 65279 0 0 65279 0 0 65279 0 0 65279 0 0 65279 0 0 65279 0 0 65279 0 0 65279 0 0 65279 0 0 65279 0 0 65279 0 0 65279 0 0 65279 0 0 65279 0 0 65279 0 0 65279 0 0 65279 0 0 65279 0 0 65279 0 0 65279 0 0 65279 0 0 65279 0 0 65279 0 0 65279 0 0 65279 0 0 65279 0 0 65279 0 0 65279 0 0 65279 0 0 65279 0 0 65279 0 0 65279 0 0 65279 0 0 65279 0 0 65279 0 0 65279 0 0 65279 0 0 65279 0 0 65279 0 0 65279 0 0 65279 0 0 65279 0 0 65279 0 0 65279 0 0 65279 0 0 65279 0 0 65279 0 0 65279 0 0 65279 0 0 65279 0 0 65279 0 0 65279 0 0 65279 0 0 65279 0 0 65279 0 0 65279 0 0 65279 0 0 65279 0 0 65279 0 0 65279 0 0 65279 0 0 65279 0 0 65279 0 0 65279 0 0 65279 0 0 65279 0 0 65279 0 0 65279 0 0 65279 0 0 65279 0 0 65279 0 0 65279 0 0 65279 0 0 65279 0 0 65279 0 0 65279 0 0 65279 0 0 65279 0 0 65279 0 0 65279 0 0 65279 0 0 65279 0 0 65279 0 0 65279 0 0 65279 0 0 65279 0 0 65279 0 0 65279 0 0 65279 0 0 65279 0 0 65279 0 0 65279 0 0 65279 0 0 65279 0 0 65279 0 0 65279 0 0 65279 0 0 65279 0 0 65279 0 0 65279 0 0 65279 0 0 65279 0 0 65279 0 0 65279 0 0 65279 0 0 65279 0 0 65279 0 0 65279 0 0 65279 0 0 65279 0 0 65279 0 0 65279 0 0 65279 0 0 65279 0 0 65279 0 0 65279 0 0 65279 0 0 65279 0 0 65279 0 0 65279 0 0 65279 0 0 65279 0 0 65279 0 0 65279 0 0 65279 0 0 65279 0 0 65279 0 0 65279 0 0 65279 0 0 65279 0 0 65279 0 0 65279 0 0 65279 0 0 65279 0 0 65279 0 0 65279 0 0 65279 0 0 65279 0 0 65279 0 0 65279 0 0 65279 0 0 65279 0 0 65279 0 0 65279 0 0 65279 0 0 65279 0 0 65279 0 0 65279 0 0 65279 0 0 65279 0 0 65279 0 0 65279 0 0 65279 0 0 65279 0 0 65279 0 0 65279 0 0 65279 0 0 65279 0 0 65279 0 0 65279 0 0 65279 0 0 65279 0 0 65279 0 0 65279 0 0 65279 0 0 65279 0 0 65279 0 0 65279 0 0 65279 0 0 65279 0 0 65279 0 0 65279 0 0 65279 0 0 65279 0 0 65279 0 0 65279 0 0 65279 0 0 65279 0 0 65279 0 0 65279 0 0 65279 0 0 65279 0 0 65279 0 0 65279 0 0 65279 0 0 65279 0 0 65279 0 0 65279 0 0 65279 0 0 65279 0 0 65279 0 0 65279 0 0 65279 0 0 65279 0 0 65279 0 0 65279 0 0 65279 0 0 65279 0 0 65279 0 0 65279 0 0 65279 0 0 65279 0 0 65279 0 0 65279 0 0 65279 0 0 65279 0 0 65279 0 0 65279 0 0 65279 0 0 65279 0 0 65279 0 0 65279 0 0 65279 0 0 65279 0 0 65279 0 0 65279 0 0 65279 0 0 65279 0 0 65279 0 0 65279 0 0 65279 0 0 65279 0 0 65279 0 0 65279 0 0 65279 0 0 65279 0 0 65279 0 0 65279 0 0 65279 0 0 65279 0 0 65279 0 0 65279 0 0 65279 0 0 65279 0 0 65279 0 0 65279 0 0 65279 0 0 65279 0 0 65279 0 0 65279 0 0 65279 0 0 65279 0 0 65279 0 0 65279 0 0 65279 0 0 65279 0 0 65279 0 0 65279 0 0 65279 0 0 65279 0 0 65279 0 0 65279 0 0 65279 0 0 65279 0 0 65279 0 0 65279 0 0 65279 0 0 65279 0 0 65279 0 0 65279 0 0 65279 0 0 65279 0 0 65279 0 0 65279 0 0 65279 0 0 65279 0 0 65279 0 0 65279 0 0 65279 0 0 65279 0 0 65279 0 0 65279 0 0 65279 0 0 65279 0 0 65279 0 0 65279 0 0 65279 0 0 65279 0 0 65279 0 0 65279 0 0 65279 0 0 65279 0 0 65279 0 0 65279 0 0 65279 0 0 65279 0 0 65279 0 0 65279 0 0 65279 0 0 65279 0 0 65279 0 0 65279 0 0 65279 0 0 65279 0 0 65279 0 0 65279 0 0 65279 0 0 65279 0 0 65279 0 0 65279 0 0 65279 0 0 65279 0 0 65279 0 0 65279 0 0 65279 0 0 65279 0 0 65279 0 0 65279 0 0 65279 0 0 65279 0 0 65279 0 0 65279 0 0 65279 0 0 65279 0 0 65279 0 0 65279 0 0 65279 0 0 65279 0 0 65279 0 0 65279 0 0 65279 0 0 65279 0 0 65279 0 0 65279 0 0 65279 0 0 65279 0 0 65279 0 0 65279 0 0 65279 0 0 65279 0 0 65279 0 0 65279 0 0 65279 0 0 65279 0 0 65279 0 0 65279 0 0 65279 0 0 65279 0 0 65279 0 0 65279 0 0 65279 0 0 65279 0 0 65279 0 0 65279 0 0 65279 0 0 65279 0 0 65279 0 0 65279 0 0 65279 0 0 65279 0 0 65279 0 0 65279 0 0 65279 0 0 65279 0 0 65279 0 0 65279 0 0 65279 0 0 65279 0 0 65279 0 0 65279 0 0 65279 0 0 65279 0 0 65279 0 0 65279 0 0 65279 0 0 65279 0 0 65279 0 0 65279 0 0 65279 0 0 65279 0 0 65279 0 0 65279 0 0 65279 0 0 65279 0 0 65279 0 0 65279 0 0 65279 0 0 65279 0 0 65279 0 0 65279 0 0 65279 0 0 65279 0 0 65279 0 0 65279 0 0 65279 0 0 65279 0 0 65279 0 0 65279 0 0 65279 0 0 65279 0 0 65279 0 0 65279 0 0 65279 0 0 65279 0 0 65279 0 0 65279 0 0 65279 0 0 65279 0 0 65279 0 0 65279 0 0 65279 0 0 65279 0 0 65279 0 0 65279 0 0 65279 0 0 65279 0 0 65279 0 0 65279 0 0 65279 0 0 65279 0 0 65279 0 0 65279 0 0 65279 0 0 65279 0 0 65279 0 0 65279 0 0 65279 0 0 65279 0 0 65279 0 0 65279 0 0 65279 0 0 65279 0 0 65279 0 0 65279 0 0 65279 0 0 65279 0 0 65279 0 0 65279 0 0 65279 0 0 65279 0 0 65279 0 0 65279 0 0 65279 0 0 65279 0 0 65279 0 0 65279 0 0 65279 0 0 65279 0 0 65279 0 0 65279 0 0 65279 0 0 65279 0 0 65279 0 0 65279 0 0 65279 0 0 65279 0 0 65279 0 0 65279 0 0 65279 0 0 65279 0 0 65279 0 0 65279 0 0 65279 0 0 65279 0 0 65279 0 0 65279 0 0 65279 0 0 65279 0 0 65279 0 0 65279 0 0 65279 0 0 65279 0 0 65279 0 0 65279 0 0 65279 0 0 65279 0 0 65279 0 0 65279 0 0 65279 0 0 65279 0 0 65279 0 0 65279 0 0 65279 0 0 65279 0 0 65279 0 0 65279 0 0 65279 0 0 65279 0 0 65279 0 0 65279 0 0 65279 0 0 65279 0 0 65279 0 0 65279 0 0 65279 0 0 65279 0 0 65279 0 0 65279 0 0 65279 0 0 65279 0 0 65279 0 0 65279 0 0 65279 0 0 65279 0 0 65279 0 0 65279 0 0 65279 0 0 65279 0 0 65279 0 0 65279 0 0 65279 0 0 65279 0 0 65279 0 0 65279 0 0 65279 0 0 65279 0 0 65279 0 0 65279 0 0 65279 0 0 65279 0 0 65279 0 0 65279 0 0 65279 0 0 65279 0 0 65279 0 0 65279 0 0 65279 0 0 65279 0 0 65279 0 0 65279 0 0 65279 0 0 65279 0 0 65279 0 0 65279 0 0 65279 0 0 65279 0 0 65279 0 0 65279 0 0 65279 0 0 65279 0 0 65279 0 0 65279 0 0 65279 0 0 65279 0 0 65279 0 0 65279 0 0 65279 0 0 65279 0 0 65279 0 0 65279 0 0 65279 0 0 65279 0 0 65279 0 0 65279 0 0 65279 0 0 65279 0 0 65279 0 0 65279 0 0 65279 0 0 65279 0 0 65279 0 0 65279 0 0 65279 0 0 65279 0 0 65279 0 0 65279 0 0 65279 0 0 65279 0 0 65279 0 0 65279 0 0 65279 0 0 65279 0 0 65279 0 0 65279 0 0 65279 0 0 65279 0 0 65279 0 0 65279 0 0 65279 0 0 65279 0 0 65279 0 0 65279 0 0 65279 0 0 65279 0 0 65279 0 0 65279 0 0 65279 0 0 65279 0 0 65279 0 0 65279 0 0 65279 0 0 65279 0 0 65279 0 0 65279 0 0 65279 0 0 65279 0 0 65279 0 0 65279 0 0 65279 0 0 65279 0 0 65279 0 0 65279 0 0 65279 0 0 65279 0 0 65279 0 0 65279 0 0 65279 0 0 65279 0 0 65279 0 0 65279 0 0 65279 0 0 65279 0 0 65279 0 0 65279 0 0 65279 0 0 65279 0 0 65279 0 0 65279 0 0 65279 0 0 65279 0 0 65279 0 0 65279 0 0 65279 0 0 65279 0 0 65279 0 0 65279 0 0 65279 0 0 65279 0 0 65279 0 0 65279 0 0 65279 0 0 65279 0 0 65279 0 0 65279 0 0 65279 0 0 65279 0 0 65279 0 0 65279 0 0 65279 0 0 65279 0 0 65279 0 0 65279 0 0 65279 0 0 65279 0 0 65279 0 0 65279 0 0 65279 0 0 65279 0 0 65279 0 0 65279 0 0 65279 0 0 65279 0 0 65279 0 0 65279 0 0 65279 0 0 65279 0 0 65279 0 0 65279 0 0 65279 0 0 65279 0 0 65279 0 0 65279 0 0 65279 0 0 65279 0 0 65279 0 0 65279 0 0 65279 0 0 65279 0 0 65279 0 0 65279 0 0 65279 0 0 65279 0 0 65279 0 0 65279 0 0 65279 0 0 65279 0 0 65279 0 0 65279 0 0 65279 0 0 65279 0 0 65279 0 0 65279 0 0 65279 0 0 65279 0 0 65279 0 0 65279 0 0 65279 0 0 65279 0 0 65279 0 0 65279 0 0 65279 0 0 65279 0 0 65279 0 0 65279 0 0 65279 0 0 65279 0 0 65279 0 0 65279 0 0 65279 0 0 65279 0 0 65279 0 0 65279 0 0 65279 0 0 65279 0 0 65279 0 0 65279 0 0 65279 0 0 65279 0 0 65279 0 0 65279 0 0 65279 0 0 65279 0 0 65279 0 0 65279 0 0 65279 0 0 65279 0 0 65279 0 0 65279 0 0 65279 0 0 65279 0 0 65279 0 0 65279 0 0 65279 0 0 65279 0 0 65279 0 0 65279 0 0 65279 0 0 65279 0 0 65279 0 0 65279 0 0 65279 0 0 65279 0 0 65279 0 0 65279 0 0 65279 0 0 65279 0 0 65279 0 0 65279 0 0 65279 0 0 65279 0 0 65279 0 0 65279 0 0 65279 0 0 65279 0 0 65279 0 0 65279 0 0 65279 0 0 65279 0 0 65279 0 0 65279 0 0 65279 0 0 65279 0 0 65279 0 0 65279 0 0 65279 0 0 65279 0 0 65279 0 0 65279 0 0 65279 0 0 65279 0 0 65279 0 0 65279 0 0 65279 0 0 65279 0 0 65279 0 0 65279 0 0 65279 0 0 65279 0 0 65279 0 0 65279 0 0 65279 0 0 65279 0 0 65279 0 0 65279 0 0 65279 0 0 65279 0 0 65279 0 0 65279 0 0 65279 0 0 65279 0 0 65279 0 0 65279 0 0 65279 0 0 65279 0 0 65279 0 0 65279 0 0 65279 0 0 65279 0 0 65279 0 0 65279 0 0 65279 0 0 65279 0 0 65279 0 0 65279 0 0 65279 0 0 65279 0 0 65279 0 0 65279 0 0 65279 0 0 65279 0 0 65279 0 0 65279 0 0 65279 0 0 65279 0 0 65279 0 0 65279 0 0 65279 0 0 65279 0 0 65279 0 0 65279 0 0 65279 0 0 65279 0 0 65279 0 0 65279 0 0 65279 0 0 65279 0 0 65279 0 0 65279 0 0 65279 0 0 65279 0 0 65279 0 0 65279 0 0 65279 0 0 65279 0 0 65279 0 0 65279 0 0 65279 0 0 65279 0 0 65279 0 0 65279 0 0 65279 0 0 65279 0 0 65279 0 0 65279 0 0 65279 0 0 65279 0 0 65279 0 0 65279 0 0 65279 0 0 65279 0 0 65279 0 0 65279 0 0 65279 0 0 65279 0 0 65279 0 0 65279 0 0 65279 0 0 65279 0 0 65279 0 0 65279 0 0 65279 0 0 65279 0 0 65279 0 0 65279 0 0 65279 0 0 65279 0 0 65279 0 0 65279 0 0 65279 0 0 65279 0 0 65279 0 0 65279 0 0 65279 0 0 65279 0 0 65279 0 0 65279 0 0 65279 0 0 65279 0 0 65279 0 0 65279 0 0 65279 0 0 65279 0 0 65279 0 0 65279 0 0 65279 0 0 65279 0 0 65279 0 0 65279 0 0 65279 0 0 65279 0 0 65279 0 0 65279 0 0 65279 0 0 65279 0 0 65279 0 0 65279 0 0 65279 0 0 65279 0 0 65279 0 0 65279 0 0 65279 0 0 65279 0 0 65279 0 0 65279 0 0 65279 0 0 65279 0 0 65279 0 0 65279 0 0 65279 0 0 65279 0 0 65279 0 0 65279 0 0 65279 0 0 65279 0 0 65279 0 0 65279 0 0 65279 0 0 65279 0 0 65279 0 0 65279 0 0 65279 0 0 65279 0 0 65279 0 0 65279 0 0 65279 0 0 65279 0 0 65279 0 0 65279 0 0 65279 0 0 65279 0 0 65279 0 0 65279 0 0 65279 0 0 65279 0 0 65279 0 0 65279 0 0 65279 0 0 65279 0 0 65279 0 0 65279 0 0 65279 0 0 65279 0 0 65279 0 0 65279 0 0 65279 0 0 65279 0 0 65279 0 0 65279 0 0 65279 0 0 65279 0 0 65279 0 0 65279 0 0 65279 0 0 65279 0 0 65279 0 0 65279 0 0 65279 0 0 65279 0 0 65279 0 0 65279 0 0 65279 0 0 65279 0 0 65279 0 0 65279 0 0 65279 0 0 65279 0 0 65279 0 0 65279 0 0 65279 0 0 65279 0 0 65279 0 0 65279 0 0 65279 0 0 65279 0 0 65279 0 0 65279 0 0 65279 0 0 65279 0 0 65279 0 0 65279 0 0 65279 0 0 65279 0 0 65279 0 0 65279 0 0 65279 0 0 65279 0 0 65279 0 0 65279 0 0 65279 0 0 65279 0 0 65279 0 0 65279 0 0 65279 0 0 65279 0 0 65279 0 0 65279 0 0 65279 0 0 65279 0 0 65279 0 0 65279 0 0 65279 0 0 65279 0 0 65279 0 0 65279 0 0 65279 0 0 65279 0 0 65279 0 0 65279 0 0 65279 0 0 65279 0 0 65279 0 0 65279 0 0 65279 0 0 65279 0 0 65279 0 0 65279 0 0 65279 0 0 65279 0 0 65279 0 0 65279 0 0 65279 0 0 65279 0 0 65279 0 0 65279 0 0 65279 0 0 65279 0 0 65279 0 0 65279 0 0 65279 0 0 65279 0 0 65279 0 0 65279 0 0 65279 0 0 65279 0 0 65279 0 0 65279 0 0 65279 0 0 65279 0 0 65279 0 0 65279 0 0 65279 0 0 65279 0 0 65279 0 0 65279 0 0 65279 0 0 65279 0 0 65279 0 0 65279 0 0 65279 0 0 65279 0 0 65279 0 0 65279 0 0 65279 0 0 65279 0 0 65279 0 0 65279 0 0 65279 0 0 65279 0 0 65279 0 0 65279 0 0 65279 0 0 65279 0 0 65279 0 0 65279 0 0 65279 0 0 65279 0 0 65279 0 0 65279 0 0 65279 0 0 65279 0 0 65279 0 0 65279 0 0 65279 0 0 65279 0 0 65279 0 0 65279 0 0 65279 0 0 65279 0 0 65279 0 0 65279 0 0 65279 0 0 65279 0 0 65279 0 0 65279 0 0 65279 0 0 65279 0 0 65279 0 0 65279 0 0 65279 0 0 65279 0 0 65279 0 0 65279 0 0 65279 0 0 65279 0 0 65279 0 0 65279 0 0 65279 0 0 65279 0 0 65279 0 0 65279 0 0 65279 0 0 65279 0 0 65279 0 0 65279 0 0 65279 0 0 65279 0 0 65279 0 0 65279 0 0 65279 0 0 65279 0 0 65279 0 0 65279 0 0 65279 0 0 65279 0 0 65279 0 0 65279 0 0 65279 0 0 65279 0 0 65279 0 0 65279 0 0 65279 0 0 65279 0 0 65279 0 0 65279 0 0 65279 0 0 65279 0 0 65279 0 0 65279 0 0 65279 0 0 65279 0 0 65279 0 0 65279 0 0 65279 0 0 65279 0 0 65279 0 0 65279 0 0 65279 0 0 65279 0 0 65279 0 0 65279 0 0 65279 0 0 65279 0 0 65279 0 0 65279 0 0 65279 0 0 65279 0 0 65279 0 0 65279 0 0 65279 0 0 65279 0 0 65279 0 0 65279 0 0 65279 0 0 65279 0 0 65279 0 0 65279 0 0 65279 0 0 65279 0 0 65279 0 0 65279 0 0 65279 0 0 65279 0 0 65279 0 0 65279 0 0 65279 0 0 65279 0 0 65279 0 0 65279 0 0 65279 0 0 65279 0 0 65279 0 0 65279 0 0 65279 0 0 65279 0 0 65279 0 0 65279 0 0 65279 0 0 65279 0 0 65279 0 0 65279 0 0 65279 0 0 65279 0 0 65279 0 0 65279 0 0 65279 0 0 65279 0 0 65279 0 0 65279 0 0 65279 0 0 65279 0 0 65279 0 0 65279 0 0 65279 0 0 65279 0 0 65279 0 0 65279 0 0 65279 0 0 65279 0 0 65279 0 0 65279 0 0 65279 0 0 65279 0 0 65279 0 0 65279 0 0 65279 0 0 65279 0 0 65279 0 0 65279 0 0 65279 0 0 65279 0 0 65279 0 0 65279 0 0 65279 0 0 65279 0 0 65279 0 0 65279 0 0 65279 0 0 65279 0 0 65279 0 0 65279 0 0 65279 0 0 65279 0 0 65279 0 0 65279 0 0 65279 0 0 65279 0 0 65279 0 0 65279 0 0 65279 0 0 65279 0 0 65279 0 0 65279 0 0 65279 0 0 65279 0 0 65279 0 0 65279 0 0 65279 0 0 65279 0 0 65279 0 0 65279 0 0 65279 0 0 65279 0 0 65279 0 0 65279 0 0 65279 0 0 65279 0 0 65279 0 0 65279 0 0 65279 0 0 65279 0 0 65279 0 0 65279 0 0 65279 0 0 65279 0 0 65279 0 0 65279 0 0 65279 0 0 65279 0 0 65279 0 0 65279 0 0 65279 0 0 65279 0 0 65279 0 0 65279 0 0 65279 0 0 65279 0 0 65279 0 0 65279 0 0 65279 0 0 65279 0 0 65279 0 0 65279 0 0 65279 0 0 65279 0 0 65279 0 0 65279 0 0 65279 0 0 65279 0 0 65279 0 0 65279 0 0 65279 0 0 65279 0 0 65279 0 0 65279 0 0 65279 0 0 65279 0 0 65279 0 0 65279 0 0 65279 0 0 65279 0 0 65279 0 0 65279 0 0 65279 0 0 65279 0 0 65279 0 0 65279 0 0 65279 0 0 65279 0 0 65279 0 0 65279 0 0 65279 0 0 65279 0 0 65279 0 0 65279 0 0 65279 0 0 65279 0 0 65279 0 0 65279 0 0 65279 0 0 65279 0 0 65279 0 0 65279 0 0 65279 0 0 65279 0 0 65279 0 0 65279 0 0 65279 0 0 65279 0 0 65279 0 0 65279 0 0 65279 0 0 65279 0 0 65279 0 0 65279 0 0 65279 0 0 65279 0 0 65279 0 0 65279 0 0 65279 0 0 65279 0 0 65279 0 0 65279 0 0 65279 0 0 65279 0 0 65279 0 0 65279 0 0 65279 0 0 65279 0 0 65279 0 0 65279 0 0 65279 0 0 65279 0 0 65279 0 0 65279 0 0 65279 0 0 65279 0 0 65279 0 0 65279 0 0 65279 0 0 65279 0 0 65279 0 0 65279 0 0 65279 0 0 65279 0 0 65279 0 0 65279 0 0 65279 0 0 65279 0 0 65279 0 0 65279 0 0 65279 0 0 65279 0 0 65279 0 0 65279 0 0 65279 0 0 65279 0 0 65279 0 0 65279 0 0 65279 0 0 65279 0 0 65279 0 0 65279 0 0 65279 0 0 65279 0 0 65279 0 0 65279 0 0 65279 0 0 65279 0 0 65279 0 0 65279 0 0 65279 0 0 65279 0 0 65279 0 0 65279 0 0 65279 0 0 65279 0 0 65279 0 0 65279 0 0 65279 0 0 65279 0 0 65279 0 0 65279 0 0 65279 0 0 65279 0 0 65279 0 0 65279 0 0 65279 0 0 65279 0 0 65279 0 0 65279 0 0 65279 0 0 65279 0 0 65279 0 0 65279 0 0 65279 0 0 65279 0 0 65279 0 0 65279 0 0 65279 0 0 65279 0 0 65279 0 0 65279 0 0 65279 0 0 65279 0 0 65279 0 0 65279 0 0 65279 0 0 65279 0 0 65279 0 0 65279 0 0 65279 0 0 65279 0 0 65279 0 0 65279 0 0 65279 0 0 65279 0 0 65279 0 0 65279 0 0 65279 0 0 65279 0 0 65279 0 0 65279 0 0 65279 0 0 65279 0 0 65279 0 0 65279 0 0 65279 0 0 65279 0 0 65279 0 0 65279 0 0 65279 0 0 65279 0 0 65279 0 0 65279 0 0 65279 0 0 65279 0 0 65279 0 0 65279 0 0 65279 0 0 65279 0 0 65279 0 0 65279 0 0 65279 0 0 65279 0 0 65279 0 0 65279 0 0 65279 0 0 65279 0 0 65279 0 0 65279 0 0 65279 0 0 65279 0 0 65279 0 0 65279 0 0 65279 0 0 65279 0 0 65279 0 0 65279 0 0 65279 0 0 65279 0 0 65279 0 0 65279 0 0 65279 0 0 65279 0 0 65279 0 0 65279 0 0 65279 0 0 65279 0 0 65279 0 0 65279 0 0 65279 0 0 65279 0 0 65279 0 0 65279 0 0 65279 0 0 65279 0 0 65279 0 0 65279 0 0 65279 0 0 65279 0 0 65279 0 0 65279 0 0 65279 0 0 65279 0 0 65279 0 0 65279 0 0 65279 0 0 65279 0 0 65279 0 0 65279 0 0 65279 0 0 65279 0 0 65279 0 0 65279 0 0 65279 0 0 65279 0 0 65279 0 0 65279 0 0 65279 0 0 65279 0 0 65279 0 0 65279 0 0 65279 0 0 65279 0 0 65279 0 0 65279 0 0 65279 0 0 65279 0 0 65279 0 0 65279 0 0 65279 0 0 65279 0 0 65279 0 0 65279 0 0 65279 0 0 65279 0 0 65279 0 0 65279 0 0 65279 0 0 65279 0 0 65279 0 0 65279 0 0 65279 0 0 65279 0 0 65279 0 0 65279 0 0 65279 0 0 65279 0 0 65279 0 0 65279 0 0 65279 0 0 65279 0 0 65279 0 0 65279 0 0 65279 0 0 65279 0 0 65279 0 0 65279 0 0 65279 0 0 65279 0 0 65279 0 0 65279 0 0 65279 0 0 65279 0 0 65279 0 0 65279 0 0 65279 0 0 65279 0 0 65279 0 0 65279 0 0 65279 0 0 65279 0 0 65279 0 0 65279 0 0 65279 0 0 65279 0 0 65279 0 0 65279 0 0 65279 0 0 65279 0 0 65279 0 0 65279 0 0 65279 0 0 65279 0 0 65279 0 0 65279 0 0 65279 0 0 65279 0 0 65279 0 0 65279 0 0 65279 0 0 65279 0 0 65279 0 0 65279 0 0 65279 0 0 65279 0 0 65279 0 0 65279 0 0 65279 0 0 65279 0 0 65279 0 0 65279 0 0 65279 0 0 65279 0 0 65279 0 0 65279 0 0 65279 0 0 65279 0 0 65279 0 0 65279 0 0 65279 0 0 65279 0 0 65279 0 0 65279 0 0 65279 0 0 65279 0 0 65279 0 0 65279 0 0 65279 0 0 65279 0 0 65279 0 0 65279 0 0 65279 0 0 65279 0 0 65279 0 0 65279 0 0 65279 0 0 65279 0 0 65279 0 0 65279 0 0 65279 0 0 65279 0 0 65279 0 0 65279 0 0 65279 0 0 65279 0 0 65279 0 0 65279 0 0 65279 0 0 65279 0 0 65279 0 0 65279 0 0 65279 0 0 65279 0 0 65279 0 0 65279 0 0 65279 0 0 65279 0 0 65279 0 0 65279 0 0 65279 0 0 65279 0 0 65279 0 0 65279 0 0 65279 0 0 65279 0 0 65279 0 0 65279 0 0 65279 0 0 65279 0 0 65279 0 0 65279 0 0 65279 0 0 65279 0 0 65279 0 0 65279 0 0 65279 0 0 65279 0 0 65279 0 0 65279 0 0 65279 0 0 65279 0 0 65279 0 0 65279 0 0 65279 0 0 65279 0 0 65279 0 0 65279 0 0 65279 0 0 65279 0 0 65279 0 0 65279 0 0 65279 0 0 65279 0 0 65279 0 0 65279 0 0 65279 0 0 65279 0 0 65279 0 0 65279 0 0 65279 0 0 65279 0 0 65279 0 0 65279 0 0 65279 0 0 65279 0 0 65279 0 0 65279 0 0 65279 0 0 65279 0 0 65279 0 0 65279 0 0 65279 0 0 65279 0 0 65279 0 0 65279 0 0 65279 0 0 65279 0 0 65279 0 0 65279 0 0 65279 0 0 65279 0 0 65279 0 0 65279 0 0 65279 0 0 65279 0 0 65279 0 0 65279 0 0 65279 0 0 65279 0 0 65279 0 0 65279 0 0 65279 0 0 65279 0 0 65279 0 0 65279 0 0 65279 0 0 65279 0 0 65279 0 0 65279 0 0 65279 0 0 65279 0 0 65279 0 0 65279 0 0 65279 0 0 65279 0 0 65279 0 0 65279 0 0 65279 0 0 65279 0 0 65279 0 0 65279 0 0 65279 0 0 65279 0 0 65279 0 0 65279 0 0 65279 0 0 65279 0 0 65279 0 0 65279 0 0 65279 0 0 65279 0 0 65279 0 0 65279 0 0 65279 0 0 65279 0 0 65279 0 0 65279 0 0 65279 0 0 65279 0 0 65279 0 0 65279 0 0 65279 0 0 65279 0 0 65279 0 0 65279 0 0 65279 0 0 65279 0 0 65279 0 0 65279 0 0 65279 0 0 65279 0 0 65279 0 0 65279 0 0 65279 0 0 65279 0 0 65279 0 0 65279 0 0 65279 0 0 65279 0 0 65279 0 0 65279 0 0 65279 0 0 65279 0 0 65279 0 0 65279 0 0 65279 0 0 65279 0 0 65279 0 0 65279 0 0 65279 0 0 65279 0 0 65279 0 0 65279 0 0 65279 0 0 65279 0 0 65279 0 0 65279 0 0 65279 0 0 65279 0 0 65279 0 0 65279 0 0 65279 0 0 65279 0 0 65279 0 0 65279 0 0 65279 0 0 65279 0 0 65279 0 0 65279 0 0 65279 0 0 65279 0 0 65279 0 0 65279 0 0 65279 0 0 65279 0 0 65279 0 0 65279 0 0 65279 0 0 65279 0 0 65279 0 0 65279 0 0 65279 0 0 65279 0 0 65279 0 0 65279 0 0 65279 0 0 65279 0 0 65279 0 0 65279 0 0 65279 0 0 65279 0 0 65279 0 0 65279 0 0 65279 0 0 65279 0 0 65279 0 0 65279 0 0 65279 0 0 65279 0 0 65279 0 0 65279 0 0 65279 0 0 65279 0 0 65279 0 0 65279 0 0 65279 0 0 65279 0 0 65279 0 0 65279 0 0 65279 0 0 65279 0 0 65279 0 0 65279 0 0 65279 0 0 65279 0 0 65279 0 0 65279 0 0 65279 0 0 65279 0 0 65279 0 0 65279 0 0 65279 0 0 65279 0 0 65279 0 0 65279 0 0 65279 0 0 65279 0 0 65279 0 0 65279 0 0 65279 0 0 65279 0 0 65279 0 0 65279 0 0 65279 0 0 65279 0 0 65279 0 0 65279 0 0 65279 0 0 65279 0 0 65279 0 0 65279 0 0 65279 0 0 65279 0 0 65279 0 0 65279 0 0 65279 0 0 65279 0 0 65279 0 0 65279 0 0 65279 0 0 65279 0 0 65279 0 0 65279 0 0 65279 0 0 65279 0 0 65279 0 0 65279 0 0 65279 0 0 65279 0 0 65279 0 0 65279 0 0 65279 0 0 65279 0 0 65279 0 0 65279 0 0 65279 0 0 65279 0 0 65279 0 0 65279 0 0 65279 0 0 65279 0 0 65279 0 0 65279 0 0 65279 0 0 65279 0 0 65279 0 0 65279 0 0 65279 0 0 65279 0 0 65279 0 0 65279 0 0 65279 0 0 65279 0 0 65279 0 0 65279 0 0 65279 0 0 65279 0 0 65279 0 0 65279 0 0 65279 0 0 65279 0 0 65279 0 0 65279 0 0 65279 0 0 65279 0 0 65279 0 0 65279 0 0 65279 0 0 65279 0 0 65279 0 0 65279 0 0 65279 0 0 65279 0 0 65279 0 0 65279 0 0 65279 0 0 65279 0 0 65279 0 0 65279 0 0 65279 0 0 65279 0 0 65279 0 0 65279 0 0 65279 0 0 65279 0 0 65279 0 0 65279 0 0 65279 0 0 65279 0 0 65279 0 0 65279 0 0 65279 0 0 65279 0 0 65279 0 0 65279 0 0 65279 0 0 65279 0 0 65279 0 0 65279 0 0 65279 0 0 65279 0 0 65279 0 0 65279 0 0 65279 0 0 65279 0 0 65279 0 0 65279 0 0 65279 0 0 65279 0 0 65279 0 0 65279 0 0 65279 0 0 65279 0 0 65279 0 0 65279 0 0 65279 0 0 65279 0 0 65279 0 0 65279 0 0 65279 0 0 65279 0 0 65279 0 0 65279 0 0 65279 0 0 65279 0 0 65279 0 0 65279 0 0 65279 0 0 65279 0 0 65279 0 0 65279 0 0 65279 0 0 65279 0 0 65279 0 0 65279 0 0 65279 0 0 65279 0 0 65279 0 0 65279 0 0 65279 0 0 65279 0 0 65279 0 0 65279 0 0 65279 0 0 65279 0 0 65279 0 0 65279 0 0 65279 0 0 65279 0 0 65279 0 0 65279 0 0 65279 0 0 65279 0 0 65279 0 0 65279 0 0 65279 0 0 65279 0 0 65279 0 0 65279 0 0 65279 0 0 65279 0 0 65279 0 0 65279 0 0 65279 0 0 65279 0 0 65279 0 0 65279 0 0 65279 0 0 65279 0 0 65279 0 0 65279 0 0 65279 0 0 65279 0 0 65279 0 0 65279 0 0 65279 0 0 65279 0 0 65279 0 0 65279 0 0 65279 0 0 65279 0 0 65279 0 0 65279 0 0 65279 0 0 65279 0 0 65279 0 0 65279 0 0 65279 0 0 65279 0 0 65279 0 0 65279 0 0 65279 0 0 65279 0 0 65279 0 0 65279 0 0 65279 0 0 65279 0 0 65279 0 0 65279 0 0 65279 0 0 65279 0 0 65279 0 0 65279 0 0 65279 0 0 65279 0 0 65279 0 0 65279 0 0 65279 0 0 65279 0 0 65279 0 0 65279 0 0 65279 0 0 65279 0 0 65279 0 0 65279 0 0 65279 0 0 65279 0 0 65279 0 0 65279 0 0 65279 0 0 65279 0 0 65279 0 0 65279 0 0 65279 0 0 65279 0 0 65279 0 0 65279 0 0 65279 0 0 65279 0 0 65279 0 0 65279 0 0 65279 0 0 65279 0 0 65279 0 0 65279 0 0 65279 0 0 65279 0 0 65279 0 0 65279 0 0 65279 0 0 65279 0 0 65279 0 0 65279 0 0 65279 0 0 65279 0 0 65279 0 0 65279 0 0 65279 0 0 65279 0 0 65279 0 0 65279 0 0 65279 0 0 65279 0 0 65279 0 0 65279 0 0 65279 0 0 65279 0 0 65279 0 0 65279 0 0 65279 0 0 65279 0 0 65279 0 0 65279 0 0 65279 0 0 65279 0 0 65279 0 0 65279 0 0 65279 0 0 65279 0 0 65279 0 0 65279 0 0 65279 0 0 65279 0 0 65279 0 0 65279 0 0 65279 0 0 65279 0 0 65279 0 0 65279 0 0 65279 0 0 65279 0 0 65279 0 0 65279 0 0 65279 0 0 65279 0 0 65279 0 0 65279 0 0 65279 0 0 65279 0 0 65279 0 0 65279 0 0 65279 0 0 65279 0 0 65279 0 0 65279 0 0 65279 0 0 65279 0 0 65279 0 0 65279 0 0 65279 0 0 65279 0 0 65279 0 0 65279 0 0 65279 0 0 65279 0 0 65279 0 0 65279 0 0 65279 0 0 65279 0 0 65279 0 0 65279 0 0 65279 0 0 65279 0 0 65279 0 0 65279 0 0 65279 0 0 65279 0 0 65279 0 0 65279 0 0 65279 0 0 65279 0 0 65279 0 0 65279 0 0 65279 0 0 65279 0 0 65279 0 0 65279 0 0 65279 0 0 65279 0 0 65279 0 0 65279 0 0 65279 0 0 65279 0 0 65279 0 0 65279 0 0 65279 0 0 65279 0 0 65279 0 0 65279 0 0 65279 0 0 65279 0 0 65279 0 0 65279 0 0 65279 0 0 65279 0 0 65279 0 0 65279 0 0 65279 0 0 65279 0 0 65279 0 0 65279 0 0 65279 0 0 65279 0 0 65279 0 0 65279 0 0 65279 0 0 65279 0 0 65279 0 0 65279 0 0 65279 0 0 65279 0 0 65279 0 0 65279 0 0 65279 0 0 65279 0 0 65279 0 0 65279 0 0 65279 0 0 65279 0 0 65279 0 0 65279 0 0 65279 0 0 65279 0 0 65279 0 0 65279 0 0 65279 0 0 65279 0 0 65279 0 0 65279 0 0 65279 0 0 65279 0 0 65279 0 0 65279 0 0 65279 0 0 65279 0 0 65279 0 0 65279 0 0 65279 0 0 65279 0 0 65279 0 0 65279 0 0 65279 0 0 65279 0 0 65279 0 0 65279 0 0 65279 0 0 65279 0 0 65279 0 0 65279 0 0 65279 0 0 65279 0 0 65279 0 0 65279 0 0 65279 0 0 65279 0 0 65279 0 0 65279 0 0 65279 0 0 65279 0 0 65279 0 0 65279 0 0 65279 0 0 65279 0 0 65279 0 0 65279 0 0 65279 0 0 65279 0 0 65279 0 0 65279 0 0 65279 0 0 65279 0 0 65279 0 0 65279 0 0 65279 0 0 65279 0 0 65279 0 0 65279 0 0 65279 0 0 65279 0 0 65279 0 0 65279 0 0 65279 0 0 65279 0 0 65279 0 0 65279 0 0 65279 0 0 65279 0 0 65279 0 0 65279 0 0 65279 0 0 65279 0 0 65279 0 0 65279 0 0 65279 0 0 65279 0 0 65279 0 0 65279 0 0 65279 0 0 65279 0 0 65279 0 0 65279 0 0 65279 0 0 65279 0 0 65279 0 0 65279 0 0 65279 0 0 65279 0 0 65279 0 0 65279 0 0 65279 0 0 65279 0 0 65279 0 0 65279 0 0 65279 0 0 65279 0 0 65279 0 0 65279 0 0 65279 0 0 65279 0 0 65279 0 0 65279 0 0 65279 0 0 65279 0 0 65279 0 0 65279 0 0 65279 0 0 65279 0 0 65279 0 0 65279 0 0 65279 0 0 65279 0 0 65279 0 0 65279 0 0 65279 0 0 65279 0 0 65279 0 0 65279 0 0 65279 0 0 65279 0 0 65279 0 0 65279 0 0 65279 0 0 65279 0 0 65279 0 0 65279 0 0 65279 0 0 65279 0 0 65279 0 0 65279 0 0 65279 0 0 65279 0 0 65279 0 0 65279 0 0 65279 0 0 65279 0 0 65279 0 0 65279 0 0 65279 0 0 65279 0 0 65279 0 0 65279 0 0 65279 0 0 65279 0 0 65279 0 0 65279 0 0 65279 0 0 65279 0 0 65279 0 0 65279 0 0 65279 0 0 65279 0 0 65279 0 0 65279 0 0 65279 0 0 65279 0 0 65279 0 0 65279 0 0 65279 0 0 65279 0 0 65279 0 0 65279 0 0 65279 0 0 65279 0 0 65279 0 0 65279 0 0 65279 0 0 65279 0 0 65279 0 0 65279 0 0 65279 0 0 65279 0 0 65279 0 0 65279 0 0 65279 0 0 65279 0 0 65279 0 0 65279 0 0 65279 0 0 65279 0 0 65279 0 0 65279 0 0 65279 0 0 65279 0 0 65279 0 0 65279 0 0 65279 0 0 65279 0 0 65279 0 0 65279 0 0 65279 0 0 65279 0 0 65279 0 0 65279 0 0 65279 0 0 65279 0 0 65279 0 0 65279 0 0 65279 0 0 65279 0 0 65279 0 0 65279 0 0 65279 0 0 65279 0 0 65279 0 0 65279 0 0 65279 0 0 65279 0 0 65279 0 0 65279 0 0 65279 0 0 65279 0 0 65279 0 0 65279 0 0 65279 0 0 65279 0 0 65279 0 0 65279 0 0 65279 0 0 65279 0 0 65279 0 0 65279 0 0 65279 0 0 65279 0 0 65279 0 0 65279 0 0 65279 0 0 65279 0 0 65279 0 0 65279 0 0 65279 0 0 65279 0 0 65279 0 0 65279 0 0 65279 0 0 65279 0 0 65279 0 0 65279 0 0 65279 0 0 65279 0 0 65279 0 0 65279 0 0 65279 0 0 65279 0 0 65279 0 0 65279 0 0 65279 0 0 65279 0 0 65279 0 0 65279 0 0 65279 0 0 65279 0 0 65279 0 0 65279 0 0 65279 0 0 65279 0 0 65279 0 0 65279 0 0 65279 0 0 65279 0 0 65279 0 0 65279 0 0 65279 0 0 65279 0 0 65279 0 0 65279 0 0 65279 0 0 65279 0 0 65279 0 0 65279 0 0 65279 0 0 65279 0 0 65279 0 0 65279 0 0 65279 0 0 65279 0 0 65279 0 0 65279 0 0 65279 0 0 65279 0 0 65279 0 0 65279 0 0 65279 0 0 65279 0 0 65279 0 0 65279 0 0 65279 0 0 65279 0 0 65279 0 0 65279 0 0 65279 0 0 65279 0 0 65279 0 0 65279 0 0 65279 0 0 65279 0 0 65279 0 0 65279 0 0 65279 0 0 65279 0 0 65279 0 0 65279 0 0 65279 0 0 65279 0 0 65279 0 0 65279 0 0 65279 0 0 65279 0 0 65279 0 0 65279 0 0 65279 0 0 65279 0 0 65279 0 0 65279 0 0 65279 0 0 65279 0 0 65279 0 0 65279 0 0 65279 0 0 65279 0 0 65279 0 0 65279 0 0 65279 0 0 65279 0 0 65279 0 0 65279 0 0 65279 0 0 65279 0 0 65279 0 0 65279 0 0 65279 0 0 65279 0 0 65279 0 0 65279 0 0 65279 0 0 65279 0 0 65279 0 0 65279 0 0 65279 0 0 65279 0 0 65279 0 0 65279 0 0 65279 0 0 65279 0 0 65279 0 0 65279 0 0 65279 0 0 65279 0 0 65279 0 0 65279 0 0 65279 0 0 65279 0 0 65279 0 0 65279 0 0 65279 0 0 65279 0 0 65279 0 0 65279 0 0 65279 0 0 65279 0 0 65279 0 0 65279 0 0 65279 0 0 65279 0 0 65279 0 0 65279 0 0 65279 0 0 65279 0 0 65279 0 0 65279 0 0 65279 0 0 65279 0 0 65279 0 0 65279 0 0 65279 0 0 65279 0 0 65279 0 0 65279 0 0 65279 0 0 65279 0 0 65279 0 0 65279 0 0 65279 0 0 65279 0 0 65279 0 0 65279 0 0 65279 0 0 65279 0 0 65279 0 0 65279 0 0 65279 0 0 65279 0 0 65279 0 0 65279 0 0 65279 0 0 65279 0 0 65279 0 0 65279 0 0 65279 0 0 65279 0 0 65279 0 0 65279 0 0 65279 0 0 65279 0 0 65279 0 0 65279 0 0 65279 0 0 65279 0 0 65279 0 0 65279 0 0 65279 0 0 65279 0 0 65279 0 0 65279 0 0 65279 0 0 65279 0 0 65279 0 0 65279 0 0 65279 0 0 65279 0 0 65279 0 0 65279 0 0 65279 0 0 65279 0 0 65279 0 0 65279 0 0 65279 0 0 65279 0 0 65279 0 0 65279 0 0 65279 0 0 65279 0 0 65279 0 0 65279 0 0 65279 0 0 65279 0 0 65279 0 0 65279 0 0 65279 0 0 65279 0 0 65279 0 0 65279 0 0 65279 0 0 65279 0 0 65279 0 0 65279 0 0 65279 0 0 65279 0 0 65279 0 0 65279 0 0 65279 0 0 65279 0 0 65279 0 0 65279 0 0 65279 0 0 65279 0 0 65279 0 0 65279 0 0 65279 0 0 65279 0 0 65279 0 0 65279 0 0 65279 0 0 65279 0 0 65279 0 0 65279 0 0 65279 0 0 65279 0 0 65279 0 0 65279 0 0 65279 0 0 65279 0 0 65279 0 0 65279 0 0 65279 0 0 65279 0 0 65279 0 0 65279 0 0 65279 0 0 65279 0 0 65279 0 0 65279 0 0 65279 0 0 65279 0 0 65279 0 0 65279 0 0 65279 0 0 65279 0 0 65279 0 0 65279 0 0 65279 0 0 65279 0 0 65279 0 0 65279 0 0 65279 0 0 65279 0 0 65279 0 0 65279 0 0 65279 0 0 65279 0 0 65279 0 0 65279 0 0 65279 0 0 65279 0 0 65279 0 0 65279 0 0 65279 0 0 65279 0 0 65279 0 0 65279 0 0 65279 0 0 65279 0 0 65279 0 0 65279 0 0 65279 0 0 65279 0 0 65279 0 0 65279 0 0 65279 0 0 65279 0 0 65279 0 0 65279 0 0 65279 0 0 65279 0 0 65279 0 0 65279 0 0 65279 0 0 65279 0 0 65279 0 0 65279 0 0 65279 0 0 65279 0 0 65279 0 0 65279 0 0 65279 0 0 65279 0 0 65279 0 0 65279 0 0 65279 0 0 65279 0 0 65279 0 0 65279 0 0 65279 0 0 65279 0 0 65279 0 0 65279 0 0 65279 0 0 65279 0 0 65279 0 0 65279 0 0 65279 0 0 65279 0 0 65279 0 0 65279 0 0 65279 0 0 65279 0 0 65279 0 0 65279 0 0 65279 0 0 65279 0 0 65279 0 0 65279 0 0 65279 0 0 65279 0 0 65279 0 0 65279 0 0 65279 0 0 65279 0 0 65279 0 0 65279 0 0 65279 0 0 65279 0 0 65279 0 0 65279 0 0 65279 0 0 65279 0 0 65279 0 0 65279 0 0 65279 0 0 65279 0 0 65279 0 0 65279 0 0 65279 0 0 65279 0 0 65279 0 0 65279 0 0 65279 0 0 65279 0 0 65279 0 0 65279 0 0 65279 0 0 65279 0 0 65279 0 0 65279 0 0 65279 0 0 65279 0 0 65279 0 0 65279 0 0 65279 0 0 65279 0 0 65279 0 0 65279 0 0 65279 0 0 65279 0 0 65279 0 0 65279 0 0 65279 0 0 65279 0 0 65279 0 0 65279 0 0 65279 0 0 65279 0 0 65279 0 0 65279 0 0 65279 0 0 65279 0 0 65279 0 0 65279 0 0 65279 0 0 65279 0 0 65279 0 0 65279 0 0 65279 0 0 65279 0 0 65279 0 0 65279 0 0 65279 0 0 65279 0 0 65279 0 0 65279 0 0 65279 0 0 65279 0 0 65279 0 0 65279 0 0 65279 0 0 65279 0 0 65279 0 0 65279 0 0 65279 0 0 65279 0 0 65279 0 0 65279 0 0 65279 0 0 65279 0 0 65279 0 0 65279 0 0 65279 0 0 65279 0 0 65279 0 0 65279 0 0 65279 0 0 65279 0 0 65279 0 0 65279 0 0 65279 0 0 65279 0 0 65279 0 0 65279 0 0 65279 0 0 65279 0 0 65279 0 0 65279 0 0 65279 0 0 65279 0 0 65279 0 0 65279 0 0 65279 0 0 65279 0 0 65279 0 0 65279 0 0 65279 0 0 65279 0 0 65279 0 0 65279 0 0 65279 0 0 65279 0 0 65279 0 0 65279 0 0 65279 0 0 65279 0 0 65279 0 0 65279 0 0 65279 0 0 65279 0 0 65279 0 0 65279 0 0 65279 0 0 65279 0 0 65279 0 0 65279 0 0 65279 0 0 65279 0 0 65279 0 0 65279 0 0 65279 0 0 65279 0 0 65279 0 0 65279 0 0 65279 0 0 65279 0 0 65279 0 0 65279 0 0 65279 0 0 65279 0 0 65279 0 0 65279 0 0 65279 0 0 65279 0 0 65279 0 0 65279 0 0 65279 0 0 65279 0 0 65279 0 0 65279 0 0 65279 0 0 65279 0 0 65279 0 0 65279 0 0 65279 0 0 65279 0 0 65279 0 0 65279 0 0 65279 0 0 65279 0 0 65279 0 0 65279 0 0 65279 0 0 65279 0 0 65279 0 0 65279 0 0 65279 0 0 65279 0 0 65279 0 0 65279 0 0 65279 0 0 65279 0 0 65279 0 0 65279 0 0 65279 0 0 65279 0 0 65279 0 0 65279 0 0 65279 0 0 65279 0 0 65279 0 0 65279 0 0 65279 0 0 65279 0 0 65279 0 0 65279 0 0 65279 0 0 65279 0 0 65279 0 0 65279 0 0 65279 0 0 65279 0 0 65279 0 0 65279 0 0 65279 0 0 65279 0 0 65279 0 0 65279 0 0 65279 0 0 65279 0 0 65279 0 0 65279 0 0 65279 0 0 65279 0 0 65279 0 0 65279 0 0 65279 0 0 65279 0 0 65279 0 0 65279 0 0 65279 0 0 65279 0 0 65279 0 0 65279 0 0 65279 0 0 65279 0 0 65279 0 0 65279 0 0 65279 0 0 65279 0 0 65279 0 0 65279 0 0 65279 0 0 65279 0 0 65279 0 0 65279 0 0 65279 0 0 65279 0 0 65279 0 0 65279 0 0 65279 0 0 65279 0 0 65279 0 0 65279 0 0 65279 0 0 65279 0 0 65279 0 0 65279 0 0 65279 0 0 65279 0 0 65279 0 0 65279 0 0 65279 0 0 65279 0 0 65279 0 0 65279 0 0 65279 0 0 65279 0 0 65279 0 0 65279 0 0 65279 0 0 65279 0 0 65279 0 0 65279 0 0 65279 0 0 65279 0 0 65279 0 0 65279 0 0 65279 0 0 65279 0 0 65279 0 0 65279 0 0 65279 0 0 65279 0 0 65279 0 0 65279 0 0 65279 0 0 65279 0 0 65279 0 0 65279 0 0 65279 0 0 65279 0 0 65279 0 0 65279 0 0 65279 0 0 65279 0 0 65279 0 0 65279 0 0 65279 0 0 65279 0 0 65279 0 0 65279 0 0 65279 0 0 65279 0 0 65279 0 0 65279 0 0 65279 0 0 65279 0 0 65279 0 0 65279 0 0 65279 0 0 65279 0 0 65279 0 0 65279 0 0 65279 0 0 65279 0 0 65279 0 0 65279 0 0 65279 0 0 65279 0 0 65279 0 0 65279 0 0 65279 0 0 65279 0 0 65279 0 0 65279 0 0 65279 0 0 65279 0 0 65279 0 0 65279 0 0 65279 0 0 65279 0 0 65279 0 0 65279 0 0 65279 0 0 65279 0 0 65279 0 0 65279 0 0 65279 0 0 65279 0 0 65279 0 0 65279 0 0 65279 0 0 65279 0 0 65279 0 0 65279 0 0 65279 0 0 65279 0 0 65279 0 0 65279 0 0 65279 0 0 65279 0 0 65279 0 0 65279 0 0 65279 0 0 65279 0 0 65279 0 0 65279 0 0 65279 0 0 65279 0 0 65279 0 0 65279 0 0 65279 0 0 65279 0 0 65279 0 0 65279 0 0 65279 0 0 65279 0 0 65279 0 0 65279 0 0 65279 0 0 65279 0 0 65279 0 0 65279 0 0 65279 0 0 65279 0 0 65279 0 0 65279 0 0 65279 0 0 65279 0 0 65279 0 0 65279 0 0 65279 0 0 65279 0 0 65279 0 0 65279 0 0 65279 0 0 65279 0 0 65279 0 0 65279 0 0 65279 0 0 65279 0 0 65279 0 0 65279 0 0 65279 0 0 65279 0 0 65279 0 0 65279 0 0 65279 0 0 65279 0 0 65279 0 0 65279 0 0 65279 0 0 65279 0 0 65279 0 0 65279 0 0 65279 0 0 65279 0 0 65279 0 0 65279 0 0 65279 0 0 65279 0 0 65279 0 0 65279 0 0 65279 0 0 65279 0 0 65279 0 0 65279 0 0 65279 0 0 65279 0 0 65279 0 0 65279 0 0 65279 0 0 65279 0 0 65279 0 0 65279 0 0 65279 0 0 65279 0 0 65279 0 0 65279 0 0 65279 0 0 65279 0 0 65279 0 0 65279 0 0 65279 0 0 65279 0 0 65279 0 0 65279 0 0 65279 0 0 65279 0 0 65279 0 0 65279 0 0 65279 0 0 65279 0 0 65279 0 0 65279 0 0 65279 0 0 65279 0 0 65279 0 0 65279 0 0 65279 0 0 65279 0 0 65279 0 0 65279 0 0 65279 0 0 65279 0 0 65279 0 0 65279 0 0 65279 0 0 65279 0 0 65279 0 0 65279 0 0 65279 0 0 65279 0 0 65279 0 0 65279 0 0 65279 0 0 65279 0 0 65279 0 0 65279 0 0 65279 0 0 65279 0 0 65279 0 0 65279 0 0 65279 0 0 65279 0 0 65279 0 0 65279 0 0 65279 0 0 65279 0 0 65279 0 0 65279 0 0 65279 0 0 65279 0 0 65279 0 0 65279 0 0 65279 0 0 65279 0 0 65279 0 0 65279 0 0 65279 0 0 65279 0 0 65279 0 0 65279 0 0 65279 0 0 65279 0 0 65279 0 0 65279 0 0 65279 0 0 65279 0 0 65279 0 0 65279 0 0 65279 0 0 65279 0 0 65279 0 0 65279 0 0 65279 0 0 65279 0 0 65279 0 0 65279 0 0 65279 0 0 65279 0 0 65279 0 0 65279 0 0 65279 0 0 65279 0 0 65279 0 0 65279 0 0 65279 0 0 65279 0 0 65279 0 0 65279 0 0 65279 0 0 65279 0 0 65279 0 0 65279 0 0 65279 0 0 65279 0 0 65279 0 0 65279 0 0 65279 0 0 65279 0 0 65279 0 0 65279 0 0 65279 0 0 65279 0 0 65279 0 0 65279 0 0 65279 0 0 65279 0 0 65279 0 0 65279 0 0 65279 0 0 65279 0 0 65279 0 0 65279 0 0 65279 0 0 65279 0 0 65279 0 0 65279 0 0 65279 0 0 65279 0 0 65279 0 0 65279 0 0 65279 0 0 65279 0 0 65279 0 0 65279 0 0 65279 0 0 65279 0 0 65279 0 0 65279 0 0 65279 0 0 65279 0 0 65279 0 0 65279 0 0 65279 0 0 65279 0 0 65279 0 0 65279 0 0 65279 0 0 65279 0 0 65279 0 0 65279 0 0 65279 0 0 65279 0 0 65279 0 0 65279 0 0 65279 0 0 65279 0 0 65279 0 0 65279 0 0 65279 0 0 65279 0 0 65279 0 0 65279 0 0 65279 0 0 65279 0 0 65279 0 0 65279 0 0 65279 0 0 65279 0 0 65279 0 0 65279 0 0 65279 0 0 65279 0 0 65279 0 0 65279 0 0 65279 0 0 65279 0 0 65279 0 0 65279 0 0 65279 0 0 65279 0 0 65279 0 0 65279 0 0 65279 0 0 65279 0 0 65279 0 0 65279 0 0 65279 0 0 65279 0 0 65279 0 0 65279 0 0 65279 0 0 65279 0 0 65279 0 0 65279 0 0 65279 0 0 65279 0 0 65279 0 0 65279 0 0 65279 0 0 65279 0 0 65279 0 0 65279 0 0 65279 0 0 65279 0 0 65279 0 0 65279 0 0 65279 0 0 65279 0 0 65279 0 0 65279 0 0 65279 0 0 65279 0 0 65279 0 0 65279 0 0 65279 0 0 65279 0 0 65279 0 0 65279 0 0 65279 0 0 65279 0 0 65279 0 0 65279 0 0 65279 0 0 65279 0 0 65279 0 0 65279 0 0 65279 0 0 65279 0 0 65279 0 0 65279 0 0 65279 0 0 65279 0 0 65279 0 0 65279 0 0 65279 0 0 65279 0 0 65279 0 0 65279 0 0 65279 0 0 65279 0 0 65279 0 0 65279 0 0 65279 0 0 65279 0 0 65279 0 0 65279 0 0 65279 0 0 65279 0 0 65279 0 0 65279 0 0 65279 0 0 65279 0 0 65279 0 0 65279 0 0 65279 0 0 65279 0 0 65279 0 0 65279 0 0 65279 0 0 65279 0 0 65279 0 0 65279 0 0 65279 0 0 65279 0 0 65279 0 0 65279 0 0 65279 0 0 65279 0 0 65279 0 0 65279 0 0 65279 0 0 65279 0 0 65279 0 0 65279 0 0 65279 0 0 65279 0 0 65279 0 0 65279 0 0 65279 0 0 65279 0 0 65279 0 0 65279 0 0 65279 0 0 65279 0 0 65279 0 0 65279 0 0 65279 0 0 65279 0 0 65279 0 0 65279 0 0 65279 0 0 65279 0 0 65279 0 0 65279 0 0 65279 0 0 65279 0 0 65279 0 0 65279 0 0 65279 0 0 65279 0 0 65279 0 0 65279 0 0 65279 0 0 65279 0 0 65279 0 0 65279 0 0 65279 0 0 65279 0 0 65279 0 0 65279 0 0 65279 0 0 65279 0 0 65279 0 0 65279 0 0 65279 0 0 65279 0 0 65279 0 0 65279 0 0 65279 0 0 65279 0 0 65279 0 0 65279 0 0 65279 0 0 65279 0 0 65279 0 0 65279 0 0 65279 0 0 65279 0 0 65279 0 0 65279 0 0 65279 0 0 65279 0 0 65279 0 0 65279 0 0 65279 0 0 65279 0 0 65279 0 0 65279 0 0 65279 0 0 65279 0 0 65279 0 0 65279 0 0 65279 0 0 65279 0 0 65279 0 0 65279 0 0 65279 0 0 65279 0 0 65279 0 0 65279 0 0 65279 0 0 65279 0 0 65279 0 0 65279 0 0 65279 0 0 65279 0 0 65279 0 0 65279 0 0 65279 0 0 65279 0 0 65279 0 0 65279 0 0 65279 0 0 65279 0 0 65279 0 0 65279 0 0 65279 0 0 65279 0 0 65279 0 0 65279 0 0 65279 0 0 65279 0 0 65279 0 0 65279 0 0 65279 0 0 65279 0 0 65279 0 0 65279 0 0 65279 0 0 65279 0 0 65279 0 0 65279 0 0 65279 0 0 65279 0 0 65279 0 0 65279 0 0 65279 0 0 65279 0 0 65279 0 0 65279 0 0 65279 0 0 65279 0 0 65279 0 0 65279 0 0 65279 0 0 65279 0 0 65279 0 0 65279 0 0 65279 0 0 65279 0 0 65279 0 0 65279 0 0 65279 0 0 65279 0 0 65279 0 0 65279 0 0 65279 0 0 65279 0 0 65279 0 0 65279 0 0 65279 0 0 65279 0 0 65279 0 0 65279 0 0 65279 0 0 65279 0 0 65279 0 0 65279 0 0 65279 0 0 65279 0 0 65279 0 0 65279 0 0 65279 0 0 65279 0 0 65279 0 0 65279 0 0 65279 0 0 65279 0 0 65279 0 0 65279 0 0 65279 0 0 65279 0 0 65279 0 0 65279 0 0 65279 0 0 65279 0 0 65279 0 0 65279 0 0 65279 0 0 65279 0 0 65279 0 0 65279 0 0 65279 0 0 65279 0 0 65279 0 0 65279 0 0 65279 0 0 65279 0 0 65279 0 0 65279 0 0 65279 0 0 65279 0 0 65279 0 0 65279 0 0 65279 0 0 65279 0 0 65279 0 0 65279 0 0 65279 0 0 65279 0 0 65279 0 0 65279 0 0 65279 0 0 65279 0 0 65279 0 0 65279 0 0 65279 0 0 65279 0 0 65279 0 0 65279 0 0 65279 0 0 65279 0 0 65279 0 0 65279 0 0 65279 0 0 65279 0 0 65279 0 0 65279 0 0 65279 0 0 65279 0 0 65279 0 0 65279 0 0 65279 0 0 65279 0 0 65279 0 0 65279 0 0 65279 0 0 65279 0 0 65279 0 0 65279 0 0 65279 0 0 65279 0 0 65279 0 0 65279 0 0 65279 0 0 65279 0 0 65279 0 0 65279 0 0 65279 0 0 65279 0 0 65279 0 0 65279 0 0 65279 0 0 65279 0 0 65279 0 0 65279 0 0 65279 0 0 65279 0 0 65279 0 0 65279 0 0 65279 0 0 65279 0 0 65279 0 0 65279 0 0 65279 0 0 65279 0 0 65279 0 0 65279 0 0 65279 0 0 65279 0 0 65279 0 0 65279 0 0 65279 0 0 65279 0 0 65279 0 0 65279 0 0 65279 0 0 65279 0 0 65279 0 0 65279 0 0 65279 0 0 65279 0 0 65279 0 0 65279 0 0 65279 0 0 65279 0 0 65279 0 0 65279 0 0 65279 0 0 65279 0 0 65279 0 0 65279 0 0 65279 0 0 65279 0 0 65279 0 0 65279 0 0 65279 0 0 65279 0 0 65279 0 0 65279 0 0 65279 0 0 65279 0 0 65279 0 0 65279 0 0 65279 0 0 65279 0 0 65279 0 0 65279 0 0 65279 0 0 65279 0 0 65279 0 0 65279 0 0 65279 0 0 65279 0 0 65279 0 0 65279 0 0 65279 0 0 65279 0 0 65279 0 0 65279 0 0 65279 0 0 65279 0 0 65279 0 0 65279 0 0 65279 0 0 65279 0 0 65279 0 0 65279 0 0 65279 0 0 65279 0 0 65279 0 0 65279 0 0 65279 0 0 65279 0 0 65279 0 0 65279 0 0 65279 0 0 65279 0 0 65279 0 0 65279 0 0 65279 0 0 65279 0 0 65279 0 0 65279 0 0 65279 0 0 65279 0 0 65279 0 0 65279 0 0 65279 0 0 65279 0 0 65279 0 0 65279 0 0 65279 0 0 65279 0 0 65279 0 0 65279 0 0 65279 0 0 65279 0 0 65279 0 0 65279 0 0 65279 0 0 65279 0 0 65279 0 0 65279 0 0 65279 0 0 65279 0 0 65279 0 0 65279 0 0 65279 0 0 65279 0 0 65279 0 0 65279 0 0 65279 0 0 65279 0 0 65279 0 0 65279 0 0 65279 0 0 65279 0 0 65279 0 0 65279 0 0 65279 0 0 65279 0 0 65279 0 0 65279 0 0 65279 0 0 65279 0 0 65279 0 0 65279 0 0 65279 0 0 65279 0 0 65279 0 0 65279 0 0 65279 0 0 65279 0 0 65279 0 0 65279 0 0 65279 0 0 65279 0 0 65279 0 0 65279 0 0 65279 0 0 65279 0 0 65279 0 0 65279 0 0 65279 0 0 65279 0 0 65279 0 0 65279 0 0 65279 0 0 65279 0 0 65279 0 0 65279 0 0 65279 0 0 65279 0 0 65279 0 0 65279 0 0 65279 0 0 65279 0 0 65279 0 0 65279 0 0 65279 0 0 65279 0 0 65279 0 0 65279 0 0 65279 0 0 65279 0 0 65279 0 0 65279 0 0 65279 0 0 65279 0 0 65279 0 0 65279 0 0 65279 0 0 65279 0 0 65279 0 0 65279 0 0 65279 0 0 65279 0 0 65279 0 0 65279 0 0 65279 0 0 65279 0 0 65279 0 0 65279 0 0 65279 0 0 65279 0 0 65279 0 0 65279 0 0 65279 0 0 65279 0 0 65279 0 0 65279 0 0 65279 0 0 65279 0 0 65279 0 0 65279 0 0 65279 0 0 65279 0 0 65279 0 0 65279 0 0 65279 0 0 65279 0 0 65279 0 0 65279 0 0 65279 0 0 65279 0 0 65279 0 0 65279 0 0 65279 0 0 65279 0 0 65279 0 0 65279 0 0 65279 0 0 65279 0 0 65279 0 0 65279 0 0 65279 0 0 65279 0 0 65279 0 0 65279 0 0 65279 0 0 65279 0 0 65279 0 0 65279 0 0 65279 0 0 65279 0 0 65279 0 0 65279 0 0 65279 0 0 65279 0 0 65279 0 0 65279 0 0 65279 0 0 65279 0 0 65279 0 0 65279 0 0 65279 0 0 65279 0 0 65279 0 0 65279 0 0 65279 0 0 65279 0 0 65279 0 0 65279 0 0 65279 0 0 65279 0 0 65279 0 0 65279 0 0 65279 0 0 65279 0 0 65279 0 0 65279 0 0 65279 0 0 65279 0 0 65279 0 0 65279 0 0 65279 0 0 65279 0 0 65279 0 0 65279 0 0 65279 0 0 65279 0 0 65279 0 0 65279 0 0 65279 0 0 65279 0 0 65279 0 0 65279 0 0 65279 0 0 65279 0 0 65279 0 0 65279 0 0 65279 0 0 65279 0 0 65279 0 0 65279 0 0 65279 0 0 65279 0 0 65279 0 0 65279 0 0 65279 0 0 65279 0 0 65279 0 0 65279 0 0 65279 0 0 65279 0 0 65279 0 0 65279 0 0 65279 0 0 65279 0 0 65279 0 0 65279 0 0 65279 0 0 65279 0 0 65279 0 0 65279 0 0 65279 0 0 65279 0 0 65279 0 0 65279 0 0 65279 0 0 65279 0 0 65279 0 0 65279 0 0 65279 0 0 65279 0 0 65279 0 0 65279 0 0 65279 0 0 65279 0 0 65279 0 0 65279 0 0 65279 0 0 65279 0 0 65279 0 0 65279 0 0 65279 0 0 65279 0 0 65279 0 0 65279 0 0 65279 0 0 65279 0 0 65279 0 0 65279 0 0 65279 0 0 65279 0 0 65279 0 0 65279 0 0 65279 0 0 65279 0 0 65279 0 0 65279 0 0 65279 0 0 65279 0 0 65279 0 0 65279 0 0 65279 0 0 65279 0 0 65279 0 0 65279 0 0 65279 0 0 65279 0 0 65279 0 0 65279 0 0 65279 0 0 65279 0 0 65279 0 0 65279 0 0 65279 0 0 65279 0 0 65279 0 0 65279 0 0 65279 0 0 65279 0 0 65279 0 0 65279 0 0 65279 0 0 65279 0 0 65279 0 0 65279 0 0 65279 0 0 65279 0 0 65279 0 0 65279 0 0 65279 0 0 65279 0 0 65279 0 0 65279 0 0 65279 0 0 65279 0 0 65279 0 0 65279 0 0 65279 0 0 65279 0 0 65279 0 0 65279 0 0 65279 0 0 65279 0 0 65279 0 0 65279 0 0 65279 0 0 65279 0 0 65279 0 0 65279 0 0 65279 0 0 65279 0 0 65279 0 0 65279 0 0 65279 0 0 65279 0 0 65279 0 0 65279 0 0 65279 0 0 65279 0 0 65279 0 0 65279 0 0 65279 0 0 65279 0 0 65279 0 0 65279 0 0 65279 0 0 65279 0 0 65279 0 0 65279 0 0 65279 0 0 65279 0 0 65279 0 0 65279 0 0 65279 0 0 65279 0 0 65279 0 0 65279 0 0 65279 0 0 65279 0 0 65279 0 0 65279 0 0 65279 0 0 65279 0 0 65279 0 0 65279 0 0 65279 0 0 65279 0 0 65279 0 0 65279 0 0 65279 0 0 65279 0 0 65279 0 0 65279 0 0 65279 0 0 65279 0 0 65279 0 0 65279 0 0 65279 0 0 65279 0 0 65279 0 0 65279 0 0 65279 0 0 65279 0 0 65279 0 0 65279 0 0 65279 0 0 65279 0 0 65279 0 0 65279 0 0 65279 0 0 65279 0 0 65279 0 0 65279 0 0 65279 0 0 65279 0 0 65279 0 0 65279 0 0 65279 0 0 65279 0 0 65279 0 0 65279 0 0 65279 0 0 65279 0 0 65279 0 0 65279 0 0 65279 0 0 65279 0 0 65279 0 0 65279 0 0 65279 0 0 65279 0 0 65279 0 0 65279 0 0 65279 0 0 65279 0 0 65279 0 0 65279 0 0 65279 0 0 65279 0 0 65279 0 0 65279 0 0 65279 0 0 65279 0 0 65279 0 0 65279 0 0 65279 0 0 65279 0 0 65279 0 0 65279 0 0 65279 0 0 65279 0 0 65279 0 0 65279 0 0 65279 0 0 65279 0 0 65279 0 0 65279 0 0 65279 0 0 65279 0 0 65279 0 0 65279 0 0 65279 0 0 65279 0 0 65279 0 0 65279 0 0 65279 0 0 65279 0 0 65279 0 0 65279 0 0 65279 0 0 65279 0 0 65279 0 0 65279 0 0 65279 0 0 65279 0 0 65279 0 0 65279 0 0 65279 0 0 65279 0 0 65279 0 0 65279 0 0 65279 0 0 65279 0 0 65279 0 0 65279 0 0 65279 0 0 65279 0 0 65279 0 0 65279 0 0 65279 0 0 65279 0 0 65279 0 0 65279 0 0 65279 0 0 65279 0 0 65279 0 0 65279 0 0 65279 0 0 65279 0 0 65279 0 0 65279 0 0 65279 0 0 65279 0 0 65279 0 0 65279 0 0 65279 0 0 65279 0 0 65279 0 0 65279 0 0 65279 0 0 65279 0 0 65279 0 0 65279 0 0 65279 0 0 65279 0 0 65279 0 0 65279 0 0 65279 0 0 65279 0 0 65279 0 0 65279 0 0 65279 0 0 65279 0 0 65279 0 0 65279 0 0 65279 0 0 65279 0 0 65279 0 0 65279 0 0 65279 0 0 65279 0 0 65279 0 0 65279 0 0 65279 0 0 65279 0 0 65279 0 0 65279 0 0 65279 0 0 65279 0 0 65279 0 0 65279 0 0 65279 0 0 65279 0 0 65279 0 0 65279 0 0 65279 0 0 65279 0 0 65279 0 0 65279 0 0 65279 0 0 65279 0 0 65279 0 0 65279 0 0 65279 0 0 65279 0 0 65279 0 0 65279 0 0 65279 0 0 65279 0 0 65279 0 0 65279 0 0 65279 0 0 65279 0 0 65279 0 0 65279 0 0 65279 0 0 65279 0 0 65279 0 0 65279 0 0 65279 0 0 65279 0 0 65279 0 0 65279 0 0 65279 0 0 65279 0 0 65279 0 0 65279 0 0 65279 0 0 65279 0 0 65279 0 0 65279 0 0 65279 0 0 65279 0 0 65279 0 0 65279 0 0 65279 0 0 65279 0 0 65279 0 0 65279 0 0 65279 0 0 65279 0 0 65279 0 0 65279 0 0 65279 0 0 65279 0 0 65279 0 0 65279 0 0 65279 0 0 65279 0 0 65279 0 0 65279 0 0 65279 0 0 65279 0 0 65279 0 0 65279 0 0 65279 0 0 65279 0 0 65279 0 0 65279 0 0 65279 0 0 65279 0 0 65279 0 0 65279 0 0 65279 0 0 65279 0 0 65279 0 0 65279 0 0 65279 0 0 65279 0 0 65279 0 0 65279 0 0 65279 0 0 65279 0 0 65279 0 0 65279 0 0 65279 0 0 65279 0 0 65279 0 0 65279 0 0 65279 0 0 65279 0 0 65279 0 0 65279 0 0 65279 0 0 65279 0 0 65279 0 0 65279 0 0 65279 0 0 65279 0 0 65279 0 0 65279 0 0 65279 0 0 65279 0 0 65279 0 0 65279 0 0 65279 0 0 65279 0 0 65279 0 0 65279 0 0 65279 0 0 65279 0 0 65279 0 0 65279 0 0 65279 0 0 65279 0 0 65279 0 0 65279 0 0 65279 0 0 65279 0 0 65279 0 0 65279 0 0 65279 0 0 65279 0 0 65279 0 0 65279 0 0 65279 0 0 65279 0 0 65279 0 0 65279 0 0 65279 0 0 65279 0 0 65279 0 0 65279 0 0 65279 0 0 65279 0 0 65279 0 0 65279 0 0 65279 0 0 65279 0 0 65279 0 0 65279 0 0 65279 0 0 65279 0 0 65279 0 0 65279 0 0 65279 0 0 65279 0 0 65279 0 0 65279 0 0 65279 0 0 65279 0 0 65279 0 0 65279 0 0 65279 0 0 65279 0 0 65279 0 0 65279 0 0 65279 0 0 65279 0 0 65279 0 0 65279 0 0 65279 0 0 65279 0 0 65279 0 0 65279 0 0 65279 0 0 65279 0 0 65279 0 0 65279 0 0 65279 0 0 65279 0 0 65279 0 0 65279 0 0 65279 0 0 65279 0 0 65279 0 0 65279 0 0 65279 0 0 65279 0 0 65279 0 0 65279 0 0 65279 0 0 65279 0 0 65279 0 0 65279 0 0 65279 0 0 65279 0 0 65279 0 0 65279 0 0 65279 0 0 65279 0 0 65279 0 0 65279 0 0 65279 0 0 65279 0 0 65279 0 0 65279 0 0 65279 0 0 65279 0 0 65279 0 0 65279 0 0 65279 0 0 65279 0 0 65279 0 0 65279 0 0 65279 0 0 65279 0 0 65279 0 0 65279 0 0 65279 0 0 65279 0 0 65279 0 0 65279 0 0 65279 0 0 65279 0 0 65279 0 0 65279 0 0 65279 0 0 65279 0 0 65279 0 0 65279 0 0 65279 0 0 65279 0 0 65279 0 0 65279 0 0 65279 0 0 65279 0 0 65279 0 0 65279 0 0 65279 0 0 65279 0 0 65279 0 0 65279 0 0 65279 0 0 65279 0 0 65279 0 0 65279 0 0 65279 0 0 65279 0 0 65279 0 0 65279 0 0 65279 0 0 65279 0 0 65279 0 0 65279 0 0 65279 0 0 65279 0 0 65279 0 0 65279 0 0 65279 0 0 65279 0 0 65279 0 0 65279 0 0 65279 0 0 65279 0 0 65279 0 0 65279 0 0 65279 0 0 65279 0 0 65279 0 0 65279 0 0 65279 0 0 65279 0 0 65279 0 0 65279 0 0 65279 0 0 65279 0 0 65279 0 0 65279 0 0 65279 0 0 65279 0 0 65279 0 0 65279 0 0 65279 0 0 65279 0 0 65279 0 0 65279 0 0 65279 0 0 65279 0 0 65279 0 0 65279 0 0 65279 0 0 65279 0 0 65279 0 0 65279 0 0 65279 0 0 65279 0 0 65279 0 0 65279 0 0 65279 0 0 65279 0 0 65279 0 0 65279 0 0 65279 0 0 65279 0 0 65279 0 0 65279 0 0 65279 0 0 65279 0 0 65279 0 0 65279 0 0 65279 0 0 65279 0 0 65279 0 0 65279 0 0 65279 0 0 65279 0 0 65279 0 0 65279 0 0 65279 0 0 65279 0 0 65279 0 0 65279 0 0 65279 0 0 65279 0 0 65279 0 0 65279 0 0 65279 0 0 65279 0 0 65279 0 0 65279 0 0 65279 0 0 65279 0 0 65279 0 0 65279 0 0 65279 0 0 65279 0 0 65279 0 0 65279 0 0 65279 0 0 65279 0 0 65279 0 0 65279 0 0 65279 0 0 65279 0 0 65279 0 0 65279 0 0 65279 0 0 65279 0 0 65279 0 0 65279 0 0 65279 0 0 65279 0 0 65279 0 0 65279 0 0 65279 0 0 65279 0 0 65279 0 0 65279 0 0 65279 0 0 65279 0 0 65279 0 0 65279 0 0 65279 0 0 65279 0 0 65279 0 0 65279 0 0 65279 0 0 65279 0 0 65279 0 0 65279 0 0 65279 0 0 65279 0 0 65279 0 0 65279 0 0 65279 0 0 65279 0 0 65279 0 0 65279 0 0 65279 0 0 65279 0 0 65279 0 0 65279 0 0 65279 0 0 65279 0 0 65279 0 0 65279 0 0 65279 0 0 65279 0 0 65279 0 0 65279 0 0 65279 0 0 65279 0 0 65279 0 0 65279 0 0 65279 0 0 65279 0 0 65279 0 0 65279 0 0 65279 0 0 65279 0 0 65279 0 0 65279 0 0 65279 0 0 65279 0 0 65279 0 0 65279 0 0 65279 0 0 65279 0 0 65279 0 0 65279 0 0 65279 0 0 65279 0 0 65279 0 0 65279 0 0 65279 0 0 65279 0 0 65279 0 0 65279 0 0 65279 0 0 65279 0 0 65279 0 0 65279 0 0 65279 0 0 65279 0 0 65279 0 0 65279 0 0 65279 0 0 65279 0 0 65279 0 0 65279 0 0 65279 0 0 65279 0 0 65279 0 0 65279 0 0 65279 0 0 65279 0 0 65279 0 0 65279 0 0 65279 0 0 65279 0 0 65279 0 0 65279 0 0 65279 0 0 65279 0 0 65279 0 0 65279 0 0 65279 0 0 65279 0 0 65279 0 0 65279 0 0 65279 0 0 65279 0 0 65279 0 0 65279 0 0 65279 0 0 65279 0 0 65279 0 0 65279 0 0 65279 0 0 65279 0 0 65279 0 0 65279 0 0 65279 0 0 65279 0 0 65279 0 0 65279 0 0 65279 0 0 65279 0 0 65279 0 0 65279 0 0 65279 0 0 65279 0 0 65279 0 0 65279 0 0 65279 0 0 65279 0 0 65279 0 0 65279 0 0 65279 0 0 65279 0 0 65279 0 0 65279 0 0 65279 0 0 65279 0 0 65279 0 0 65279 0 0 65279 0 0 65279 0 0 65279 0 0 65279 0 0 65279 0 0 65279 0 0 65279 0 0 65279 0 0 65279 0 0 65279 0 0 65279 0 0 65279 0 0 65279 0 0 65279 0 0 65279 0 0 65279 0 0 65279 0 0 65279 0 0 65279 0 0 65279 0 0 65279 0 0 65279 0 0 65279 0 0 65279 0 0 65279 0 0 65279 0 0 65279 0 0 65279 0 0 65279 0 0 65279 0 0 65279 0 0 65279 0 0 65279 0 0 65279 0 0 65279 0 0 65279 0 0 65279 0 0 65279 0 0 65279 0 0 65279 0 0 65279 0 0 65279 0 0 65279 0 0 65279 0 0 65279 0 0 65279 0 0 65279 0 0 65279 0 0 65279 0 0 65279 0 0 65279 0 0 65279 0 0 65279 0 0 65279 0 0 65279 0 0 65279 0 0 65279 0 0 65279 0 0 65279 0 0 65279 0 0 65279 0 0 65279 0 0 65279 0 0 65279 0 0 65279 0 0 65279 0 0 65279 0 0 65279 0 0 65279 0 0 65279 0 0 65279 0 0 65279 0 0 65279 0 0 65279 0 0 65279 0 0 65279 0 0 65279 0 0 65279 0 0 65279 0 0 65279 0 0 65279 0 0 65279 0 0 65279 0 0 65279 0 0 65279 0 0 65279 0 0 65279 0 0 65279 0 0 65279 0 0 65279 0 0 65279 0 0 65279 0 0 65279 0 0 65279 0 0 65279 0 0 65279 0 0 65279 0 0 65279 0 0 65279 0 0 65279 0 0 65279 0 0 65279 0 0 65279 0 0 65279 0 0 65279 0 0 65279 0 0 65279 0 0 65279 0 0 65279 0 0 65279 0 0 65279 0 0 65279 0 0 65279 0 0 65279 0 0 65279 0 0 65279 0 0 65279 0 0 65279 0 0 65279 0 0 65279 0 0 65279 0 0 65279 0 0 65279 0 0 65279 0 0 65279 0 0 65279 0 0 65279 0 0 65279 0 0 65279 0 0 65279 0 0 65279 0 0 65279 0 0 65279 0 0 65279 0 0 65279 0 0 65279 0 0 65279 0 0 65279 0 0 65279 0 0 65279 0 0 65279 0 0 65279 0 0 65279 0 0 65279 0 0 65279 0 0 65279 0 0 65279 0 0 65279 0 0 65279 0 0 65279 0 0 65279 0 0 65279 0 0 65279 0 0 65279 0 0 65279 0 0 65279 0 0 65279 0 0 65279 0 0 65279 0 0 65279 0 0 65279 0 0 65279 0 0 65279 0 0 65279 0 0 65279 0 0 65279 0 0 65279 0 0 65279 0 0 65279 0 0 65279 0 0 65279 0 0 65279 0 0 65279 0 0 65279 0 0 65279 0 0 65279 0 0 65279 0 0 65279 0 0 65279 0 0 65279 0 0 65279 0 0 65279 0 0 65279 0 0 65279 0 0 65279 0 0 65279 0 0 65279 0 0 65279 0 0 65279 0 0 65279 0 0 65279 0 0 65279 0 0 65279 0 0 65279 0 0 65279 0 0 65279 0 0 65279 0 0 65279 0 0 65279 0 0 65279 0 0 65279 0 0 65279 0 0 65279 0 0 65279 0 0 65279 0 0 65279 0 0 65279 0 0 65279 0 0 65279 0 0 65279 0 0 65279 0 0 65279 0 0 65279 0 0 65279 0 0 65279 0 0 65279 0 0 65279 0 0 65279 0 0 65279 0 0 65279 0 0 65279 0 0 65279 0 0 65279 0 0 65279 0 0 65279 0 0 65279 0 0 65279 0 0 65279 0 0 65279 0 0 65279 0 0 65279 0 0 65279 0 0 65279 0 0 65279 0 0 65279 0 0 65279 0 0 65279 0 0 65279 0 0 65279 0 0 65279 0 0 65279 0 0 65279 0 0 65279 0 0 65279 0 0 65279 0 0 65279 0 0 65279 0 0 65279 0 0 65279 0 0 65279 0 0 65279 0 0 65279 0 0 65279 0 0 65279 0 0 65279 0 0 65279 0 0 65279 0 0 65279 0 0 65279 0 0 65279 0 0 65279 0 0 65279 0 0 65279 0 0 65279 0 0 65279 0 0 65279 0 0 65279 0 0 65279 0 0 65279 0 0 65279 0 0 65279 0 0 65279 0 0 65279 0 0 65279 0 0 65279 0 0 65279 0 0 65279 0 0 65279 0 0 65279 0 0 65279 0 0 65279 0 0 65279 0 0 65279 0 0 65279 0 0 65279 0 0 65279 0 0 65279 0 0 65279 0 0 65279 0 0 65279 0 0 65279 0 0 65279 0 0 65279 0 0 65279 0 0 65279 0 0 65279 0 0 65279 0 0 65279 0 0 65279 0 0 65279 0 0 65279 0 0 65279 0 0 65279 0 0 65279 0 0 65279 0 0 65279 0 0 65279 0 0 65279 0 0 65279 0 0 65279 0 0 65279 0 0 65279 0 0 65279 0 0 65279 0 0 65279 0 0 65279 0 0 65279 0 0 65279 0 0 65279 0 0 65279 0 0 65279 0 0 65279 0 0 65279 0 0 65279 0 0 65279 0 0 65279 0 0 65279 0 0 65279 0 0 65279 0 0 65279 0 0 65279 0 0 65279 0 0 65279 0 0 65279 0 0 65279 0 0 65279 0 0 65279 0 0 65279 0 0 65279 0 0 65279 0 0 65279 0 0 65279 0 0 65279 0 0 65279 0 0 65279 0 0 65279 0 0 65279 0 0 65279 0 0 65279 0 0 65279 0 0 65279 0 0 65279 0 0 65279 0 0 65279 0 0 65279 0 0 65279 0 0 65279 0 0 65279 0 0 65279 0 0 65279 0 0 65279 0 0 65279 0 0 65279 0 0 65279 0 0 65279 0 0 65279 0 0 65279 0 0 65279 0 0 65279 0 0 65279 0 0 65279 0 0 65279 0 0 65279 0 0 65279 0 0 65279 0 0 65279 0 0 65279 0 0 65279 0 0 65279 0 0 65279 0 0 65279 0 0 65279 0 0 65279 0 0 65279 0 0 65279 0 0 65279 0 0 65279 0 0 65279 0 0 65279 0 0 65279 0 0 65279 0 0 65279 0 0 65279 0 0 65279 0 0 65279 0 0 65279 0 0 65279 0 0 65279 0 0 65279 0 0 65279 0 0 65279 0 0 65279 0 0 65279 0 0 65279 0 0 65279 0 0 65279 0 0 65279 0 0 65279 0 0 65279 0 0 65279 0 0 65279 0 0 65279 0 0 65279 0 0 65279 0 0 65279 0 0 65279 0 0 65279 0 0 65279 0 0 65279 0 0 65279 0 0 65279 0 0 65279 0 0 65279 0 0 65279 0 0 65279 0 0 65279 0 0 65279 0 0 65279 0 0 65279 0 0 65279 0 0 65279 0 0 65279 0 0 65279 0 0 65279 0 0 65279 0 0 65279 0 0 65279 0 0 65279 0 0 65279 0 0 65279 0 0 65279 0 0 65279 0 0 65279 0 0 65279 0 0 65279 0 0 65279 0 0 65279 0 0 65279 0 0 65279 0 0 65279 0 0 65279 0 0 65279 0 0 65279 0 0 65279 0 0 65279 0 0 65279 0 0 65279 0 0 65279 0 0 65279 0 0 65279 0 0 65279 0 0 65279 0 0 65279 0 0 65279 0 0 65279 0 0 65279 0 0 65279 0 0 65279 0 0 65279 0 0 65279 0 0 65279 0 0 65279 0 0 65279 0 0 65279 0 0 65279 0 0 65279 0 0 65279 0 0 65279 0 0 65279 0 0 65279 0 0 65279 0 0 65279 0 0 65279 0 0 65279 0 0 65279 0 0 65279 0 0 65279 0 0 65279 0 0 65279 0 0 65279 0 0 65279 0 0 65279 0 0 65279 0 0 65279 0 0 65279 0 0 65279 0 0 65279 0 0 65279 0 0 65279 0 0 65279 0 0 65279 0 0 65279 0 0 65279 0 0 65279 0 0 65279 0 0 65279 0 0 65279 0 0 65279 0 0 65279 0 0 65279 0 0 65279 0 0 65279 0 0 65279 0 0 65279 0 0 65279 0 0 65279 0 0 65279 0 0 65279 0 0 65279 0 0 65279 0 0 65279 0 0 65279 0 0 65279 0 0 65279 0 0 65279 0 0 65279 0 0 65279 0 0 65279 0 0 65279 0 0 65279 0 0 65279 0 0 65279 0 0 65279 0 0 65279 0 0 65279 0 0 65279 0 0 65279 0 0 65279 0 0 65279 0 0 65279 0 0 65279 0 0 65279 0 0 65279 0 0 65279 0 0 65279 0 0 65279 0 0 65279 0 0 65279 0 0 65279 0 0 65279 0 0 65279 0 0 65279 0 0 65279 0 0 65279 0 0 65279 0 0 65279 0 0 65279 0 0 65279 0 0 65279 0 0 65279 0 0 65279 0 0 65279 0 0 65279 0 0 65279 0 0 65279 0 0 65279 0 0 65279 0 0 65279 0 0 65279 0 0 65279 0 0 65279 0 0 65279 0 0 65279 0 0 65279 0 0 65279 0 0 65279 0 0 65279 0 0 65279 0 0 65279 0 0 65279 0 0 65279 0 0 65279 0 0 65279 0 0 65279 0 0 65279 0 0 65279 0 0 65279 0 0 65279 0 0 65279 0 0 65279 0 0 65279 0 0 65279 0 0 65279 0 0 65279 0 0 65279 0 0 65279 0 0 65279 0 0 65279 0 0 65279 0 0 65279 0 0 65279 0 0 65279 0 0 65279 0 0 65279 0 0 65279 0 0 65279 0 0 65279 0 0 65279 0 0 65279 0 0 65279 0 0 65279 0 0 65279 0 0 65279 0 0 65279 0 0 65279 0 0 65279 0 0 65279 0 0 65279 0 0 65279 0 0 65279 0 0 65279 0 0 65279 0 0 65279 0 0 65279 0 0 65279 0 0 65279 0 0 65279 0 0 65279 0 0 65279 0 0 65279 0 0 65279 0 0 65279 0 0 65279 0 0 65279 0 0 65279 0 0 65279 0 0 65279 0 0 65279 0 0 65279 0 0 65279 0 0 65279 0 0 65279 0 0 65279 0 0 65279 0 0 65279 0 0 65279 0 0 65279 0 0 65279 0 0 65279 0 0 65279 0 0 65279 0 0 65279 0 0 65279 0 0 65279 0 0 65279 0 0 65279 0 0 65279 0 0 65279 0 0 65279 0 0 65279 0 0 65279 0 0 65279 0 0 65279 0 0 65279 0 0 65279 0 0 65279 0 0 65279 0 0 65279 0 0 65279 0 0 65279 0 0 65279 0 0 65279 0 0 65279 0 0 65279 0 0 65279 0 0 65279 0 0 65279 0 0 65279 0 0 65279 0 0 65279 0 0 65279 0 0 65279 0 0 65279 0 0 65279 0 0 65279 0 0 65279 0 0 65279 0 0 65279 0 0 65279 0 0 65279 0 0 65279 0 0 65279 0 0 65279 0 0 65279 0 0 65279 0 0 65279 0 0 65279 0 0 65279 0 0 65279 0 0 65279 0 0 65279 0 0 65279 0 0 65279 0 0 65279 0 0 65279 0 0 65279 0 0 65279 0 0 65279 0 0 65279 0 0 65279 0 0 65279 0 0 65279 0 0 65279 0 0 65279 0 0 65279 0 0 65279 0 0 65279 0 0 65279 0 0 65279 0 0 65279 0 0 65279 0 0 65279 0 0 65279 0 0 65279 0 0 65279 0 0 65279 0 0 65279 0 0 65279 0 0 65279 0 0 65279 0 0 65279 0 0 65279 0 0 65279 0 0 65279 0 0 65279 0 0 65279 0 0 65279 0 0 65279 0 0 65279 0 0 65279 0 0 65279 0 0 65279 0 0 65279 0 0 65279 0 0 65279 0 0 65279 0 0 65279 0 0 65279 0 0 65279 0 0 65279 0 0 65279 0 0 65279 0 0 65279 0 0 65279 0 0 65279 0 0 65279 0 0 65279 0 0 65279 0 0 65279 0 0 65279 0 0 65279 0 0 65279 0 0 65279 0 0 65279 0 0 65279 0 0 65279 0 0 65279 0 0 65279 0 0 65279 0 0 65279 0 0 65279 0 0 65279 0 0 65279 0 0 65279 0 0 65279 0 0 65279 0 0 65279 0 0 65279 0 0 65279 0 0 65279 0 0 65279 0 0 65279 0 0 65279 0 0 65279 0 0 65279 0 0 65279 0 0 65279 0 0 65279 0 0 65279 0 0 65279 0 0 65279 0 0 65279 0 0 65279 0 0 65279 0 0 65279 0 0 65279 0 0 65279 0 0 65279 0 0 65279 0 0 65279 0 0 65279 0 0 65279 0 0 65279 0 0 65279 0 0 65279 0 0 65279 0 0 65279 0 0 65279 0 0 65279 0 0 65279 0 0 65279 0 0 65279 0 0 65279 0 0 65279 0 0 65279 0 0 65279 0 0 65279 0 0 65279 0 0 65279 0 0 65279 0 0 65279 0 0 65279 0 0 65279 0 0 65279 0 0 65279 0 0 65279 0 0 65279 0 0 65279 0 0 65279 0 0 65279 0 0 65279 0 0 65279 0 0 65279 0 0 65279 0 0 65279 0 0 65279 0 0 65279 0 0 65279 0 0 65279 0 0 65279 0 0 65279 0 0 65279 0 0 65279 0 0 65279 0 0 65279 0 0 65279 0 0 65279 0 0 65279 0 0 65279 0 0 65279 0 0 65279 0 0 65279 0 0 65279 0 0 65279 0 0 65279 0 0 65279 0 0 65279 0 0 65279 0 0 65279 0 0 65279 0 0 65279 0 0 65279 0 0 65279 0 0 65279 0 0 65279 0 0 65279 0 0 65279 0 0 65279 0 0 65279 0 0 65279 0 0 65279 0 0 65279 0 0 65279 0 0 65279 0 0 65279 0 0 65279 0 0 65279 0 0 65279 0 0 65279 0 0 65279 0 0 65279 0 0 65279 0 0 65279 0 0 65279 0 0 65279 0 0 65279 0 0 65279 0 0 65279 0 0 65279 0 0 65279 0 0 65279 0 0 65279 0 0 65279 0 0 65279 0 0 65279 0 0 65279 0 0 65279 0 0 65279 0 0 65279 0 0 65279 0 0 65279 0 0 65279 0 0 65279 0 0 65279 0 0 65279 0 0 65279 0 0 65279 0 0 65279 0 0 65279 0 0 65279 0 0 65279 0 0 65279 0 0 65279 0 0 65279 0 0 65279 0 0 65279 0 0 65279 0 0 65279 0 0 65279 0 0 65279 0 0 65279 0 0 65279 0 0 65279 0 0 65279 0 0 65279 0 0 65279 0 0 65279 0 0 65279 0 0 65279 0 0 65279 0 0 65279 0 0 65279 0 0 65279 0 0 65279 0 0 65279 0 0 65279 0 0 65279 0 0 65279 0 0 65279 0 0 65279 0 0 65279 0 0 65279 0 0 65279 0 0 65279 0 0 65279 0 0 65279 0 0 65279 0 0 65279 0 0 65279 0 0 65279 0 0 65279 0 0 65279 0 0 65279 0 0 65279 0 0 65279 0 0 65279 0 0 65279 0 0 65279 0 0 65279 0 0 65279 0 0 65279 0 0 65279 0 0 65279 0 0 65279 0 0 65279 0 0 65279 0 0 65279 0 0 65279 0 0 65279 0 0 65279 0 0 65279 0 0 65279 0 0 65279 0 0 65279 0 0 65279 0 0 65279 0 0 65279 0 0 65279 0 0 65279 0 0 65279 0 0 65279 0 0 65279 0 0 65279 0 0 65279 0 0 65279 0 0 65279 0 0 65279 0 0 65279 0 0 65279 0 0 65279 0 0 65279 0 0 65279 0 0 65279 0 0 65279 0 0 65279 0 0 65279 0 0 65279 0 0 65279 0 0 65279 0 0 65279 0 0 65279 0 0 65279 0 0 65279 0 0 65279 0 0 65279 0 0 65279 0 0 65279 0 0 65279 0 0 65279 0 0 65279 0 0 65279 0 0 65279 0 0 65279 0 0 65279 0 0 65279 0 0 65279 0 0 65279 0 0 65279 0 0 65279 0 0 65279 0 0 65279 0 0 65279 0 0 65279 0 0 65279 0 0 65279 0 0 65279 0 0 65279 0 0 65279 0 0 65279 0 0 65279 0 0 65279 0 0 65279 0 0 65279 0 0 65279 0 0 65279 0 0 65279 0 0 65279 0 0 65279 0 0 65279 0 0 65279 0 0 65279 0 0 65279 0 0 65279 0 0 65279 0 0 65279 0 0 65279 0 0 65279 0 0 65279 0 0 65279 0 0 65279 0 0 65279 0 0 65279 0 0 65279 0 0 65279 0 0 65279 0 0 65279 0 0 65279 0 0 65279 0 0 65279 0 0 65279 0 0 65279 0 0 65279 0 0 65279 0 0 65279 0 0 65279 0 0 65279 0 0 65279 0 0 65279 0 0 65279 0 0 65279 0 0 65279 0 0 65279 0 0 65279 0 0 65279 0 0 65279 0 0 65279 0 0 65279 0 0 65279 0 0 65279 0 0 65279 0 0 65279 0 0 65279 0 0 65279 0 0 65279 0 0 65279 0 0 65279 0 0 65279 0 0 65279 0 0 65279 0 0 65279 0 0 65279 0 0 65279 0 0 65279 0 0 65279 0 0 65279 0 0 65279 0 0 65279 0 0 65279 0 0 65279 0 0 65279 0 0 65279 0 0 65279 0 0 65279 0 0 65279 0 0 65279 0 0 65279 0 0 65279 0 0 65279 0 0 65279 0 0 65279 0 0 65279 0 0 65279 0 0 65279 0 0 65279 0 0 65279 0 0 65279 0 0 65279 0 0 65279 0 0 65279 0 0 65279 0 0 65279 0 0 65279 0 0 65279 0 0 65279 0 0 65279 0 0 65279 0 0 65279 0 0 65279 0 0 65279 0 0 65279 0 0 65279 0 0 65279 0 0 65279 0 0 65279 0 0 65279 0 0 65279 0 0 65279 0 0 65279 0 0 65279 0 0 65279 0 0 65279 0 0 65279 0 0 65279 0 0 65279 0 0 65279 0 0 65279 0 0 65279 0 0 65279 0 0 65279 0 0 65279 0 0 65279 0 0 65279 0 0 65279 0 0 65279 0 0 65279 0 0 65279 0 0 65279 0 0 65279 0 0 65279 0 0 65279 0 0 65279 0 0 65279 0 0 65279 0 0 65279 0 0 65279 0 0 65279 0 0 65279 0 0 65279 0 0 65279 0 0 65279 0 0 65279 0 0 65279 0 0 65279 0 0 65279 0 0 65279 0 0 65279 0 0 65279 0 0 65279 0 0 65279 0 0 65279 0 0 65279 0 0 65279 0 0 65279 0 0 65279 0 0 65279 0 0 65279 0 0 65279 0 0 65279 0 0 65279 0 0 65279 0 0 65279 0 0 65279 0 0 65279 0 0 65279 0 0 65279 0 0 65279 0 0 65279 0 0 65279 0 0 65279 0 0 65279 0 0 65279 0 0 65279 0 0 65279 0 0 65279 0 0 65279 0 0 65279 0 0 65279 0 0 65279 0 0 65279 0 0 65279 0 0 65279 0 0 65279 0 0 65279 0 0 65279 0 0 65279 0 0 65279 0 0 65279 0 0 65279 0 0 65279 0 0 65279 0 0 65279 0 0 65279 0 0 65279 0 0 65279 0 0 65279 0 0 65279 0 0 65279 0 0 65279 0 0 65279 0 0 65279 0 0 65279 0 0 65279 0 0 65279 0 0 65279 0 0 65279 0 0 65279 0 0 65279 0 0 65279 0 0 65279 0 0 65279 0 0 65279 0 0 65279 0 0 65279 0 0 65279 0 0 65279 0 0 65279 0 0 65279 0 0 65279 0 0 65279 0 0 65279 0 0 65279 0 0 65279 0 0 65279 0 0 65279 0 0 65279 0 0 65279 0 0 65279 0 0 65279 0 0 65279 0 0 65279 0 0 65279 0 0 65279 0 0 65279 0 0 65279 0 0 65279 0 0 65279 0 0 65279 0 0 65279 0 0 65279 0 0 65279 0 0 65279 0 0 65279 0 0 65279 0 0 65279 0 0 65279 0 0 65279 0 0 65279 0 0 65279 0 0 65279 0 0 65279 0 0 65279 0 0 65279 0 0 65279 0 0 65279 0 0 65279 0 0 65279 0 0 65279 0 0 65279 0 0 65279 0 0 65279 0 0 65279 0 0 65279 0 0 65279 0 0 65279 0 0 65279 0 0 65279 0 0 65279 0 0 65279 0 0 65279 0 0 65279 0 0 65279 0 0 65279 0 0 65279 0 0 65279 0 0 65279 0 0 65279 0 0 65279 0 0 65279 0 0 65279 0 0 65279 0 0 65279 0 0 65279 0 0 65279 0 0 65279 0 0 65279 0 0 65279 0 0 65279 0 0 65279 0 0 65279 0 0 65279 0 0 65279 0 0 65279 0 0 65279 0 0 65279 0 0 65279 0 0 65279 0 0 65279 0 0 65279 0 0 65279 0 0 65279 0 0 65279 0 0 65279 0 0 65279 0 0 65279 0 0 65279 0 0 65279 0 0 65279 0 0 65279 0 0 65279 0 0 65279 0 0 65279 0 0 65279 0 0 65279 0 0 65279 0 0 65279 0 0 65279 0 0 65279 0 0 65279 0 0 65279 0 0 65279 0 0 65279 0 0 65279 0 0 65279 0 0 65279 0 0 65279 0 0 65279 0 0 65279 0 0 65279 0 0 65279 0 0 65279 0 0 65279 0 0 65279 0 0 65279 0 0 65279 0 0 65279 0 0 65279 0 0 65279 0 0 65279 0 0 65279 0 0 65279 0 0 65279 0 0 65279 0 0 65279 0 0 65279 0 0 65279 0 0 65279 0 0 65279 0 0 65279 0 0 65279 0 0 65279 0 0 65279 0 0 65279 0 0 65279 0 0 65279 0 0 65279 0 0 65279 0 0 65279 0 0 65279 0 0 65279 0 0 65279 0 0 65279 0 0 65279 0 0 65279 0 0 65279 0 0 65279 0 0 65279 0 0 65279 0 0 65279 0 0 65279 0 0 65279 0 0 65279 0 0 65279 0 0 65279 0 0 65279 0 0 65279 0 0 65279 0 0 65279 0 0 65279 0 0 65279 0 0 65279 0 0 65279 0 0 65279 0 0 65279 0 0 65279 0 0 65279 0 0 65279 0 0 65279 0 0 65279 0 0 65279 0 0 65279 0 0 65279 0 0 65279 0 0 65279 0 0 65279 0 0 65279 0 0 65279 0 0 65279 0 0 65279 0 0 65279 0 0 65279 0 0 65279 0 0 65279 0 0 65279 0 0 65279 0 0 65279 0 0 65279 0 0 65279 0 0 65279 0 0 65279 0 0 65279 0 0 65279 0 0 65279 0 0 65279 0 0 65279 0 0 65279 0 0 65279 0 0 65279 0 0 65279 0 0 65279 0 0 65279 0 0 65279 0 0 65279 0 0 65279 0 0 65279 0 0 65279 0 0 65279 0 0 65279 0 0 65279 0 0 65279 0 0 65279 0 0 65279 0 0 65279 0 0 65279 0 0 65279 0 0 65279 0 0 65279 0 0 65279 0 0 65279 0 0 65279 0 0 65279 0 0 65279 0 0 65279 0 0 65279 0 0 65279 0 0 65279 0 0 65279 0 0 65279 0 0 65279 0 0 65279 0 0 65279 0 0 65279 0 0 65279 0 0 65279 0 0 65279 0 0 65279 0 0 65279 0 0 65279 0 0 65279 0 0 65279 0 0 65279 0 0 65279 0 0 65279 0 0 65279 0 0 65279 0 0 65279 0 0 65279 0 0 65279 0 0 65279 0 0 65279 0 0 65279 0 0 65279 0 0 65279 0 0 65279 0 0 65279 0 0 65279 0 0 65279 0 0 65279 0 0 65279 0 0 65279 0 0 65279 0 0 65279 0 0 65279 0 0 65279 0 0 65279 0 0 65279 0 0 65279 0 0 65279 0 0 65279 0 0 65279 0 0 65279 0 0 65279 0 0 65279 0 0 65279 0 0 65279 0 0 65279 0 0 65279 0 0 65279 0 0 65279 0 0 65279 0 0 65279 0 0 65279 0 0 65279 0 0 65279 0 0 65279 0 0 65279 0 0 65279 0 0 65279 0 0 65279 0 0 65279 0 0 65279 0 0 65279 0 0 65279 0 0 65279 0 0 65279 0 0 65279 0 0 65279 0 0 65279 0 0 65279 0 0 65279 0 0 65279 0 0 65279 0 0 65279 0 0 65279 0 0 65279 0 0 65279 0 0 65279 0 0 65279 0 0 65279 0 0 65279 0 0 65279 0 0 65279 0 0 65279 0 0 65279 0 0 65279 0 0 65279 0 0 65279 0 0 65279 0 0 65279 0 0 65279 0 0 65279 0 0 65279 0 0 65279 0 0 65279 0 0 65279 0 0 65279 0 0 65279 0 0 65279 0 0 65279 0 0 65279 0 0 65279 0 0 65279 0 0 65279 0 0 65279 0 0 65279 0 0 65279 0 0 65279 0 0 65279 0 0 65279 0 0 65279 0 0 65279 0 0 65279 0 0 65279 0 0 65279 0 0 65279 0 0 65279 0 0 65279 0 0 65279 0 0 65279 0 0 65279 0 0 65279 0 0 65279 0 0 65279 0 0 65279 0 0 65279 0 0 65279 0 0 65279 0 0 65279 0 0 65279 0 0 65279 0 0 65279 0 0 65279 0 0 65279 0 0 65279 0 0 65279 0 0 65279 0 0 65279 0 0 65279 0 0 65279 0 0 65279 0 0 65279 0 0 65279 0 0 65279 0 0 65279 0 0 65279 0 0 65279 0 0 65279 0 0 65279 0 0 65279 0 0 65279 0 0 65279 0 0 65279 0 0 65279 0 0 65279 0 0 65279 0 0 65279 0 0 65279 0 0 65279 0 0 65279 0 0 65279 0 0 65279 0 0 65279 0 0 65279 0 0 65279 0 0 65279 0 0 65279 0 0 65279 0 0 65279 0 0 65279 0 0 65279 0 0 65279 0 0 65279 0 0 65279 0 0 65279 0 0 65279 0 0 65279 0 0 65279 0 0 65279 0 0 65279 0 0 65279 0 0 65279 0 0 65279 0 0 65279 0 0 65279 0 0 65279 0 0 65279 0 0 65279 0 0 65279 0 0 65279 0 0 65279 0 0 65279 0 0 65279 0 0 65279 0 0 65279 0 0 65279 0 0 65279 0 0 65279 0 0 65279 0 0 65279 0 0 65279 0 0 65279 0 0 65279 0 0 65279 0 0 65279 0 0 65279 0 0 65279 0 0 65279 0 0 65279 0 0 65279 0 0 65279 0 0 65279 0 0 65279 0 0 65279 0 0 65279 0 0 65279 0 0 65279 0 0 65279 0 0 65279 0 0 65279 0 0 65279 0 0 65279 0 0 65279 0 0 65279 0 0 65279 0 0 65279 0 0 65279 0 0 65279 0 0 65279 0 0 65279 0 0 65279 0 0 65279 0 0 65279 0 0 65279 0 0 65279 0 0 65279 0 0 65279 0 0 65279 0 0 65279 0 0 65279 0 0 65279 0 0 65279 0 0 65279 0 0 65279 0 0 65279 0 0 65279 0 0 65279 0 0 65279 0 0 65279 0 0 65279 0 0 65279 0 0 65279 0 0 65279 0 0 65279 0 0 65279 0 0 65279 0 0 65279 0 0 65279 0 0 65279 0 0 65279 0 0 65279 0 0 65279 0 0 65279 0 0 65279 0 0 65279 0 0 65279 0 0 65279 0 0 65279 0 0 65279 0 0 65279 0 0 65279 0 0 65279 0 0 65279 0 0 65279 0 0 65279 0 0 65279 0 0 65279 0 0 65279 0 0 65279 0 0 65279 0 0 65279 0 0 65279 0 0 65279 0 0 65279 0 0 65279 0 0 65279 0 0 65279 0 0 65279 0 0 65279 0 0 65279 0 0 65279 0 0 65279 0 0 65279 0 0 65279 0 0 65279 0 0 65279 0 0 65279 0 0 65279 0 0 65279 0 0 65279 0 0 65279 0 0 65279 0 0 65279 0 0 65279 0 0 65279 0 0 65279 0 0 65279 0 0 65279 0 0 65279 0 0 65279 0 0 65279 0 0 65279 0 0 65279 0 0 65279 0 0 65279 0 0 65279 0 0 65279 0 0 65279 0 0 65279 0 0 65279 0 0 65279 0 0 65279 0 0 65279 0 0 65279 0 0 65279 0 0 65279 0 0 65279 0 0 65279 0 0 65279 0 0 65279 0 0 65279 0 0 65279 0 0 65279 0 0 65279 0 0 65279 0 0 65279 0 0 65279 0 0 65279 0 0 65279 0 0 65279 0 0 65279 0 0 65279 0 0 65279 0 0 65279 0 0 65279 0 0 65279 0 0 65279 0 0 65279 0 0 65279 0 0 65279 0 0 65279 0 0 65279 0 0 65279 0 0 65279 0 0 65279 0 0 65279 0 0 65279 0 0 65279 0 0 65279 0 0 65279 0 0 65279 0 0 65279 0 0 65279 0 0 65279 0 0 65279 0 0 65279 0 0 65279 0 0 65279 0 0 65279 0 0 65279 0 0 65279 0 0 65279 0 0 65279 0 0 65279 0 0 65279 0 0 65279 0 0 65279 0 0 65279 0 0 65279 0 0 65279 0 0 65279 0 0 65279 0 0 65279 0 0 65279 0 0 65279 0 0 65279 0 0 65279 0 0 65279 0 0 65279 0 0 65279 0 0 65279 0 0 65279 0 0 65279 0 0 65279 0 0 65279 0 0 65279 0 0 65279 0 0 65279 0 0 65279 0 0 65279 0 0 65279 0 0 65279 0 0 65279 0 0 65279 0 0 65279 0 0 65279 0 0 65279 0 0 65279 0 0 65279 0 0 65279 0 0 65279 0 0 65279 0 0 65279 0 0 65279 0 0 65279 0 0 65279 0 0 65279 0 0 65279 0 0 65279 0 0 65279 0 0 65279 0 0 65279 0 0 65279 0 0 65279 0 0 65279 0 0 65279 0 0 65279 0 0 65279 0 0 65279 0 0 65279 0 0 65279 0 0 65279 0 0 65279 0 0 65279 0 0 65279 0 0 65279 0 0 65279 0 0 65279 0 0 65279 0 0 65279 0 0 65279 0 0 65279 0 0 65279 0 0 65279 0 0 65279 0 0 65279 0 0 65279 0 0 65279 0 0 65279 0 0 65279 0 0 65279 0 0 65279 0 0 65279 0 0 65279 0 0 65279 0 0 65279 0 0 65279 0 0 65279 0 0 65279 0 0 65279 0 0 65279 0 0 65279 0 0 65279 0 0 65279 0 0 65279 0 0 65279 0 0 65279 0 0 65279 0 0 65279 0 0 65279 0 0 65279 0 0 65279 0 0 65279 0 0 65279 0 0 65279 0 0 65279 0 0 65279 0 0 65279 0 0 65279 0 0 65279 0 0 65279 0 0 65279 0 0 65279 0 0 65279 0 0 65279 0 0 65279 0 0 65279 0 0 65279 0 0 65279 0 0 65279 0 0 65279 0 0 65279 0 0 65279 0 0 65279 0 0 65279 0 0 65279 0 0 65279 0 0 65279 0 0 65279 0 0 65279 0 0 65279 0 0 65279 0 0 65279 0 0 65279 0 0 65279 0 0 65279 0 0 65279 0 0 65279 0 0 65279 0 0 65279 0 0 65279 0 0 65279 0 0 65279 0 0 65279 0 0 65279 0 0 65279 0 0 65279 0 0 65279 0 0 65279 0 0 65279 0 0 65279 0 0 65279 0 0 65279 0 0 65279 0 0 65279 0 0 65279 0 0 65279 0 0 65279 0 0 65279 0 0 65279 0 0 65279 0 0 65279 0 0 65279 0 0 65279 0 0 65279 0 0 65279 0 0 65279 0 0 65279 0 0 65279 0 0 65279 0 0 65279 0 0 65279 0 0 65279 0 0 65279 0 0 65279 0 0 65279 0 0 65279 0 0 65279 0 0 65279 0 0 65279 0 0 65279 0 0 65279 0 0 65279 0 0 65279 0 0 65279 0 0 65279 0 0 65279 0 0 65279 0 0 65279 0 0 65279 0 0 65279 0 0 65279 0 0 65279 0 0 65279 0 0 65279 0 0 65279 0 0 65279 0 0 65279 0 0 65279 0 0 65279 0 0 65279 0 0 65279 0 0 65279 0 0 65279 0 0 65279 0 0 65279 0 0 65279 0 0 65279 0 0 65279 0 0 65279 0 0 65279 0 0 65279 0 0 65279 0 0 65279 0 0 65279 0 0 65279 0 0 65279 0 0 65279 0 0 65279 0 0 65279 0 0 65279 0 0 65279 0 0 65279 0 0 65279 0 0 65279 0 0 65279 0 0 65279 0 0 65279 0 0 65279 0 0 65279 0 0 65279 0 0 65279 0 0 65279 0 0 65279 0 0 65279 0 0 65279 0 0 65279 0 0 65279 0 0 65279 0 0 65279 0 0 65279 0 0 65279 0 0 65279 0 0 65279 0 0 65279 0 0 65279 0 0 65279 0 0 65279 0 0 65279 0 0 65279 0 0 65279 0 0 65279 0 0 65279 0 0 65279 0 0 65279 0 0 65279 0 0 65279 0 0 65279 0 0 65279 0 0 65279 0 0 65279 0 0 65279 0 0 65279 0 0 65279 0 0 65279 0 0 65279 0 0 65279 0 0 65279 0 0 65279 0 0 65279 0 0 65279 0 0 65279 0 0 65279 0 0 65279 0 0 65279 0 0 65279 0 0 65279 0 0 65279 0 0 65279 0 0 65279 0 0 65279 0 0 65279 0 0 65279 0 0 65279 0 0 65279 0 0 65279 0 0 65279 0 0 65279 0 0 65279 0 0 65279 0 0 65279 0 0 65279 0 0 65279 0 0 65279 0 0 65279 0 0 65279 0 0 65279 0 0 65279 0 0 65279 0 0 65279 0 0 65279 0 0 65279 0 0 65279 0 0 65279 0 0 65279 0 0 65279 0 0 65279 0 0 65279 0 0 65279 0 0 65279 0 0 65279 0 0 65279 0 0 65279 0 0 65279 0 0 65279 0 0 65279 0 0 65279 0 0 65279 0 0 65279 0 0 65279 0 0 65279 0 0 65279 0 0 65279 0 0 65279 0 0 65279 0 0 65279 0 0 65279 0 0 65279 0 0 65279 0 0 65279 0 0 65279 0 0 65279 0 0 65279 0 0 65279 0 0 65279 0 0 65279 0 0 65279 0 0 65279 0 0 65279 0 0 65279 0 0 65279 0 0 65279 0 0 65279 0 0 65279 0 0 65279 0 0 65279 0 0 65279 0 0 65279 0 0 65279 0 0 65279 0 0 65279 0 0 65279 0 0 65279 0 0 65279 0 0 65279 0 0 65279 0 0 65279 0 0 65279 0 0 65279 0 0 65279 0 0 65279 0 0 65279 0 0 65279 0 0 65279 0 0 65279 0 0 65279 0 0 65279 0 0 65279 0 0 65279 0 0 65279 0 0 65279 0 0 65279 0 0 65279 0 0 65279 0 0 65279 0 0 65279 0 0 65279 0 0 65279 0 0 65279 0 0 65279 0 0 65279 0 0 65279 0 0 65279 0 0 65279 0 0 65279 0 0 65279 0 0 65279 0 0 65279 0 0 65279 0 0 65279 0 0 65279 0 0 65279 0 0 65279 0 0 65279 0 0 65279 0 0 65279 0 0 65279 0 0 65279 0 0 65279 0 0 65279 0 0 65279 0 0 65279 0 0 65279 0 0 65279 0 0 65279 0 0 65279 0 0 65279 0 0 65279 0 0 65279 0 0 65279 0 0 65279 0 0 65279 0 0 65279 0 0 65279 0 0 65279 0 0 65279 0 0 65279 0 0 65279 0 0 65279 0 0 65279 0 0 65279 0 0 65279 0 0 65279 0 0 65279 0 0 65279 0 0 65279 0 0 65279 0 0 65279 0 0 65279 0 0 65279 0 0 65279 0 0 65279 0 0 65279 0 0 65279 0 0 65279 0 0 65279 0 0 65279 0 0 65279 0 0 65279 0 0 65279 0 0 65279 0 0 65279 0 0 65279 0 0 65279 0 0 65279 0 0 65279 0 0 65279 0 0 65279 0 0 65279 0 0 65279 0 0 65279 0 0 65279 0 0 65279 0 0 65279 0 0 65279 0 0 65279 0 0 65279 0 0 65279 0 0 65279 0 0 65279 0 0 65279 0 0 65279 0 0 65279 0 0 65279 0 0 65279 0 0 65279 0 0 65279 0 0 65279 0 0 65279 0 0 65279 0 0 65279 0 0 65279 0 0 65279 0 0 65279 0 0 65279 0 0 65279 0 0 65279 0 0 65279 0 0 65279 0 0 65279 0 0 65279 0 0 65279 0 0 65279 0 0 65279 0 0 65279 0 0 65279 0 0 65279 0 0 65279 0 0 65279 0 0 65279 0 0 65279 0 0 65279 0 0 65279 0 0 65279 0 0 65279 0 0 65279 0 0 65279 0 0 65279 0 0 65279 0 0 65279 0 0 65279 0 0 65279 0 0 65279 0 0 65279 0 0 65279 0 0 65279 0 0 65279 0 0 65279 0 0 65279 0 0 65279 0 0 65279 0 0 65279 0 0 65279 0 0 65279 0 0 65279 0 0 65279 0 0 65279 0 0 65279 0 0 65279 0 0 65279 0 0 65279 0 0 65279 0 0 65279 0 0 65279 0 0 65279 0 0 65279 0 0 65279 0 0 65279 0 0 65279 0 0 65279 0 0 65279 0 0 65279 0 0 65279 0 0 65279 0 0 65279 0 0 65279 0 0 65279 0 0 65279 0 0 65279 0 0 65279 0 0 65279 0 0 65279 0 0 65279 0 0 65279 0 0 65279 0 0 65279 0 0 65279 0 0 65279 0 0 65279 0 0 65279 0 0 65279 0 0 65279 0 0 65279 0 0 65279 0 0 65279 0 0 65279 0 0 65279 0 0 65279 0 0 65279 0 0 65279 0 0 65279 0 0 65279 0 0 65279 0 0 65279 0 0 65279 0 0 65279 0 0 65279 0 0 65279 0 0 65279 0 0 65279 0 0 65279 0 0 65279 0 0 65279 0 0 65279 0 0 65279 0 0 65279 0 0 65279 0 0 65279 0 0 65279 0 0 65279 0 0 65279 0 0 65279 0 0 65279 0 0 65279 0 0 65279 0 0 65279 0 0 65279 0 0 65279 0 0 65279 0 0 65279 0 0 65279 0 0 65279 0 0 65279 0 0 65279 0 0 65279 0 0 65279 0 0 65279 0 0 65279 0 0 65279 0 0 65279 0 0 65279 0 0 65279 0 0 65279 0 0 65279 0 0 65279 0 0 65279 0 0 65279 0 0 65279 0 0 65279 0 0 65279 0 0 65279 0 0 65279 0 0 65279 0 0 65279 0 0 65279 0 0 65279 0 0 65279 0 0 65279 0 0 65279 0 0 65279 0 0 65279 0 0 65279 0 0 65279 0 0 65279 0 0 65279 0 0 65279 0 0 65279 0 0 65279 0 0 65279 0 0 65279 0 0 65279 0 0 65279 0 0 65279 0 0 65279 0 0 65279 0 0 65279 0 0 65279 0 0 65279 0 0 65279 0 0 65279 0 0 65279 0 0 65279 0 0 65279 0 0 65279 0 0 65279 0 0 65279 0 0 65279 0 0 65279 0 0 65279 0 0 65279 0 0 65279 0 0 65279 0 0 65279 0 0 65279 0 0 65279 0 0 65279 0 0 65279 0 0 65279 0 0 65279 0 0 65279 0 0 65279 0 0 65279 0 0 65279 0 0 65279 0 0 65279 0 0 65279 0 0 65279 0 0 65279 0 0 65279 0 0 65279 0 0 65279 0 0 65279 0 0 65279 0 0 65279 0 0 65279 0 0 65279 0 0 65279 0 0 65279 0 0 65279 0 0 65279 0 0 65279 0 0 65279 0 0 65279 0 0 65279 0 0 65279 0 0 65279 0 0 65279 0 0 65279 0 0 65279 0 0 65279 0 0 65279 0 0 65279 0 0 65279 0 0 65279 0 0 65279 0 0 65279 0 0 65279 0 0 65279 0 0 65279 0 0 65279 0 0 65279 0 0 65279 0 0 65279 0 0 65279 0 0 65279 0 0 65279 0 0 65279 0 0 65279 0 0 65279 0 0 65279 0 0 65279 0 0 65279 0 0 65279 0 0 65279 0 0 65279 0 0 65279 0 0 65279 0 0 65279 0 0 65279 0 0 65279 0 0 65279 0 0 65279 0 0 65279 0 0 65279 0 0 65279 0 0 65279 0 0 65279 0 0 65279 0 0 65279 0 0 65279 0 0 65279 0 0 65279 0 0 65279 0 0 65279 0 0 65279 0 0 65279 0 0 65279 0 0 65279 0 0 65279 0 0 65279 0 0 65279 0 0 65279 0 0 65279 0 0 65279 0 0 65279 0 0 65279 0 0 65279 0 0 65279 0 0 65279 0 0 65279 0 0 65279 0 0 65279 0 0 65279 0 0 65279 0 0 65279 0 0 65279 0 0 65279 0 0 65279 0 0 65279 0 0 65279 0 0 65279 0 0 65279 0 0 65279 0 0 65279 0 0 65279 0 0 65279 0 0 65279 0 0 65279 0 0 65279 0 0 65279 0 0 65279 0 0 65279 0 0 65279 0 0 65279 0 0 65279 0 0 65279 0 0 65279 0 0 65279 0 0 65279 0 0 65279 0 0 65279 0 0 65279 0 0 65279 0 0 65279 0 0 65279 0 0 65279 0 0 65279 0 0 65279 0 0 65279 0 0 65279 0 0 65279 0 0 65279 0 0 65279 0 0 65279 0 0 65279 0 0 65279 0 0 65279 0 0 65279 0 0 65279 0 0 65279 0 0 65279 0 0 65279 0 0 65279 0 0 65279 0 0 65279 0 0 65279 0 0 65279 0 0 65279 0 0 65279 0 0 65279 0 0 65279 0 0 65279 0 0 65279 0 0 65279 0 0 65279 0 0 65279 0 0 65279 0 0 65279 0 0 65279 0 0 65279 0 0 65279 0 0 65279 0 0 65279 0 0 65279 0 0 65279 0 0 65279 0 0 65279 0 0 65279 0 0 65279 0 0 65279 0 0 65279 0 0 65279 0 0 65279 0 0 65279 0 0 65279 0 0 65279 0 0 65279 0 0 65279 0 0 65279 0 0 65279 0 0 65279 0 0 65279 0 0 65279 0 0 65279 0 0 65279 0 0 65279 0 0 65279 0 0 65279 0 0 65279 0 0 65279 0 0 65279 0 0 65279 0 0 65279 0 0 65279 0 0 65279 0 0 65279 0 0 65279 0 0 65279 0 0 65279 0 0 65279 0 0 65279 0 0 65279 0 0 65279 0 0 65279 0 0 65279 0 0 65279 0 0 65279 0 0 65279 0 0 65279 0 0 65279 0 0 65279 0 0 65279 0 0 65279 0 0 65279 0 0 65279 0 0 65279 0 0 65279 0 0 65279 0 0 65279 0 0 65279 0 0 65279 0 0 65279 0 0 65279 0 0 65279 0 0 65279 0 0 65279 0 0 65279 0 0 65279 0 0 65279 0 0 65279 0 0 65279 0 0 65279 0 0 65279 0 0 65279 0 0 65279 0 0 65279 0 0 65279 0 0 65279 0 0 65279 0 0 65279 0 0 65279 0 0 65279 0 0 65279 0 0 65279 0 0 65279 0 0 65279 0 0 65279 0 0 65279 0 0 65279 0 0 65279 0 0 65279 0 0 65279 0 0 65279 0 0 65279 0 0 65279 0 0 65279 0 0 65279 0 0 65279 0 0 65279 0 0 65279 0 0 65279 0 0 65279 0 0 65279 0 0 65279 0 0 65279 0 0 65279 0 0 65279 0 0 65279 0 0 65279 0 0 65279 0 0 65279 0 0 65279 0 0 65279 0 0 65279 0 0 65279 0 0 65279 0 0 65279 0 0 65279 0 0 65279 0 0 65279 0 0 65279 0 0 65279 0 0 65279 0 0 65279 0 0 65279 0 0 65279 0 0 65279 0 0 65279 0 0 65279 0 0 65279 0 0 65279 0 0 65279 0 0 65279 0 0 65279 0 0 65279 0 0 65279 0 0 65279 0 0 65279 0 0 65279 0 0 65279 0 0 65279 0 0 65279 0 0 65279 0 0 65279 0 0 65279 0 0 65279 0 0 65279 0 0 65279 0 0 65279 0 0 65279 0 0 65279 0 0 65279 0 0 65279 0 0 65279 0 0 65279 0 0 65279 0 0 65279 0 0 65279 0 0 65279 0 0 65279 0 0 65279 0 0 65279 0 0 65279 0 0 65279 0 0 65279 0 0 65279 0 0 65279 0 0 65279 0 0 65279 0 0 65279 0 0 65279 0 0 65279 0 0 65279 0 0 65279 0 0 65279 0 0 65279 0 0 65279 0 0 65279 0 0 65279 0 0 65279 0 0 65279 0 0 65279 0 0 65279 0 0 65279 0 0 65279 0 0 65279 0 0 65279 0 0 65279 0 0 65279 0 0 65279 0 0 65279 0 0 65279 0 0 65279 0 0 65279 0 0 65279 0 0 65279 0 0 65279 0 0 65279 0 0 65279 0 0 65279 0 0 65279 0 0 65279 0 0 65279 0 0 65279 0 0 65279 0 0 65279 0 0 65279 0 0 65279 0 0 65279 0 0 65279 0 0 65279 0 0 65279 0 0 65279 0 0 65279 0 0 65279 0 0 65279 0 0 65279 0 0 65279 0 0 65279 0 0 65279 0 0 65279 0 0 65279 0 0 65279 0 0 65279 0 0 65279 0 0 65279 0 0 65279 0 0 65279 0 0 65279 0 0 65279 0 0 65279 0 0 65279 0 0 65279 0 0 65279 0 0 65279 0 0 65279 0 0 65279 0 0 65279 0 0 65279 0 0 65279 0 0 65279 0 0 65279 0 0 65279 0 0 65279 0 0 65279 0 0 65279 0 0 65279 0 0 65279 0 0 65279 0 0 65279 0 0 65279 0 0 65279 0 0 65279 0 0 65279 0 0 65279 0 0 65279 0 0 65279 0 0 65279 0 0 65279 0 0 65279 0 0 65279 0 0 65279 0 0 65279 0 0 65279 0 0 65279 0 0 65279 0 0 65279 0 0 65279 0 0 65279 0 0 65279 0 0 65279 0 0 65279 0 0 65279 0 0 65279 0 0 65279 0 0 65279 0 0 65279 0 0 65279 0 0 65279 0 0 65279 0 0 65279 0 0 65279 0 0 65279 0 0 65279 0 0 65279 0 0 65279 0 0 65279 0 0 65279 0 0 65279 0 0 65279 0 0 65279 0 0 65279 0 0 65279 0 0 65279 0 0 65279 0 0 65279 0 0 65279 0 0 65279 0 0 65279 0 0 65279 0 0 65279 0 0 65279 0 0 65279 0 0 65279 0 0 65279 0 0 65279 0 0 65279 0 0 65279 0 0 65279 0 0 65279 0 0 65279 0 0 65279 0 0 65279 0 0 65279 0 0 65279 0 0 65279 0 0 65279 0 0 65279 0 0 65279 0 0 65279 0 0 65279 0 0 65279 0 0 65279 0 0 65279 0 0 65279 0 0 65279 0 0 65279 0 0 65279 0 0 65279 0 0 65279 0 0 65279 0 0 65279 0 0 65279 0 0 65279 0 0 65279 0 0 65279 0 0 65279 0 0 65279 0 0 65279 0 0 65279 0 0 65279 0 0 65279 0 0 65279 0 0 65279 0 0 65279 0 0 65279 0 0 65279 0 0 65279 0 0 65279 0 0 65279 0 0 65279 0 0 65279 0 0 65279 0 0 65279 0 0 65279 0 0 65279 0 0 65279 0 0 65279 0 0 65279 0 0 65279 0 0 65279 0 0 65279 0 0 65279 0 0 65279 0 0 65279 0 0 65279 0 0 65279 0 0 65279 0 0 65279 0 0 65279 0 0 65279 0 0 65279 0 0 65279 0 0 65279 0 0 65279 0 0 65279 0 0 65279 0 0 65279 0 0 65279 0 0 65279 0 0 65279 0 0 65279 0 0 65279 0 0 65279 0 0 65279 0 0 65279 0 0 65279 0 0 65279 0 0 65279 0 0 65279 0 0 65279 0 0 65279 0 0 65279 0 0 65279 0 0 65279 0 0 65279 0 0 65279 0 0 65279 0 0 65279 0 0 65279 0 0 65279 0 0 65279 0 0 65279 0 0 65279 0 0 65279 0 0 65279 0 0 65279 0 0 65279 0 0 65279 0 0 65279 0 0 65279 0 0 65279 0 0 65279 0 0 65279 0 0 65279 0 0 65279 0 0 65279 0 0 65279 0 0 65279 0 0 65279 0 0 65279 0 0 65279 0 0 65279 0 0 65279 0 0 65279 0 0 65279 0 0 65279 0 0 65279 0 0 65279 0 0 65279 0 0 65279 0 0 65279 0 0 65279 0 0 65279 0 0 65279 0 0 65279 0 0 65279 0 0 65279 0 0 65279 0 0 65279 0 0 65279 0 0 65279 0 0 65279 0 0 65279 0 0 65279 0 0 65279 0 0 65279 0 0 65279 0 0 65279 0 0 65279 0 0 65279 0 0 65279 0 0 65279 0 0 65279 0 0 65279 0 0 65279 0 0 65279 0 0 65279 0 0 65279 0 0 65279 0 0 65279 0 0 65279 0 0 65279 0 0 65279 0 0 65279 0 0 65279 0 0 65279 0 0 65279 0 0 65279 0 0 65279 0 0 65279 0 0 65279 0 0 65279 0 0 65279 0 0 65279 0 0 65279 0 0 65279 0 0 65279 0 0 65279 0 0 65279 0 0 65279 0 0 65279 0 0 65279 0 0 65279 0 0 65279 0 0 65279 0 0 65279 0 0 65279 0 0 65279 0 0 65279 0 0 65279 0 0 65279 0 0 65279 0 0 65279 0 0 65279 0 0 65279 0 0 65279 0 0 65279 0 0 65279 0 0 65279 0 0 65279 0 0 65279 0 0 65279 0 0 65279 0 0 65279 0 0 65279 0 0 65279 0 0 65279 0 0 65279 0 0 65279 0 0 65279 0 0 65279 0 0 65279 0 0 65279 0 0 65279 0 0 65279 0 0 65279 0 0 65279 0 0 65279 0 0 65279 0 0 65279 0 0 65279 0 0 65279 0 0 65279 0 0 65279 0 0 65279 0 0 65279 0 0 65279 0 0 65279 0 0 65279 0 0 65279 0 0 65279 0 0 65279 0 0 65279 0 0 65279 0 0 65279 0 0 65279 0 0 65279 0 0 65279 0 0 65279 0 0 65279 0 0 65279 0 0 65279 0 0 65279 0 0 65279 0 0 65279 0 0 65279 0 0 65279 0 0 65279 0 0 65279 0 0 65279 0 0 65279 0 0 65279 0 0 65279 0 0 65279 0 0 65279 0 0 65279 0 0 65279 0 0 65279 0 0 65279 0 0 65279 0 0 65279 0 0 65279 0 0 65279 0 0 65279 0 0 65279 0 0 65279 0 0 65279 0 0 65279 0 0 65279 0 0 65279 0 0 65279 0 0 65279 0 0 65279 0 0 65279 0 0 65279 0 0 65279 0 0 65279 0 0 65279 0 0 65279 0 0 65279 0 0 65279 0 0 65279 0 0 65279 0 0 65279 0 0 65279 0 0 65279 0 0 65279 0 0 65279 0 0 65279 0 0 65279 0 0 65279 0 0 65279 0 0 65279 0 0 65279 0 0 65279 0 0 65279 0 0 65279 0 0 65279 0 0 65279 0 0 65279 0 0 65279 0 0 65279 0 0 65279 0 0 65279 0 0 65279 0 0 65279 0 0 65279 0 0 65279 0 0 65279 0 0 65279 0 0 65279 0 0 65279 0 0 65279 0 0 65279 0 0 65279 0 0 65279 0 0 65279 0 0 65279 0 0 65279 0 0 65279 0 0 65279 0 0 65279 0 0 65279 0 0 65279 0 0 65279 0 0 65279 0 0 65279 0 0 65279 0 0 65279 0 0 65279 0 0 65279 0 0 65279 0 0 65279 0 0 65279 0 0 65279 0 0 65279 0 0 65279 0 0 65279 0 0 65279 0 0 65279 0 0 65279 0 0 65279 0 0 65279 0 0 65279 0 0 65279 0 0 65279 0 0 65279 0 0 65279 0 0 65279 0 0 65279 0 0 65279 0 0 65279 0 0 65279 0 0 65279 0 0 65279 0 0 65279 0 0 65279 0 0 65279 0 0 65279 0 0 65279 0 0 65279 0 0 65279 0 0 65279 0 0 65279 0 0 65279 0 0 65279 0 0 65279 0 0 65279 0 0 65279 0 0 65279 0 0 65279 0 0 65279 0 0 65279 0 0 65279 0 0 65279 0 0 65279 0 0 65279 0 0 65279 0 0 65279 0 0 65279 0 0 65279 0 0 65279 0 0 65279 0 0 65279 0 0 65279 0 0 65279 0 0 65279 0 0 65279 0 0 65279 0 0 65279 0 0 65279 0 0 65279 0 0 65279 0 0 65279 0 0 65279 0 0 65279 0 0 65279 0 0 65279 0 0 65279 0 0 65279 0 0 65279 0 0 65279 0 0 65279 0 0 65279 0 0 65279 0 0 65279 0 0 65279 0 0 65279 0 0 65279 0 0 65279 0 0 65279 0 0 65279 0 0 65279 0 0 65279 0 0 65279 0 0 65279 0 0 65279 0 0 65279 0 0 65279 0 0 65279 0 0 65279 0 0 65279 0 0 65279 0 0 65279 0 0 65279 0 0 65279 0 0 65279 0 0 65279 0 0 65279 0 0 65279 0 0 65279 0 0 65279 0 0 65279 0 0 65279 0 0 65279 0 0 65279 0 0 65279 0 0 65279 0 0 65279 0 0 65279 0 0 65279 0 0 65279 0 0 65279 0 0 65279 0 0 65279 0 0 65279 0 0 65279 0 0 65279 0 0 65279 0 0 65279 0 0 65279 0 0 65279 0 0 65279 0 0 65279 0 0 65279 0 0 65279 0 0 65279 0 0 65279 0 0 65279 0 0 65279 0 0 65279 0 0 65279 0 0 65279 0 0 65279 0 0 65279 0 0 65279 0 0 65279 0 0 65279 0 0 65279 0 0 65279 0 0 65279 0 0 65279 0 0 65279 0 0 65279 0 0 65279 0 0 65279 0 0 65279 0 0 65279 0 0 65279 0 0 65279 0 0 65279 0 0 65279 0 0 65279 0 0 65279 0 0 65279 0 0 65279 0 0 65279 0 0 65279 0 0 65279 0 0 65279 0 0 65279 0 0 65279 0 0 65279 0 0 65279 0 0 65279 0 0 65279 0 0 65279 0 0 65279 0 0 65279 0 0 65279 0 0 65279 0 0 65279 0 0 65279 0 0 65279 0 0 65279 0 0 65279 0 0 65279 0 0 65279 0 0 65279 0 0 65279 0 0 65279 0 0 65279 0 0 65279 0 0 65279 0 0 65279 0 0 65279 0 0 65279 0 0 65279 0 0 65279 0 0 65279 0 0 65279 0 0 65279 0 0 65279 0 0 65279 0 0 65279 0 0 65279 0 0 65279 0 0 65279 0 0 65279 0 0 65279 0 0 65279 0 0 65279 0 0 65279 0 0 65279 0 0 65279 0 0 65279 0 0 65279 0 0 65279 0 0 65279 0 0 65279 0 0 65279 0 0 65279 0 0 65279 0 0 65279 0 0 65279 0 0 65279 0 0 65279 0 0 65279 0 0 65279 0 0 65279 0 0 65279 0 0 65279 0 0 65279 0 0 65279 0 0 65279 0 0 65279 0 0 65279 0 0 65279 0 0 65279 0 0 65279 0 0 65279 0 0 65279 0 0 65279 0 0 65279 0 0 65279 0 0 65279 0 0 65279 0 0 65279 0 0 65279 0 0 65279 0 0 65279 0 0 65279 0 0 65279 0 0 65279 0 0 65279 0 0 65279 0 0 65279 0 0 65279 0 0 65279 0 0 65279 0 0 65279 0 0 65279 0 0 65279 0 0 65279 0 0 65279 0 0 65279 0 0 65279 0 0 65279 0 0 65279 0 0 65279 0 0 65279 0 0 65279 0 0 65279 0 0 65279 0 0 65279 0 0 65279 0 0 65279 0 0 65279 0 0 65279 0 0 65279 0 0 65279 0 0 65279 0 0 65279 0 0 65279 0 0 65279 0 0 65279 0 0 65279 0 0 65279 0 0 65279 0 0 65279 0 0 65279 0 0 65279 0 0 65279 0 0 65279 0 0 65279 0 0 65279 0 0 65279 0 0 65279 0 0 65279 0 0 65279 0 0 65279 0 0 65279 0 0 65279 0 0 65279 0 0 65279 0 0 65279 0 0 65279 0 0 65279 0 0 65279 0 0 65279 0 0 65279 0 0 65279 0 0 65279 0 0 65279 0 0 65279 0 0 65279 0 0 65279 0 0 65279 0 0 65279 0 0 65279 0 0 65279 0 0 65279 0 0 65279 0 0 65279 0 0 65279 0 0 65279 0 0 65279 0 0 65279 0 0 65279 0 0 65279 0 0 65279 0 0 65279 0 0 65279 0 0 65279 0 0 65279 0 0 65279 0 0 65279 0 0 65279 0 0 65279 0 0 65279 0 0 65279 0 0 65279 0 0 65279 0 0 65279 0 0 65279 0 0 65279 0 0 65279 0 0 65279 0 0 65279 0 0 65279 0 0 65279 0 0 65279 0 0 65279 0 0 65279 0 0 65279 0 0 65279 0 0 65279 0 0 65279 0 0 65279 0 0 65279 0 0 65279 0 0 65279 0 0 65279 0 0 65279 0 0 65279 0 0 65279 0 0 65279 0 0 65279 0 0 65279 0 0 65279 0 0 65279 0 0 65279 0 0 65279 0 0 65279 0 0 65279 0 0 65279 0 0 65279 0 0 65279 0 0 65279 0 0 65279 0 0 65279 0 0 65279 0 0 65279 0 0 65279 0 0 65279 0 0 65279 0 0 65279 0 0 65279 0 0 65279 0 0 65279 0 0 65279 0 0 65279 0 0 65279 0 0 65279 0 0 65279 0 0 65279 0 0 65279 0 0 65279 0 0 65279 0 0 65279 0 0 65279 0 0 65279 0 0 65279 0 0 65279 0 0 65279 0 0 65279 0 0 65279 0 0 65279 0 0 65279 0 0 65279 0 0 65279 0 0 65279 0 0 65279 0 0 65279 0 0 65279 0 0 65279 0 0 65279 0 0 65279 0 0 65279 0 0 65279 0 0 65279 0 0 65279 0 0 65279 0 0 65279 0 0 65279 0 0 65279 0 0 65279 0 0 65279 0 0 65279 0 0 65279 0 0 65279 0 0 65279 0 0 65279 0 0 65279 0 0 65279 0 0 65279 0 0 65279 0 0 65279 0 0 65279 0 0 65279 0 0 65279 0 0 65279 0 0 65279 0 0 65279 0 0 65279 0 0 65279 0 0 65279 0 0 65279 0 0 65279 0 0 65279 0 0 65279 0 0 65279 0 0 65279 0 0 65279 0 0 65279 0 0 65279 0 0 65279 0 0 65279 0 0 65279 0 0 65279 0 0 65279 0 0 65279 0 0 65279 0 0 65279 0 0 65279 0 0 65279 0 0 65279 0 0 65279 0 0 65279 0 0 65279 0 0 65279 0 0 65279 0 0 65279 0 0 65279 0 0 65279 0 0 65279 0 0 65279 0 0 65279 0 0 65279 0 0 65279 0 0 65279 0 0 65279 0 0 65279 0 0 65279 0 0 65279 0 0 65279 0 0 65279 0 0 65279 0 0 65279 0 0 65279 0 0 65279 0 0 65279 0 0 65279 0 0 65279 0 0 65279 0 0 65279 0 0 65279 0 0 65279 0 0 65279 0 0 65279 0 0 65279 0 0 65279 0 0 65279 0 0 65279 0 0 65279 0 0 65279 0 0 65279 0 0 65279 0 0 65279 0 0 65279 0 0 65279 0 0 65279 0 0 65279 0 0 65279 0 0 65279 0 0 65279 0 0 65279 0 0 65279 0 0 65279 0 0 65279 0 0 65279 0 0 65279 0 0 65279 0 0 65279 0 0 65279 0 0 65279 0 0 65279 0 0 65279 0 0 65279 0 0 65279 0 0 65279 0 0 65279 0 0 65279 0 0 65279 0 0 65279 0 0 65279 0 0 65279 0 0 65279 0 0 65279 0 0 65279 0 0 65279 0 0 65279 0 0 65279 0 0 65279 0 0 65279 0 0 65279 0 0 65279 0 0 65279 0 0 65279 0 0 65279 0 0 65279 0 0 65279 0 0 65279 0 0 65279 0 0 65279 0 0 65279 0 0 65279 0 0 65279 0 0 65279 0 0 65279 0 0 65279 0 0 65279 0 0 65279 0 0 65279 0 0 65279 0 0 65279 0 0 65279 0 0 65279 0 0 65279 0 0 65279 0 0 65279 0 0 65279 0 0 65279 0 0 65279 0 0 65279 0 0 65279 0 0 65279 0 0 65279 0 0 65279 0 0 65279 0 0 65279 0 0 65279 0 0 65279 0 0 65279 0 0 65279 0 0 65279 0 0 65279 0 0 65279 0 0 65279 0 0 65279 0 0 65279 0 0 65279 0 0 65279 0 0 65279 0 0 65279 0 0 65279 0 0 65279 0 0 65279 0 0 65279 0 0 65279 0 0 65279 0 0 65279 0 0 65279 0 0 65279 0 0 65279 0 0 65279 0 0 65279 0 0 65279 0 0 65279 0 0 65279 0 0 65279 0 0 65279 0 0 65279 0 0 65279 0 0 65279 0 0 65279 0 0 65279 0 0 65279 0 0 65279 0 0 65279 0 0 65279 0 0 65279 0 0 65279 0 0 65279 0 0 65279 0 0 65279 0 0 65279 0 0 65279 0 0 65279 0 0 65279 0 0 65279 0 0 65279 0 0 65279 0 0 65279 0 0 65279 0 0 65279 0 0 65279 0 0 65279 0 0 65279 0 0 65279 0 0 65279 0 0 65279 0 0 65279 0 0 65279 0 0 65279 0 0 65279 0 0 65279 0 0 65279 0 0 65279 0 0 65279 0 0 65279 0 0 65279 0 0 65279 0 0 65279 0 0 65279 0 0 65279 0 0 65279 0 0 65279 0 0 65279 0 0 65279 0 0 65279 0 0 65279 0 0 65279 0 0 65279 0 0 65279 0 0 65279 0 0 65279 0 0 65279 0 0 65279 0 0 65279 0 0 65279 0 0 65279 0 0 65279 0 0 65279 0 0 65279 0 0 65279 0 0 65279 0 0 65279 0 0 65279 0 0 65279 0 0 65279 0 0 65279 0 0 65279 0 0 65279 0 0 65279 0 0 65279 0 0 65279 0 0 65279 0 0 65279 0 0 65279 0 0 65279 0 0 65279 0 0 65279 0 0 65279 0 0 65279 0 0 65279 0 0 65279 0 0 65279 0 0 65279 0 0 65279 0 0 65279 0 0 65279 0 0 65279 0 0 65279 0 0 65279 0 0 65279 0 0 65279 0 0 65279 0 0 65279 0 0 65279 0 0 65279 0 0 65279 0 0 65279 0 0 65279 0 0 65279 0 0 65279 0 0 65279 0 0 65279 0 0 65279 0 0 65279 0 0 65279 0 0 65279 0 0 65279 0 0 65279 0 0 65279 0 0 65279 0 0 65279 0 0 65279 0 0 65279 0 0 65279 0 0 65279 0 0 65279 0 0 65279 0 0 65279 0 0 65279 0 0 65279 0 0 65279 0 0 65279 0 0 65279 0 0 65279 0 0 65279 0 0 65279 0 0 65279 0 0 65279 0 0 65279 0 0 65279 0 0 65279 0 0 65279 0 0 65279 0 0 65279 0 0 65279 0 0 65279 0 0 65279 0 0 65279 0 0 65279 0 0 65279 0 0 65279 0 0 65279 0 0 65279 0 0 65279 0 0 65279 0 0 65279 0 0 65279 0 0 65279 0 0 65279 0 0 65279 0 0 65279 0 0 65279 0 0 65279 0 0 65279 0 0 65279 0 0 65279 0 0 65279 0 0 65279 0 0 65279 0 0 65279 0 0 65279 0 0 65279 0 0 65279 0 0 65279 0 0 65279 0 0 65279 0 0 65279 0 0 65279 0 0 65279 0 0 65279 0 0 65279 0 0 65279 0 0 65279 0 0 65279 0 0 65279 0 0 65279 0 0 65279 0 0 65279 0 0 65279 0 0 65279 0 0 65279 0 0 65279 0 0 65279 0 0 65279 0 0 65279 0 0 65279 0 0 65279 0 0 65279 0 0 65279 0 0 65279 0 0 65279 0 0 65279 0 0 65279 0 0 65279 0 0 65279 0 0 65279 0 0 65279 0 0 65279 0 0 65279 0 0 65279 0 0 65279 0 0 65279 0 0 65279 0 0 65279 0 0 65279 0 0 65279 0 0 65279 0 0 65279 0 0 65279 0 0 65279 0 0 65279 0 0 65279 0 0 65279 0 0 65279 0 0 65279 0 0 65279 0 0 65279 0 0 65279 0 0 65279 0 0 65279 0 0 65279 0 0 65279 0 0 65279 0 0 65279 0 0 65279 0 0 65279 0 0 65279 0 0 65279 0 0 65279 0 0 65279 0 0 65279 0 0 65279 0 0 65279 0 0 65279 0 0 65279 0 0 65279 0 0 65279 0 0 65279 0 0 65279 0 0 65279 0 0 65279 0 0 65279 0 0 65279 0 0 65279 0 0 65279 0 0 65279 0 0 65279 0 0 65279 0 0 65279 0 0 65279 0 0 65279 0 0 65279 0 0 65279 0 0 65279 0 0 65279 0 0 65279 0 0 65279 0 0 65279 0 0 65279 0 0 65279 0 0 65279 0 0 65279 0 0 65279 0 0 65279 0 0 65279 0 0 65279 0 0 65279 0 0 65279 0 0 65279 0 0 65279 0 0 65279 0 0 65279 0 0 65279 0 0 65279 0 0 65279 0 0 65279 0 0 65279 0 0 65279 0 0 65279 0 0 65279 0 0 65279 0 0 65279 0 0 65279 0 0 65279 0 0 65279 0 0 65279 0 0 65279 0 0 65279 0 0 65279 0 0 65279 0 0 65279 0 0 65279 0 0 65279 0 0 65279 0 0 65279 0 0 65279 0 0 65279 0 0 65279 0 0 65279 0 0 65279 0 0 65279 0 0 65279 0 0 65279 0 0 65279 0 0 65279 0 0 65279 0 0 65279 0 0 65279 0 0 65279 0 0 65279 0 0 65279 0 0 65279 0 0 65279 0 0 65279 0 0 65279 0 0 65279 0 0 65279 0 0 65279 0 0 65279 0 0 65279 0 0 65279 0 0 65279 0 0 65279 0 0 65279 0 0 65279 0 0 65279 0 0 65279 0 0 65279 0 0 65279 0 0 65279 0 0 65279 0 0 65279 0 0 65279 0 0 65279 0 0 65279 0 0 65279 0 0 65279 0 0 65279 0 0 65279 0 0 65279 0 0 65279 0 0 65279 0 0 65279 0 0 65279 0 0 65279 0 0 65279 0 0 65279 0 0 65279 0 0 65279 0 0 65279 0 0 65279 0 0 65279 0 0 65279 0 0 65279 0 0 65279 0 0 65279 0 0 65279 0 0 65279 0 0 65279 0 0 65279 0 0 65279 0 0 65279 0 0 65279 0 0 65279 0 0 65279 0 0 65279 0 0 65279 0 0 65279 0 0 65279 0 0 65279 0 0 65279 0 0 65279 0 0 65279 0 0 65279 0 0 65279 0 0 65279 0 0 65279 0 0 65279 0 0 65279 0 0 65279 0 0 65279 0 0 65279 0 0 65279 0 0 65279 0 0 65279 0 0 65279 0 0 65279 0 0 65279 0 0 65279 0 0 65279 0 0 65279 0 0 65279 0 0 65279 0 0 65279 0 0 65279 0 0 65279 0 0 65279 0 0 65279 0 0 65279 0 0 65279 0 0 65279 0 0 65279 0 0 65279 0 0 65279 0 0 65279 0 0 65279 0 0 65279 0 0 65279 0 0 65279 0 0 65279 0 0 65279 0 0 65279 0 0 65279 0 0 65279 0 0 65279 0 0 65279 0 0 65279 0 0 65279 0 0 65279 0 0 65279 0 0 65279 0 0 65279 0 0 65279 0 0 65279 0 0 65279 0 0 65279 0 0 65279 0 0 65279 0 0 65279 0 0 65279 0 0 65279 0 0 65279 0 0 65279 0 0 65279 0 0 65279 0 0 65279 0 0 65279 0 0 65279 0 0 65279 0 0 65279 0 0 65279 0 0 65279 0 0 65279 0 0 65279 0 0 65279 0 0 65279 0 0 65279 0 0 65279 0 0 65279 0 0 65279 0 0 65279 0 0 65279 0 0 65279 0 0 65279 0 0 65279 0 0 65279 0 0 65279 0 0 65279 0 0 65279 0 0 65279 0 0 65279 0 0 65279 0 0 65279 0 0 65279 0 0 65279 0 0 65279 0 0 65279 0 0 65279 0 0 65279 0 0 65279 0 0 65279 0 0 65279 0 0 65279 0 0 65279 0 0 65279 0 0 65279 0 0 65279 0 0 65279 0 0 65279 0 0 65279 0 0 65279 0 0 65279 0 0 65279 0 0 65279 0 0 65279 0 0 65279 0 0 65279 0 0 65279 0 0 65279 0 0 65279 0 0 65279 0 0 65279 0 0 65279 0 0 65279 0 0 65279 0 0 65279 0 0 65279 0 0 65279 0 0 65279 0 0 65279 0 0 65279 0 0 65279 0 0 65279 0 0 65279 0 0 65279 0 0 65279 0 0 65279 0 0 65279 0 0 65279 0 0 65279 0 0 65279 0 0 65279 0 0 65279 0 0 65279 0 0 65279 0 0 65279 0 0 65279 0 0 65279 0 0 65279 0 0 65279 0 0 65279 0 0 65279 0 0 65279 0 0 65279 0 0 65279 0 0 65279 0 0 65279 0 0 65279 0 0 65279 0 0 65279 0 0 65279 0 0 65279 0 0 65279 0 0 65279 0 0 65279 0 0 65279 0 0 65279 0 0 65279 0 0 65279 0 0 65279 0 0 65279 0 0 65279 0 0 65279 0 0 65279 0 0 65279 0 0 65279 0 0 65279 0 0 65279 0 0 65279 0 0 65279 0 0 65279 0 0 65279 0 0 65279 0 0 65279 0 0 65279 0 0 65279 0 0 65279 0 0 65279 0 0 65279 0 0 65279 0 0 65279 0 0 65279 0 0 65279 0 0 65279 0 0 65279 0 0 65279 0 0 65279 0 0 65279 0 0 65279 0 0 65279 0 0 65279 0 0 65279 0 0 65279 0 0 65279 0 0 65279 0 0 65279 0 0 65279 0 0 65279 0 0 65279 0 0 65279 0 0 65279 0 0 65279 0 0 65279 0 0 65279 0 0 65279 0 0 65279 0 0 65279 0 0 65279 0 0 65279 0 0 65279 0 0 65279 0 0 65279 0 0 65279 0 0 65279 0 0 65279 0 0 65279 0 0 65279 0 0 65279 0 0 65279 0 0 65279 0 0 65279 0 0 65279 0 0 65279 0 0 65279 0 0 65279 0 0 65279 0 0 65279 0 0 65279 0 0 65279 0 0 65279 0 0 65279 0 0 65279 0 0 65279 0 0 65279 0 0 65279 0 0 65279 0 0 65279 0 0 65279 0 0 65279 0 0 65279 0 0 65279 0 0 65279 0 0 65279 0 0 65279 0 0 65279 0 0 65279 0 0 65279 0 0 65279 0 0 65279 0 0 65279 0 0 65279 0 0 65279 0 0 65279 0 0 65279 0 0 65279 0 0 65279 0 0 65279 0 0 65279 0 0 65279 0 0 65279 0 0 65279 0 0 65279 0 0 65279 0 0 65279 0 0 65279 0 0 65279 0 0 65279 0 0 65279 0 0 65279 0 0 65279 0 0 65279 0 0 65279 0 0 65279 0 0 65279 0 0 65279 0 0 65279 0 0 65279 0 0 65279 0 0 65279 0 0 65279 0 0 65279 0 0 65279 0 0 65279 0 0 65279 0 0 65279 0 0 65279 0 0 65279 0 0 65279 0 0 65279 0 0 65279 0 0 65279 0 0 65279 0 0 65279 0 0 65279 0 0 65279 0 0 65279 0 0 65279 0 0 65279 0 0 65279 0 0 65279 0 0 65279 0 0 65279 0 0 65279 0 0 65279 0 0 65279 0 0 65279 0 0 65279 0 0 65279 0 0 65279 0 0 65279 0 0 65279 0 0 65279 0 0 65279 0 0 65279 0 0 65279 0 0 65279 0 0 65279 0 0 65279 0 0 65279 0 0 65279 0 0 65279 0 0 65279 0 0 65279 0 0 65279 0 0 65279 0 0 65279 0 0 65279 0 0 65279 0 0 65279 0 0 65279 0 0 65279 0 0 65279 0 0 65279 0 0 65279 0 0 65279 0 0 65279 0 0 65279 0 0 65279 0 0 65279 0 0 65279 0 0 65279 0 0 65279 0 0 65279 0 0 65279 0 0 65279 0 0 65279 0 0 65279 0 0 65279 0 0 65279 0 0 65279 0 0 65279 0 0 65279 0 0 65279 0 0 65279 0 0 65279 0 0 65279 0 0 65279 0 0 65279 0 0 65279 0 0 65279 0 0 65279 0 0 65279 0 0 65279 0 0 65279 0 0 65279 0 0 65279 0 0 65279 0 0 65279 0 0 65279 0 0 65279 0 0 65279 0 0 65279 0 0 65279 0 0 65279 0 0 65279 0 0 65279 0 0 65279 0 0 65279 0 0 65279 0 0 65279 0 0 65279 0 0 65279 0 0 65279 0 0 65279 0 0 65279 0 0 65279 0 0 65279 0 0 65279 0 0 65279 0 0 65279 0 0 65279 0 0 65279 0 0 65279 0 0 65279 0 0 65279 0 0 65279 0 0 65279 0 0 65279 0 0 65279 0 0 65279 0 0 65279 0 0 65279 0 0 65279 0 0 65279 0 0 65279 0 0 65279 0 0 65279 0 0 65279 0 0 65279 0 0 65279 0 0 65279 0 0 65279 0 0 65279 0 0 65279 0 0 65279 0 0 65279 0 0 65279 0 0 65279 0 0 65279 0 0 65279 0 0 65279 0 0 65279 0 0 65279 0 0 65279 0 0 65279 0 0 65279 0 0 65279 0 0 65279 0 0 65279 0 0 65279 0 0 65279 0 0 65279 0 0 65279 0 0 65279 0 0 65279 0 0 65279 0 0 65279 0 0 65279 0 0 65279 0 0 65279 0 0 65279 0 0 65279 0 0 65279 0 0 65279 0 0 65279 0 0 65279 0 0 65279 0 0 65279 0 0 65279 0 0 65279 0 0 65279 0 0 65279 0 0 65279 0 0 65279 0 0 65279 0 0 65279 0 0 65279 0 0 65279 0 0 65279 0 0 65279 0 0 65279 0 0 65279 0 0 65279 0 0 65279 0 0 65279 0 0 65279 0 0 65279 0 0 65279 0 0 65279 0 0 65279 0 0 65279 0 0 65279 0 0 65279 0 0 65279 0 0 65279 0 0 65279 0 0 65279 0 0 65279 0 0 65279 0 0 65279 0 0 65279 0 0 65279 0 0 65279 0 0 65279 0 0 65279 0 0 65279 0 0 65279 0 0 65279 0 0 65279 0 0 65279 0 0 65279 0 0 65279 0 0 65279 0 0 65279 0 0 65279 0 0 65279 0 0 65279 0 0 65279 0 0 65279 0 0 65279 0 0 65279 0 0 65279 0 0 65279 0 0 65279 0 0 65279 0 0 65279 0 0 65279 0 0 65279 0 0 65279 0 0 65279 0 0 65279 0 0 65279 0 0 65279 0 0 65279 0 0 65279 0 0 65279 0 0 65279 0 0 65279 0 0 65279 0 0 65279 0 0 65279 0 0 65279 0 0 65279 0 0 65279 0 0 65279 0 0 65279 0 0 65279 0 0 65279 0 0 65279 0 0 65279 0 0 65279 0 0 65279 0 0 65279 0 0 65279 0 0 65279 0 0 65279 0 0 65279 0 0 65279 0 0 65279 0 0 65279 0 0 65279 0 0 65279 0 0 65279 0 0 65279 0 0 65279 0 0 65279 0 0 65279 0 0 65279 0 0 65279 0 0 65279 0 0 65279 0 0 65279 0 0 65279 0 0 65279 0 0 65279 0 0 65279 0 0 65279 0 0 65279 0 0 65279 0 0 65279 0 0 65279 0 0 65279 0 0 65279 0 0 65279 0 0 65279 0 0 65279 0 0 65279 0 0 65279 0 0 65279 0 0 65279 0 0 65279 0 0 65279 0 0 65279 0 0 65279 0 0 65279 0 0 65279 0 0 65279 0 0 65279 0 0 65279 0 0 65279 0 0 65279 0 0 65279 0 0 65279 0 0 65279 0 0 65279 0 0 65279 0 0 65279 0 0 65279 0 0 65279 0 0 65279 0 0 65279 0 0 65279 0 0 65279 0 0 65279 0 0 65279 0 0 65279 0 0 65279 0 0 65279 0 0 65279 0 0 65279 0 0 65279 0 0 65279 0 0 65279 0 0 65279 0 0 65279 0 0 65279 0 0 65279 0 0 65279 0 0 65279 0 0 65279 0 0 65279 0 0 65279 0 0 65279 0 0 65279 0 0 65279 0 0 65279 0 0 65279 0 0 65279 0 0 65279 0 0 65279 0 0 65279 0 0 65279 0 0 65279 0 0 65279 0 0 65279 0 0 65279 0 0 65279 0 0 65279 0 0 65279 0 0 65279 0 0 65279 0 0 65279 0 0 65279 0 0 65279 0 0 65279 0 0 65279 0 0 65279 0 0 65279 0 0 65279 0 0 65279 0 0 65279 0 0 65279 0 0 65279 0 0 65279 0 0 65279 0 0 65279 0 0 65279 0 0 65279 0 0 65279 0 0 65279 0 0 65279 0 0 65279 0 0 65279 0 0 65279 0 0 65279 0 0 65279 0 0 65279 0 0 65279 0 0 65279 0 0 65279 0 0 65279 0 0 65279 0 0 65279 0 0 65279 0 0 65279 0 0 65279 0 0 65279 0 0 65279 0 0 65279 0 0 65279 0 0 65279 0 0 65279 0 0 65279 0 0 65279 0 0 65279 0 0 65279 0 0 65279 0 0 65279 0 0 65279 0 0 65279 0 0 65279 0 0 65279 0 0 65279 0 0 65279 0 0 65279 0 0 65279 0 0 65279 0 0 65279 0 0 65279 0 0 65279 0 0 65279 0 0 65279 0 0 65279 0 0 65279 0 0 65279 0 0 65279 0 0 65279 0 0 65279 0 0 65279 0 0 65279 0 0 65279 0 0 65279 0 0 65279 0 0 65279 0 0 65279 0 0 65279 0 0 65279 0 0 65279 0 0 65279 0 0 65279 0 0 65279 0 0 65279 0 0 65279 0 0 65279 0 0 65279 0 0 65279 0 0 65279 0 0 65279 0 0 65279 0 0 65279 0 0 65279 0 0 65279 0 0 65279 0 0 65279 0 0 65279 0 0 65279 0 0 65279 0 0 65279 0 0 65279 0 0 65279 0 0 65279 0 0 65279 0 0 65279 0 0 65279 0 0 65279 0 0 65279 0 0 65279 0 0 65279 0 0 65279 0 0 65279 0 0 65279 0 0 65279 0 0 65279 0 0 65279 0 0 65279 0 0 65279 0 0 65279 0 0 65279 0 0 65279 0 0 65279 0 0 65279 0 0 65279 0 0 65279 0 0 65279 0 0 65279 0 0 65279 0 0 65279 0 0 65279 0 0 65279 0 0 65279 0 0 65279 0 0 65279 0 0 65279 0 0 65279 0 0 65279 0 0 65279 0 0 65279 0 0 65279 0 0 65279 0 0 65279 0 0 65279 0 0 65279 0 0 65279 0 0 65279 0 0 65279 0 0 65279 0 0 65279 0 0 65279 0 0 65279 0 0 65279 0 0 65279 0 0 65279 0 0 65279 0 0 65279 0 0 65279 0 0 65279 0 0 65279 0 0 65279 0 0 65279 0 0 65279 0 0 65279 0 0 65279 0 0 65279 0 0 65279 0 0 65279 0 0 65279 0 0 65279 0 0 65279 0 0 65279 0 0 65279 0 0 65279 0 0 65279 0 0 65279 0 0 65279 0 0 65279 0 0 65279 0 0 65279 0 0 65279 0 0 65279 0 0 65279 0 0 65279 0 0 65279 0 0 65279 0 0 65279 0 0 65279 0 0 65279 0 0 65279 0 0 65279 0 0 65279 0 0 65279 0 0 65279 0 0 65279 0 0 65279 0 0 65279 0 0 65279 0 0 65279 0 0 65279 0 0 65279 0 0 65279 0 0 65279 0 0 65279 0 0 65279 0 0 65279 0 0 65279 0 0 65279 0 0 65279 0 0 65279 0 0 65279 0 0 65279 0 0 65279 0 0 65279 0 0 65279 0 0 65279 0 0 65279 0 0 65279 0 0 65279 0 0 65279 0 0 65279 0 0 65279 0 0 65279 0 0 65279 0 0 65279 0 0 65279 0 0 65279 0 0 65279 0 0 65279 0 0 65279 0 0 65279 0 0 65279 0 0 65279 0 0 65279 0 0 65279 0 0 65279 0 0 65279 0 0 65279 0 0 65279 0 0 65279 0 0 65279 0 0 65279 0 0 65279 0 0 65279 0 0 65279 0 0 65279 0 0 65279 0 0 65279 0 0 65279 0 0 65279 0 0 65279 0 0 65279 0 0 65279 0 0 65279 0 0 65279 0 0 65279 0 0 65279 0 0 65279 0 0 65279 0 0 65279 0 0 65279 0 0 65279 0 0 65279 0 0 65279 0 0 65279 0 0 65279 0 0 65279 0 0 65279 0 0 65279 0 0 65279 0 0 65279 0 0 65279 0 0 65279 0 0 65279 0 0 65279 0 0 65279 0 0 65279 0 0 65279 0 0 65279 0 0 65279 0 0 65279 0 0 65279 0 0 65279 0 0 65279 0 0 65279 0 0 65279 0 0 65279 0 0 65279 0 0 65279 0 0 65279 0 0 65279 0 0 65279 0 0 65279 0 0 65279 0 0 65279 0 0 65279 0 0 65279 0 0 65279 0 0 65279 0 0 65279 0 0 65279 0 0 65279 0 0 65279 0 0 65279 0 0 65279 0 0 65279 0 0 65279 0 0 65279 0 0 65279 0 0 65279 0 0 65279 0 0 65279 0 0 65279 0 0 65279 0 0 65279 0 0 65279 0 0 65279 0 0 65279 0 0 65279 0 0 65279 0 0 65279 0 0 65279 0 0 65279 0 0 65279 0 0 65279 0 0 65279 0 0 65279 0 0 65279 0 0 65279 0 0 65279 0 0 65279 0 0 65279 0 0 65279 0 0 65279 0 0 65279 0 0 65279 0 0 65279 0 0 65279 0 0 65279 0 0 65279 0 0 65279 0 0 65279 0 0 65279 0 0 65279 0 0 65279 0 0 65279 0 0 65279 0 0 65279 0 0 65279 0 0 65279 0 0 65279 0 0 65279 0 0 65279 0 0 65279 0 0 65279 0 0 65279 0 0 65279 0 0 65279 0 0 65279 0 0 65279 0 0 65279 0 0 65279 0 0 65279 0 0 65279 0 0 65279 0 0 65279 0 0 65279 0 0 65279 0 0 65279 0 0 65279 0 0 65279 0 0 65279 0 0 65279 0 0 65279 0 0 65279 0 0 65279 0 0 65279 0 0 65279 0 0 65279 0 0 65279 0 0 65279 0 0 65279 0 0 65279 0 0 65279 0 0 65279 0 0 65279 0 0 65279 0 0 65279 0 0 65279 0 0 65279 0 0 65279 0 0 65279 0 0 65279 0 0 65279 0 0 65279 0 0 65279 0 0 65279 0 0 65279 0 0 65279 0 0 65279 0 0 65279 0 0 65279 0 0 65279 0 0 65279 0 0 65279 0 0 65279 0 0 65279 0 0 65279 0 0 65279 0 0 65279 0 0 65279 0 0 65279 0 0 65279 0 0 65279 0 0 65279 0 0 65279 0 0 65279 0 0 65279 0 0 65279 0 0 65279 0 0 65279 0 0 65279 0 0 65279 0 0 65279 0 0 65279 0 0 65279 0 0 65279 0 0 65279 0 0 65279 0 0 65279 0 0 65279 0 0 65279 0 0 65279 0 0 65279 0 0 65279 0 0 65279 0 0 65279 0 0 65279 0 0 65279 0 0 65279 0 0 65279 0 0 65279 0 0 65279 0 0 65279 0 0 65279 0 0 65279 0 0 65279 0 0 65279 0 0 65279 0 0 65279 0 0 65279 0 0 65279 0 0 65279 0 0 65279 0 0 65279 0 0 65279 0 0 65279 0 0 65279 0 0 65279 0 0 65279 0 0 65279 0 0 65279 0 0 65279 0 0 65279 0 0 65279 0 0 65279 0 0 65279 0 0 65279 0 0 65279 0 0 65279 0 0 65279 0 0 65279 0 0 65279 0 0 65279 0 0 65279 0 0 65279 0 0 65279 0 0 65279 0 0 65279 0 0 65279 0 0 65279 0 0 65279 0 0 65279 0 0 65279 0 0 65279 0 0 65279 0 0 65279 0 0 65279 0 0 65279 0 0 65279 0 0 65279 0 0 65279 0 0 65279 0 0 65279 0 0 65279 0 0 65279 0 0 65279 0 0 65279 0 0 65279 0 0 65279 0 0 65279 0 0 65279 0 0 65279 0 0 65279 0 0 65279 0 0 65279 0 0 65279 0 0 65279 0 0 65279 0 0 65279 0 0 65279 0 0 65279 0 0 65279 0 0 65279 0 0 65279 0 0 65279 0 0 65279 0 0 65279 0 0 65279 0 0 65279 0 0 65279 0 0 65279 0 0 65279 0 0 65279 0 0 65279 0 0 65279 0 0 65279 0 0 65279 0 0 65279 0 0 65279 0 0 65279 0 0 65279 0 0 65279 0 0 65279 0 0 65279 0 0 65279 0 0 65279 0 0 65279 0 0 65279 0 0 65279 0 0 65279 0 0 65279 0 0 65279 0 0 65279 0 0 65279 0 0 65279 0 0 65279 0 0 65279 0 0 65279 0 0 65279 0 0 65279 0 0 65279 0 0 65279 0 0 65279 0 0 65279 0 0 65279 0 0 65279 0 0 65279 0 0 65279 0 0 65279 0 0 65279 0 0 65279 0 0 65279 0 0 65279 0 0 65279 0 0 65279 0 0 65279 0 0 65279 0 0 65279 0 0 65279 0 0 65279 0 0 65279 0 0 65279 0 0 65279 0 0 65279 0 0 65279 0 0 65279 0 0 65279 0 0 65279 0 0 65279 0 0 65279 0 0 65279 0 0 65279 0 0 65279 0 0 65279 0 0 65279 0 0 65279 0 0 65279 0 0 65279 0 0 65279 0 0 65279 0 0 65279 0 0 65279 0 0 65279 0 0 65279 0 0 65279 0 0 65279 0 0 65279 0 0 65279 0 0 65279 0 0 65279 0 0 65279 0 0 65279 0 0 65279 0 0 65279 0 0 65279 0 0 65279 0 0 65279 0 0 65279 0 0 65279 0 0 65279 0 0 65279 0 0 65279 0 0 65279 0 0 65279 0 0 65279 0 0 65279 0 0 65279 0 0 65279 0 0 65279 0 0 65279 0 0 65279 0 0 65279 0 0 65279 0 0 65279 0 0 65279 0 0 65279 0 0 65279 0 0 65279 0 0 65279 0 0 65279 0 0 65279 0 0 65279 0 0 65279 0 0 65279 0 0 65279 0 0 65279 0 0 65279 0 0 65279 0 0 65279 0 0 65279 0 0 65279 0 0 65279 0 0 65279 0 0 65279 0 0 65279 0 0 65279 0 0 65279 0 0 65279 0 0 65279 0 0 65279 0 0 65279 0 0 65279 0 0 65279 0 0 65279 0 0 65279 0 0 65279 0 0 65279 0 0 65279 0 0 65279 0 0 65279 0 0 65279 0 0 65279 0 0 65279 0 0 65279 0 0 65279 0 0 65279 0 0 65279 0 0 65279 0 0 65279 0 0 65279 0 0 65279 0 0 65279 0 0 65279 0 0 65279 0 0 65279 0 0 65279 0 0 65279 0 0 65279 0 0 65279 0 0 65279 0 0 65279 0 0 65279 0 0 65279 0 0 65279 0 0 65279 0 0 65279 0 0 65279 0 0 65279 0 0 65279 0 0 65279 0 0 65279 0 0 65279 0 0 65279 0 0 65279 0 0 65279 0 0 65279 0 0 65279 0 0 65279 0 0 65279 0 0 65279 0 0 65279 0 0 65279 0 0 65279 0 0 65279 0 0 65279 0 0 65279 0 0 65279 0 0 65279 0 0 65279 0 0 65279 0 0 65279 0 0 65279 0 0 65279 0 0 65279 0 0 65279 0 0 65279 0 0 65279 0 0 65279 0 0 65279 0 0 65279 0 0 65279 0 0 65279 0 0 65279 0 0 65279 0 0 65279 0 0 65279 0 0 65279 0 0 65279 0 0 65279 0 0 65279 0 0 65279 0 0 65279 0 0 65279 0 0 65279 0 0 65279 0 0 65279 0 0 65279 0 0 65279 0 0 65279 0 0 65279 0 0 65279 0 0 65279 0 0 65279 0 0 65279 0 0 65279 0 0 65279 0 0 65279 0 0 65279 0 0 65279 0 0 65279 0 0 65279 0 0 65279 0 0 65279 0 0 65279 0 0 65279 0 0 65279 0 0 65279 0 0 65279 0 0 65279 0 0 65279 0 0 65279 0 0 65279 0 0 65279 0 0 65279 0 0 65279 0 0 65279 0 0 65279 0 0 65279 0 0 65279 0 0 65279 0 0 65279 0 0 65279 0 0 65279 0 0 65279 0 0 65279 0 0 65279 0 0 65279 0 0 65279 0 0 65279 0 0 65279 0 0 65279 0 0 65279 0 0 65279 0 0 65279 0 0 65279 0 0 65279 0 0 65279 0 0 65279 0 0 65279 0 0 65279 0 0 65279 0 0 65279 0 0 65279 0 0 65279 0 0 65279 0 0 65279 0 0 65279 0 0 65279 0 0 65279 0 0 65279 0 0 65279 0 0 65279 0 0 65279 0 0 65279 0 0 65279 0 0 65279 0 0 65279 0 0 65279 0 0 65279 0 0 65279 0 0 65279 0 0 65279 0 0 65279 0 0 65279 0 0 65279 0 0 65279 0 0 65279 0 0 65279 0 0 65279 0 0 65279 0 0 65279 0 0 65279 0 0 65279 0 0 65279 0 0 65279 0 0 65279 0 0 65279 0 0 65279 0 0 65279 0 0 65279 0 0 65279 0 0 65279 0 0 65279 0 0 65279 0 0 65279 0 0 65279 0 0 65279 0 0 65279 0 0 65279 0 0 65279 0 0 65279 0 0 65279 0 0 65279 0 0 65279 0 0 65279 0 0 65279 0 0 65279 0 0 65279 0 0 65279 0 0 65279 0 0 65279 0 0 65279 0 0 65279 0 0 65279 0 0 65279 0 0 65279 0 0 65279 0 0 65279 0 0 65279 0 0 65279 0 0 65279 0 0 65279 0 0 65279 0 0 65279 0 0 65279 0 0 65279 0 0 65279 0 0 65279 0 0 65279 0 0 65279 0 0 65279 0 0 65279 0 0 65279 0 0 65279 0 0 65279 0 0 65279 0 0 65279 0 0 65279 0 0 65279 0 0 65279 0 0 65279 0 0 65279 0 0 65279 0 0 65279 0 0 65279 0 0 65279 0 0 65279 0 0 65279 0 0 65279 0 0 65279 0 0 65279 0 0 65279 0 0 65279 0 0 65279 0 0 65279 0 0 65279 0 0 65279 0 0 65279 0 0 65279 0 0 65279 0 0 65279 0 0 65279 0 0 65279 0 0 65279 0 0 65279 0 0 65279 0 0 65279 0 0 65279 0 0 65279 0 0 65279 0 0 65279 0 0 65279 0 0 65279 0 0 65279 0 0 65279 0 0 65279 0 0 65279 0 0 65279 0 0 65279 0 0 65279 0 0 65279 0 0 65279 0 0 65279 0 0 65279 0 0 65279 0 0 65279 0 0 65279 0 0 65279 0 0 65279 0 0 65279 0 0 65279 0 0 65279 0 0 65279 0 0 65279 0 0 65279 0 0 65279 0 0 65279 0 0 65279 0 0 65279 0 0 65279 0 0 65279 0 0 65279 0 0 65279 0 0 65279 0 0 65279 0 0 65279 0 0 65279 0 0 65279 0 0 65279 0 0 65279 0 0 65279 0 0 65279 0 0 65279 0 0 65279 0 0 65279 0 0 65279 0 0 65279 0 0 65279 0 0 65279 0 0 65279 0 0 65279 0 0 65279 0 0 65279 0 0 65279 0 0 65279 0 0 65279 0 0 65279 0 0 65279 0 0 65279 0 0 65279 0 0 65279 0 0 65279 0 0 65279 0 0 65279 0 0 65279 0 0 65279 0 0 65279 0 0 65279 0 0 65279 0 0 65279 0 0 65279 0 0 65279 0 0 65279 0 0 65279 0 0 65279 0 0 65279 0 0 65279 0 0 65279 0 0 65279 0 0 65279 0 0 65279 0 0 65279 0 0 65279 0 0 65279 0 0 65279 0 0 65279 0 0 65279 0 0 65279 0 0 65279 0 0 65279 0 0 65279 0 0 65279 0 0 65279 0 0 65279 0 0 65279 0 0 65279 0 0 65279 0 0 65279 0 0 65279 0 0 65279 0 0 65279 0 0 65279 0 0 65279 0 0 65279 0 0 65279 0 0 65279 0 0 65279 0 0 65279 0 0 65279 0 0 65279 0 0 65279 0 0 65279 0 0 65279 0 0 65279 0 0 65279 0 0 65279 0 0 65279 0 0 65279 0 0 65279 0 0 65279 0 0 65279 0 0 65279 0 0 65279 0 0 65279 0 0 65279 0 0 65279 0 0 65279 0 0 65279 0 0 65279 0 0 65279 0 0 65279 0 0 65279 0 0 65279 0 0 65279 0 0 65279 0 0 65279 0 0 65279 0 0 65279 0 0 65279 0 0 65279 0 0 65279 0 0 65279 0 0 65279 0 0 65279 0 0 65279 0 0 65279 0 0 65279 0 0 65279 0 0 65279 0 0 65279 0 0 65279 0 0 65279 0 0 65279 0 0 65279 0 0 65279 0 0 65279 0 0 65279 0 0 65279 0 0 65279 0 0 65279 0 0 65279 0 0 65279 0 0 65279 0 0 65279 0 0 65279 0 0 65279 0 0 65279 0 0 65279 0 0 65279 0 0 65279 0 0 65279 0 0 65279 0 0 65279 0 0 65279 0 0 65279 0 0 65279 0 0 65279 0 0 65279 0 0 65279 0 0 65279 0 0 65279 0 0 65279 0 0 65279 0 0 65279 0 0 65279 0 0 65279 0 0 65279 0 0 65279 0 0 65279 0 0 65279 0 0 65279 0 0 65279 0 0 65279 0 0 65279 0 0 65279 0 0 65279 0 0 65279 0 0 65279 0 0 65279 0 0 65279 0 0 65279 0 0 65279 0 0 65279 0 0 65279 0 0 65279 0 0 65279 0 0 65279 0 0 65279 0 0 65279 0 0 65279 0 0 65279 0 0 65279 0 0 65279 0 0 65279 0 0 65279 0 0 65279 0 0 65279 0 0 65279 0 0 65279 0 0 65279 0 0 65279 0 0 65279 0 0 65279 0 0 65279 0 0 65279 0 0 65279 0 0 65279 0 0 65279 0 0 65279 0 0 65279 0 0 65279 0 0 65279 0 0 65279 0 0 65279 0 0 65279 0 0 65279 0 0 65279 0 0 65279 0 0 65279 0 0 65279 0 0 65279 0 0 65279 0 0 65279 0 0 65279 0 0 65279 0 0 65279 0 0 65279 0 0 65279 0 0 65279 0 0 65279 0 0 65279 0 0 65279 0 0 65279 0 0 65279 0 0 65279 0 0 65279 0 0 65279 0 0 65279 0 0 65279 0 0 65279 0 0 65279 0 0 65279 0 0 65279 0 0 65279 0 0 65279 0 0 65279 0 0 65279 0 0 65279 0 0 65279 0 0 65279 0 0 65279 0 0 65279 0 0 65279 0 0 65279 0 0 65279 0 0 65279 0 0 65279 0 0 65279 0 0 65279 0 0 65279 0 0 65279 0 0 65279 0 0 65279 0 0 65279 0 0 65279 0 0 65279 0 0 65279 0 0 65279 0 0 65279 0 0 65279 0 0 65279 0 0 65279 0 0 65279 0 0 65279 0 0 65279 0 0 65279 0 0 65279 0 0 65279 0 0 65279 0 0 65279 0 0 65279 0 0 65279 0 0 65279 0 0 65279 0 0 65279 0 0 65279 0 0 65279 0 0 65279 0 0 65279 0 0 65279 0 0 65279 0 0 65279 0 0 65279 0 0 65279 0 0 65279 0 0 65279 0 0 65279 0 0 65279 0 0 65279 0 0 65279 0 0 65279 0 0 65279 0 0 65279 0 0 65279 0 0 65279 0 0 65279 0 0 65279 0 0 65279 0 0 65279 0 0 65279 0 0 65279 0 0 65279 0 0 65279 0 0 65279 0 0 65279 0 0 65279 0 0 65279 0 0 65279 0 0 65279 0 0 65279 0 0 65279 0 0 65279 0 0 65279 0 0 65279 0 0 65279 0 0 65279 0 0 65279 0 0 65279 0 0 65279 0 0 65279 0 0 65279 0 0 65279 0 0 65279 0 0 65279 0 0 65279 0 0 65279 0 0 65279 0 0 65279 0 0 65279 0 0 65279 0 0 65279 0 0 65279 0 0 65279 0 0 65279 0 0 65279 0 0 65279 0 0 65279 0 0 65279 0 0 65279 0 0 65279 0 0 65279 0 0 65279 0 0 65279 0 0 65279 0 0 65279 0 0 65279 0 0 65279 0 0 65279 0 0 65279 0 0 65279 0 0 65279 0 0 65279 0 0 65279 0 0 65279 0 0 65279 0 0 65279 0 0 65279 0 0 65279 0 0 65279 0 0 65279 0 0 65279 0 0 65279 0 0 65279 0 0 65279 0 0 65279 0 0 65279 0 0 65279 0 0 65279 0 0 65279 0 0 65279 0 0 65279 0 0 65279 0 0 65279 0 0 65279 0 0 65279 0 0 65279 0 0 65279 0 0 65279 0 0 65279 0 0 65279 0 0 65279 0 0 65279 0 0 65279 0 0 65279 0 0 65279 0 0 65279 0 0 65279 0 0 65279 0 0 65279 0 0 65279 0 0 65279 0 0 65279 0 0 65279 0 0 65279 0 0 65279 0 0 65279 0 0 65279 0 0 65279 0 0 65279 0 0 65279 0 0 65279 0 0 65279 0 0 65279 0 0 65279 0 0 65279 0 0 65279 0 0 65279 0 0 65279 0 0 65279 0 0 65279 0 0 65279 0 0 65279 0 0 65279 0 0 65279 0 0 65279 0 0 65279 0 0 65279 0 0 65279 0 0 65279 0 0 65279 0 0 65279 0 0 65279 0 0 65279 0 0 65279 0 0 65279 0 0 65279 0 0 65279 0 0 65279 0 0 65279 0 0 65279 0 0 65279 0 0 65279 0 0 65279 0 0 65279 0 0 65279 0 0 65279 0 0 65279 0 0 65279 0 0 65279 0 0 65279 0 0 65279 0 0 65279 0 0 65279 0 0 65279 0 0 65279 0 0 65279 0 0 65279 0 0 65279 0 0 65279 0 0 65279 0 0 65279 0 0 65279 0 0 65279 0 0 65279 0 0 65279 0 0 65279 0 0 65279 0 0 65279 0 0 65279 0 0 65279 0 0 65279 0 0 65279 0 0 65279 0 0 65279 0 0 65279 0 0 65279 0 0 65279 0 0 65279 0 0 65279 0 0 65279 0 0 65279 0 0 65279 0 0 65279 0 0 65279 0 0 65279 0 0 65279 0 0 65279 0 0 65279 0 0 65279 0 0 65279 0 0 65279 0 0 65279 0 0 65279 0 0 65279 0 0 65279 0 0 65279 0 0 65279 0 0 65279 0 0 65279 0 0 65279 0 0 65279 0 0 65279 0 0 65279 0 0 65279 0 0 65279 0 0 65279 0 0 65279 0 0 65279 0 0 65279 0 0 65279 0 0 65279 0 0 65279 0 0 65279 0 0 65279 0 0 65279 0 0 65279 0 0 65279 0 0 65279 0 0 65279 0 0 65279 0 0 65279 0 0 65279 0 0 65279 0 0 65279 0 0 65279 0 0 65279 0 0 65279 0 0 65279 0 0 65279 0 0 65279 0 0 65279 0 0 65279 0 0 65279 0 0 65279 0 0 65279 0 0 65279 0 0 65279 0 0 65279 0 0 65279 0 0 65279 0 0 65279 0 0 65279 0 0 65279 0 0 65279 0 0 65279 0 0 65279 0 0 65279 0 0 65279 0 0 65279 0 0 65279 0 0 65279 0 0 65279 0 0 65279 0 0 65279 0 0 65279 0 0 65279 0 0 65279 0 0 65279 0 0 65279 0 0 65279 0 0 65279 0 0 65279 0 0 65279 0 0 65279 0 0 65279 0 0 65279 0 0 65279 0 0 65279 0 0 65279 0 0 65279 0 0 65279 0 0 65279 0 0 65279 0 0 65279 0 0 65279 0 0 65279 0 0 65279 0 0 65279 0 0 65279 0 0 65279 0 0 65279 0 0 65279 0 0 65279 0 0 65279 0 0 65279 0 0 65279 0 0 65279 0 0 65279 0 0 65279 0 0 65279 0 0 65279 0 0 65279 0 0 65279 0 0 65279 0 0 65279 0 0 65279 0 0 65279 0 0 65279 0 0 65279 0 0 65279 0 0 65279 0 0 65279 0 0 65279 0 0 65279 0 0 65279 0 0 65279 0 0 65279 0 0 65279 0 0 65279 0 0 65279 0 0 65279 0 0 65279 0 0 65279 0 0 65279 0 0 65279 0 0 65279 0 0 65279 0 0 65279 0 0 65279 0 0 65279 0 0 65279 0 0 65279 0 0 65279 0 0 65279 0 0 65279 0 0 65279 0 0 65279 0 0 65279 0 0 65279 0 0 65279 0 0 65279 0 0 65279 0 0 65279 0 0 65279 0 0 65279 0 0 65279 0 0 65279 0 0 65279 0 0 65279 0 0 65279 0 0 65279 0 0 65279 0 0 65279 0 0 65279 0 0 65279 0 0 65279 0 0 65279 0 0 65279 0 0 65279 0 0 65279 0 0 65279 0 0 65279 0 0 65279 0 0 65279 0 0 65279 0 0 65279 0 0 65279 0 0 65279 0 0 65279 0 0 65279 0 0 65279 0 0 65279 0 0 65279 0 0 65279 0 0 65279 0 0 65279 0 0 65279 0 0 65279 0 0 65279 0 0 65279 0 0 65279 0 0 65279 0 0 65279 0 0 65279 0 0 65279 0 0 65279 0 0 65279 0 0 65279 0 0 65279 0 0 65279 0 0 65279 0 0 65279 0 0 65279 0 0 65279 0 0 65279 0 0 65279 0 0 65279 0 0 65279 0 0 65279 0 0 65279 0 0 65279 0 0 65279 0 0 65279 0 0 65279 0 0 65279 0 0 65279 0 0 65279 0 0 65279 0 0 65279 0 0 65279 0 0 65279 0 0 65279 0 0 65279 0 0 65279 0 0 65279 0 0 65279 0 0 65279 0 0 65279 0 0 65279 0 0 65279 0 0 65279 0 0 65279 0 0 65279 0 0 65279 0 0 65279 0 0 65279 0 0 65279 0 0 65279 0 0 65279 0 0 65279 0 0 65279 0 0 65279 0 0 65279 0 0 65279 0 0 65279 0 0 65279 0 0 65279 0 0 65279 0 0 65279 0 0 65279 0 0 65279 0 0 65279 0 0 65279 0 0 65279 0 0 65279 0 0 65279 0 0 65279 0 0 65279 0 0 65279 0 0 65279 0 0 65279 0 0 65279 0 0 65279 0 0 65279 0 0 65279 0 0 65279 0 0 65279 0 0 65279 0 0 65279 0 0 65279 0 0 65279 0 0 65279 0 0 65279 0 0 65279 0 0 65279 0 0 65279 0 0 65279 0 0 65279 0 0 65279 0 0 65279 0 0 65279 0 0 65279 0 0 65279 0 0 65279 0 0 65279 0 0 65279 0 0 65279 0 0 65279 0 0 65279 0 0 65279 0 0 65279 0 0 65279 0 0 65279 0 0 65279 0 0 65279 0 0 65279 0 0 65279 0 0 65279 0 0 65279 0 0 65279 0 0 65279 0 0 65279 0 0 65279 0 0 65279 0 0 65279 0 0 65279 0 0 65279 0 0 65279 0 0 65279 0 0 65279 0 0 65279 0 0 65279 0 0 65279 0 0 65279 0 0 65279 0 0 65279 0 0 65279 0 0 65279 0 0 65279 0 0 65279 0 0 65279 0 0 65279 0 0 65279 0 0 65279 0 0 65279 0 0 65279 0 0 65279 0 0 65279 0 0 65279 0 0 65279 0 0 65279 0 0 65279 0 0 65279 0 0 65279 0 0 65279 0 0 65279 0 0 65279 0 0 65279 0 0 65279 0 0 65279 0 0 65279 0 0 65279 0 0 65279 0 0 65279 0 0 65279 0 0 65279 0 0 65279 0 0 65279 0 0 65279 0 0 65279 0 0 65279 0 0 65279 0 0 65279 0 0 65279 0 0 65279 0 0 65279 0 0 65279 0 0 65279 0 0 65279 0 0 65279 0 0 65279 0 0 65279 0 0 65279 0 0 65279 0 0 65279 0 0 65279 0 0 65279 0 0 65279 0 0 65279 0 0 65279 0 0 65279 0 0 65279 0 0 65279 0 0 65279 0 0 65279 0 0 65279 0 0 65279 0 0 65279 0 0 65279 0 0 65279 0 0 65279 0 0 65279 0 0 65279 0 0 65279 0 0 65279 0 0 65279 0 0 65279 0 0 65279 0 0 65279 0 0 65279 0 0 65279 0 0 65279 0 0 65279 0 0 65279 0 0 65279 0 0 65279 0 0 65279 0 0 65279 0 0 65279 0 0 65279 0 0 65279 0 0 65279 0 0 65279 0 0 65279 0 0 65279 0 0 65279 0 0 65279 0 0 65279 0 0 65279 0 0 65279 0 0 65279 0 0 65279 0 0 65279 0 0 65279 0 0 65279 0 0 65279 0 0 65279 0 0 65279 0 0 65279 0 0 65279 0 0 65279 0 0 65279 0 0 65279 0 0 65279 0 0 65279 0 0 65279 0 0 65279 0 0 65279 0 0 65279 0 0 65279 0 0 65279 0 0 65279 0 0 65279 0 0 65279 0 0 65279 0 0 65279 0 0 65279 0 0 65279 0 0 65279 0 0 65279 0 0 65279 0 0 65279 0 0 65279 0 0 65279 0 0 65279 0 0 65279 0 0 65279 0 0 65279 0 0 65279 0 0 65279 0 0 65279 0 0 65279 0 0 65279 0 0 65279 0 0 65279 0 0 65279 0 0 65279 0 0 65279 0 0 65279 0 0 65279 0 0 65279 0 0 65279 0 0 65279 0 0 65279 0 0 65279 0 0 65279 0 0 65279 0 0 65279 0 0 65279 0 0 65279 0 0 65279 0 0 65279 0 0 65279 0 0 65279 0 0 65279 0 0 65279 0 0 65279 0 0 65279 0 0 65279 0 0 65279 0 0 65279 0 0 65279 0 0 65279 0 0 65279 0 0 65279 0 0 65279 0 0 65279 0 0 65279 0 0 65279 0 0 65279 0 0 65279 0 0 65279 0 0 65279 0 0 65279 0 0 65279 0 0 65279 0 0 65279 0 0 65279 0 0 65279 0 0 65279 0 0 65279 0 0 65279 0 0 65279 0 0 65279 0 0 65279 0 0 65279 0 0 65279 0 0 65279 0 0 65279 0 0 65279 0 0 65279 0 0 65279 0 0 65279 0 0 65279 0 0 65279 0 0 65279 0 0 65279 0 0 65279 0 0 65279 0 0 65279 0 0 65279 0 0 65279 0 0 65279 0 0 65279 0 0 65279 0 0 65279 0 0 65279 0 0 65279 0 0 65279 0 0 65279 0 0 65279 0 0 65279 0 0 65279 0 0 65279 0 0 65279 0 0 65279 0 0 65279 0 0 65279 0 0 65279 0 0 65279 0 0 65279 0 0 65279 0 0 65279 0 0 65279 0 0 65279 0 0 65279 0 0 65279 0 0 65279 0 0 65279 0 0 65279 0 0 65279 0 0 65279 0 0 65279 0 0 65279 0 0 65279 0 0 65279 0 0 65279 0 0 65279 0 0 65279 0 0 65279 0 0 65279 0 0 65279 0 0 65279 0 0 65279 0 0 65279 0 0 65279 0 0 65279 0 0 65279 0 0 65279 0 0 65279 0 0 65279 0 0 65279 0 0 65279 0 0 65279 0 0 65279 0 0 65279 0 0 65279 0 0 65279 0 0 65279 0 0 65279 0 0 65279 0 0 65279 0 0 65279 0 0 65279 0 0 65279 0 0 65279 0 0 65279 0 0 65279 0 0 65279 0 0 65279 0 0 65279 0 0 65279 0 0 65279 0 0 65279 0 0 65279 0 0 65279 0 0 65279 0 0 65279 0 0 65279 0 0 65279 0 0 65279 0 0 65279 0 0 65279 0 0 65279 0 0 65279 0 0 65279 0 0 65279 0 0 65279 0 0 65279 0 0 65279 0 0 65279 0 0 65279 0 0 65279 0 0 65279 0 0 65279 0 0 65279 0 0 65279 0 0 65279 0 0 65279 0 0 65279 0 0 65279 0 0 65279 0 0 65279 0 0 65279 0 0 65279 0 0 65279 0 0 65279 0 0 65279 0 0 65279 0 0 65279 0 0 65279 0 0 65279 0 0 65279 0 0 65279 0 0 65279 0 0 65279 0 0 65279 0 0 65279 0 0 65279 0 0 65279 0 0 65279 0 0 65279 0 0 65279 0 0 65279 0 0 65279 0 0 65279 0 0 65279 0 0 65279 0 0 65279 0 0 65279 0 0 65279 0 0 65279 0 0 65279 0 0 65279 0 0 65279 0 0 65279 0 0 65279 0 0 65279 0 0 65279 0 0 65279 0 0 65279 0 0 65279 0 0 65279 0 0 65279 0 0 65279 0 0 65279 0 0 65279 0 0 65279 0 0 65279 0 0 65279 0 0 65279 0 0 65279 0 0 65279 0 0 65279 0 0 65279 0 0 65279 0 0 65279 0 0 65279 0 0 65279 0 0 65279 0 0 65279 0 0 65279 0 0 65279 0 0 65279 0 0 65279 0 0 65279 0 0 65279 0 0 65279 0 0 65279 0 0 65279 0 0 65279 0 0 65279 0 0 65279 0 0 65279 0 0 65279 0 0 65279 0 0 65279 0 0 65279 0 0 65279 0 0 65279 0 0 65279 0 0 65279 0 0 65279 0 0 65279 0 0 65279 0 0 65279 0 0 65279 0 0 65279 0 0 65279 0 0 65279 0 0 65279 0 0 65279 0 0 65279 0 0 65279 0 0 65279 0 0 65279 0 0 65279 0 0 65279 0 0 65279 0 0 65279 0 0 65279 0 0 65279 0 0 65279 0 0 65279 0 0 65279 0 0 65279 0 0 65279 0 0 65279 0 0 65279 0 0 65279 0 0 65279 0 0 65279 0 0 65279 0 0 65279 0 0 65279 0 0 65279 0 0 65279 0 0 65279 0 0 65279 0 0 65279 0 0 65279 0 0 65279 0 0 65279 0 0 65279 0 0 65279 0 0 65279 0 0 65279 0 0 65279 0 0 65279 0 0 65279 0 0 65279 0 0 65279 0 0 65279 0 0 65279 0 0 65279 0 0 65279 0 0 65279 0 0 65279 0 0 65279 0 0 65279 0 0 65279 0 0 65279 0 0 65279 0 0 65279 0 0 65279 0 0 65279 0 0 65279 0 0 65279 0 0 65279 0 0 65279 0 0 65279 0 0 65279 0 0 65279 0 0 65279 0 0 65279 0 0 65279 0 0 65279 0 0 65279 0 0 65279 0 0 65279 0 0 65279 0 0 65279 0 0 65279 0 0 65279 0 0 65279 0 0 65279 0 0 65279 0 0 65279 0 0 65279 0 0 65279 0 0 65279 0 0 65279 0 0 65279 0 0 65279 0 0 65279 0 0 65279 0 0 65279 0 0 65279 0 0 65279 0 0 65279 0 0 65279 0 0 65279 0 0 65279 0 0 65279 0 0 65279 0 0 65279 0 0 65279 0 0 65279 0 0 65279 0 0 65279 0 0 65279 0 0 65279 0 0 65279 0 0 65279 0 0 65279 0 0 65279 0 0 65279 0 0 65279 0 0 65279 0 0 65279 0 0 65279 0 0 65279 0 0 65279 0 0 65279 0 0 65279 0 0 65279 0 0 65279 0 0 65279 0 0 65279 0 0 65279 0 0 65279 0 0 65279 0 0 65279 0 0 65279 0 0 65279 0 0 65279 0 0 65279 0 0 65279 0 0 65279 0 0 65279 0 0 65279 0 0 65279 0 0 65279 0 0 65279 0 0 65279 0 0 65279 0 0 65279 0 0 65279 0 0 65279 0 0 65279 0 0 65279 0 0 65279 0 0 65279 0 0 65279 0 0 65279 0 0 65279 0 0 65279 0 0 65279 0 0 65279 0 0 65279 0 0 65279 0 0 65279 0 0 65279 0 0 65279 0 0 65279 0 0 65279 0 0 65279 0 0 65279 0 0 65279 0 0 65279 0 0 65279 0 0 65279 0 0 65279 0 0 65279 0 0 65279 0 0 65279 0 0 65279 0 0 65279 0 0 65279 0 0 65279 0 0 65279 0 0 65279 0 0 65279 0 0 65279 0 0 65279 0 0 65279 0 0 65279 0 0 65279 0 0 65279 0 0 65279 0 0 65279 0 0 65279 0 0 65279 0 0 65279 0 0 65279 0 0 65279 0 0 65279 0 0 65279 0 0 65279 0 0 65279 0 0 65279 0 0 65279 0 0 65279 0 0 65279 0 0 65279 0 0 65279 0 0 65279 0 0 65279 0 0 65279 0 0 65279 0 0 65279 0 0 65279 0 0 65279 0 0 65279 0 0 65279 0 0 65279 0 0 65279 0 0 65279 0 0 65279 0 0 65279 0 0 65279 0 0 65279 0 0 65279 0 0 65279 0 0 65279 0 0 65279 0 0 65279 0 0 65279 0 0 65279 0 0 65279 0 0 65279 0 0 65279 0 0 65279 0 0 65279 0 0 65279 0 0 65279 0 0 65279 0 0 65279 0 0 65279 0 0 65279 0 0 65279 0 0 65279 0 0 65279 0 0 65279 0 0 65279 0 0 65279 0 0 65279 0 0 65279 0 0 65279 0 0 65279 0 0 65279 0 0 65279 0 0 65279 0 0 65279 0 0 65279 0 0 65279 0 0 65279 0 0 65279 0 0 65279 0 0 65279 0 0 65279 0 0 65279 0 0 65279 0 0 65279 0 0 65279 0 0 65279 0 0 65279 0 0 65279 0 0 65279 0 0 65279 0 0 65279 0 0 65279 0 0 65279 0 0 65279 0 0 65279 0 0 65279 0 0 65279 0 0 65279 0 0 65279 0 0 65279 0 0 65279 0 0 65279 0 0 65279 0 0 65279 0 0 65279 0 0 65279 0 0 65279 0 0 65279 0 0 65279 0 0 65279 0 0 65279 0 0 65279 0 0 65279 0 0 65279 0 0 65279 0 0 65279 0 0 65279 0 0 65279 0 0 65279 0 0 65279 0 0 65279 0 0 65279 0 0 65279 0 0 65279 0 0 65279 0 0 65279 0 0 65279 0 0 65279 0 0 65279 0 0 65279 0 0 65279 0 0 65279 0 0 65279 0 0 65279 0 0 65279 0 0 65279 0 0 65279 0 0 65279 0 0 65279 0 0 65279 0 0 65279 0 0 65279 0 0 65279 0 0 65279 0 0 65279 0 0 65279 0 0 65279 0 0 65279 0 0 65279 0 0 65279 0 0 65279 0 0 65279 0 0 65279 0 0 65279 0 0 65279 0 0 65279 0 0 65279 0 0 65279 0 0 65279 0 0 65279 0 0 65279 0 0 65279 0 0 65279 0 0 65279 0 0 65279 0 0 65279 0 0 65279 0 0 65279 0 0 65279 0 0 65279 0 0 65279 0 0 65279 0 0 65279 0 0 65279 0 0 65279 0 0 65279 0 0 65279 0 0 65279 0 0 65279 0 0 65279 0 0 65279 0 0 65279 0 0 65279 0 0 65279 0 0 65279 0 0 65279 0 0 65279 0 0 65279 0 0 65279 0 0 65279 0 0 65279 0 0 65279 0 0 65279 0 0 65279 0 0 65279 0 0 65279 0 0 65279 0 0 65279 0 0 65279 0 0 65279 0 0 65279 0 0 65279 0 0 65279 0 0 65279 0 0 65279 0 0 65279 0 0 65279 0 0 65279 0 0 65279 0 0 65279 0 0 65279 0 0 65279 0 0 65279 0 0 65279 0 0 65279 0 0 65279 0 0 65279 0 0 65279 0 0 65279 0 0 65279 0 0 65279 0 0 65279 0 0 65279 0 0 65279 0 0 65279 0 0 65279 0 0 65279 0 0 65279 0 0 65279 0 0 65279 0 0 65279 0 0 65279 0 0 65279 0 0 65279 0 0 65279 0 0 65279 0 0 65279 0 0 65279 0 0 65279 0 0 65279 0 0 65279 0 0 65279 0 0 65279 0 0 65279 0 0 65279 0 0 65279 0 0 65279 0 0 65279 0 0 65279 0 0 65279 0 0 65279 0 0 65279 0 0 65279 0 0 65279 0 0 65279 0 0 65279 0 0 65279 0 0 65279 0 0 65279 0 0 65279 0 0 65279 0 0 65279 0 0 65279 0 0 65279 0 0 65279 0 0 65279 0 0 65279 0 0 65279 0 0 65279 0 0 65279 0 0 65279 0 0 65279 0 0 65279 0 0 65279 0 0 65279 0 0 65279 0 0 65279 0 0 65279 0 0 65279 0 0 65279 0 0 65279 0 0 65279 0 0 65279 0 0 65279 0 0 65279 0 0 65279 0 0 65279 0 0 65279 0 0 65279 0 0 65279 0 0 65279 0 0 65279 0 0 65279 0 0 65279 0 0 65279 0 0 65279 0 0 65279 0 0 65279 0 0 65279 0 0 65279 0 0 65279 0 0 65279 0 0 65279 0 0 65279 0 0 65279 0 0 65279 0 0 65279 0 0 65279 0 0 65279 0 0 65279 0 0 65279 0 0 65279 0 0 65279 0 0 65279 0 0 65279 0 0 65279 0 0 65279 0 0 65279 0 0 65279 0 0 65279 0 0 65279 0 0 65279 0 0 65279 0 0 65279 0 0 65279 0 0 65279 0 0 65279 0 0 65279 0 0 65279 0 0 65279 0 0 65279 0 0 65279 0 0 65279 0 0 65279 0 0 65279 0 0 65279 0 0 65279 0 0 65279 0 0 65279 0 0 65279 0 0 65279 0 0 65279 0 0 65279 0 0 65279 0 0 65279 0 0 65279 0 0 65279 0 0 65279 0 0 65279 0 0 65279 0 0 65279 0 0 65279 0 0 65279 0 0 65279 0 0 65279 0 0 65279 0 0 65279 0 0 65279 0 0 65279 0 0 65279 0 0 65279 0 0 65279 0 0 65279 0 0 65279 0 0 65279 0 0 65279 0 0 65279 0 0 65279 0 0 65279 0 0 65279 0 0 65279 0 0 65279 0 0 65279 0 0 65279 0 0 65279 0 0 65279 0 0 65279 0 0 65279 0 0 65279 0 0 65279 0 0 65279 0 0 65279 0 0 65279 0 0 65279 0 0 65279 0 0 65279 0 0 65279 0 0 65279 0 0 65279 0 0 65279 0 0 65279 0 0 65279 0 0 65279 0 0 65279 0 0 65279 0 0 65279 0 0 65279 0 0 65279 0 0 65279 0 0 65279 0 0 65279 0 0 65279 0 0 65279 0 0 65279 0 0 65279 0 0 65279 0 0 65279 0 0 65279 0 0 65279 0 0 65279 0 0 65279 0 0 65279 0 0 65279 0 0 65279 0 0 65279 0 0 65279 0 0 65279 0 0 65279 0 0 65279 0 0 65279 0 0 65279 0 0 65279 0 0 65279 0 0 65279 0 0 65279 0 0 65279 0 0 65279 0 0 65279 0 0 65279 0 0 65279 0 0 65279 0 0 65279 0 0 65279 0 0 65279 0 0 65279 0 0 65279 0 0 65279 0 0 65279 0 0 65279 0 0 65279 0 0 65279 0 0 65279 0 0 65279 0 0 65279 0 0 65279 0 0 65279 0 0 65279 0 0 65279 0 0 65279 0 0 65279 0 0 65279 0 0 65279 0 0 65279 0 0 65279 0 0 65279 0 0 65279 0 0 65279 0 0 65279 0 0 65279 0 0 65279 0 0 65279 0 0 65279 0 0 65279 0 0 65279 0 0 65279 0 0 65279 0 0 65279 0 0 65279 0 0 65279 0 0 65279 0 0 65279 0 0 65279 0 0 65279 0 0 65279 0 0 65279 0 0 65279 0 0 65279 0 0 65279 0 0 65279 0 0 65279 0 0 65279 0 0 65279 0 0 65279 0 0 65279 0 0 65279 0 0 65279 0 0 65279 0 0 65279 0 0 65279 0 0 65279 0 0 65279 0 0 65279 0 0 65279 0 0 65279 0 0 65279 0 0 65279 0 0 65279 0 0 65279 0 0 65279 0 0 65279 0 0 65279 0 0 65279 0 0 65279 0 0 65279 0 0 65279 0 0 65279 0 0 65279 0 0 65279 0 0 65279 0 0 65279 0 0 65279 0 0 65279 0 0 65279 0 0 65279 0 0 65279 0 0 65279 0 0 65279 0 0 65279 0 0 65279 0 0 65279 0 0 65279 0 0 65279 0 0 65279 0 0 65279 0 0 65279 0 0 65279 0 0 65279 0 0 65279 0 0 65279 0 0 65279 0 0 65279 0 0 65279 0 0 65279 0 0 65279 0 0 65279 0 0 65279 0 0 65279 0 0 65279 0 0 65279 0 0 65279 0 0 65279 0 0 65279 0 0 65279 0 0 65279 0 0 65279 0 0 65279 0 0 65279 0 0 65279 0 0 65279 0 0 65279 0 0 65279 0 0 65279 0 0 65279 0 0 65279 0 0 65279 0 0 65279 0 0 65279 0 0 65279 0 0 65279 0 0 65279 0 0 65279 0 0 65279 0 0 65279 0 0 65279 0 0 65279 0 0 65279 0 0 65279 0 0 65279 0 0 65279 0 0 65279 0 0 65279 0 0 65279 0 0 65279 0 0 65279 0 0 65279 0 0 65279 0 0 65279 0 0 65279 0 0 65279 0 0 65279 0 0 65279 0 0 65279 0 0 65279 0 0 65279 0 0 65279 0 0 65279 0 0 65279 0 0 65279 0 0 65279 0 0 65279 0 0 65279 0 0 65279 0 0 65279 0 0 65279 0 0 65279 0 0 65279 0 0 65279 0 0 65279 0 0 65279 0 0 65279 0 0 65279 0 0 65279 0 0 65279 0 0 65279 0 0 65279 0 0 65279 0 0 65279 0 0 65279 0 0 65279 0 0 65279 0 0 65279 0 0 65279 0 0 65279 0 0 65279 0 0 65279 0 0 65279 0 0 65279 0 0 65279 0 0 65279 0 0 65279 0 0 65279 0 0 65279 0 0 65279 0 0 65279 0 0 65279 0 0 65279 0 0 65279 0 0 65279 0 0 65279 0 0 65279 0 0 65279 0 0 65279 0 0 65279 0 0 65279 0 0 65279 0 0 65279 0 0 65279 0 0 65279 0 0 65279 0 0 65279 0 0 65279 0 0 65279 0 0 65279 0 0 65279 0 0 65279 0 0 65279 0 0 65279 0 0 65279 0 0 65279 0 0 65279 0 0 65279 0 0 65279 0 0 65279 0 0 65279 0 0 65279 0 0 65279 0 0 65279 0 0 65279 0 0 65279 0 0 65279 0 0 65279 0 0 65279 0 0 65279 0 0 65279 0 0 65279 0 0 65279 0 0 65279 0 0 65279 0 0 65279 0 0 65279 0 0 65279 0 0 65279 0 0 65279 0 0 65279 0 0 65279 0 0 65279 0 0 65279 0 0 65279 0 0 65279 0 0 65279 0 0 65279 0 0 65279 0 0 65279 0 0 65279 0 0 65279 0 0 65279 0 0 65279 0 0 65279 0 0 65279 0 0 65279 0 0 65279 0 0 65279 0 0 65279 0 0 65279 0 0 65279 0 0 65279 0 0 65279 0 0 65279 0 0 65279 0 0 65279 0 0 65279 0 0 65279 0 0 65279 0 0 65279 0 0 65279 0 0 65279 0 0 65279 0 0 65279 0 0 65279 0 0 65279 0 0 65279 0 0 65279 0 0 65279 0 0 65279 0 0 65279 0 0 65279 0 0 65279 0 0 65279 0 0 65279 0 0 65279 0 0 65279 0 0 65279 0 0 65279 0 0 65279 0 0 65279 0 0 65279 0 0 65279 0 0 65279 0 0 65279 0 0 65279 0 0 65279 0 0 65279 0 0 65279 0 0 65279 0 0 65279 0 0 65279 0 0 65279 0 0 65279 0 0 65279 0 0 65279 0 0 65279 0 0 65279 0 0 65279 0 0 65279 0 0 65279 0 0 65279 0 0 65279 0 0 65279 0 0 65279 0 0 65279 0 0 65279 0 0 65279 0 0 65279 0 0 65279 0 0 65279 0 0 65279 0 0 65279 0 0 65279 0 0 65279 0 0 65279 0 0 65279 0 0 65279 0 0 65279 0 0 65279 0 0 65279 0 0 65279 0 0 65279 0 0 65279 0 0 65279 0 0 65279 0 0 65279 0 0 65279 0 0 65279 0 0 65279 0 0 65279 0 0 65279 0 0 65279 0 0 65279 0 0 65279 0 0 65279 0 0 65279 0 0 65279 0 0 65279 0 0 65279 0 0 65279 0 0 65279 0 0 65279 0 0 65279 0 0 65279 0 0 65279 0 0 65279 0 0 65279 0 0 65279 0 0 65279 0 0 65279 0 0 65279 0 0 65279 0 0 65279 0 0 65279 0 0 65279 0 0 65279 0 0 65279 0 0 65279 0 0 65279 0 0 65279 0 0 65279 0 0 65279 0 0 65279 0 0 65279 0 0 65279 0 0 65279 0 0 65279 0 0 65279 0 0 65279 0 0 65279 0 0 65279 0 0 65279 0 0 65279 0 0 65279 0 0 65279 0 0 65279 0 0 65279 0 0 65279 0 0 65279 0 0 65279 0 0 65279 0 0 65279 0 0 65279 0 0 65279 0 0 65279 0 0 65279 0 0 65279 0 0 65279 0 0 65279 0 0 65279 0 0 65279 0 0 65279 0 0 65279 0 0 65279 0 0 65279 0 0 65279 0 0 65279 0 0 65279 0 0 65279 0 0 65279 0 0 65279 0 0 65279 0 0 65279 0 0 65279 0 0 65279 0 0 65279 0 0 65279 0 0 65279 0 0 65279 0 0 65279 0 0 65279 0 0 65279 0 0 65279 0 0 65279 0 0 65279 0 0 65279 0 0 65279 0 0 65279 0 0 65279 0 0 65279 0 0 65279 0 0 65279 0 0 65279 0 0 65279 0 0 65279 0 0 65279 0 0 65279 0 0 65279 0 0 65279 0 0 65279 0 0 65279 0 0 65279 0 0 65279 0 0 65279 0 0 65279 0 0 65279 0 0 65279 0 0 65279 0 0 65279 0 0 65279 0 0 65279 0 0 65279 0 0 65279 0 0 65279 0 0 65279 0 0 65279 0 0 65279 0 0 65279 0 0 65279 0 0 65279 0 0 65279 0 0 65279 0 0 65279 0 0 65279 0 0 65279 0 0 65279 0 0 65279 0 0 65279 0 0 65279 0 0 65279 0 0 65279 0 0 65279 0 0 65279 0 0 65279 0 0 65279 0 0 65279 0 0 65279 0 0 65279 0 0 65279 0 0 65279 0 0 65279 0 0 65279 0 0 65279 0 0 65279 0 0 65279 0 0 65279 0 0 65279 0 0 65279 0 0 65279 0 0 65279 0 0 65279 0 0 65279 0 0 65279 0 0 65279 0 0 65279 0 0 65279 0 0 65279 0 0 65279 0 0 65279 0 0 65279 0 0 65279 0 0 65279 0 0 65279 0 0 65279 0 0 65279 0 0 65279 0 0 65279 0 0 65279 0 0 65279 0 0 65279 0 0 65279 0 0 65279 0 0 65279 0 0 65279 0 0 65279 0 0 65279 0 0 65279 0 0 65279 0 0 65279 0 0 65279 0 0 65279 0 0 65279 0 0 65279 0 0 65279 0 0 65279 0 0 65279 0 0 65279 0 0 65279 0 0 65279 0 0 65279 0 0 65279 0 0 65279 0 0 65279 0 0 65279 0 0 65279 0 0 65279 0 0 65279 0 0 65279 0 0 65279 0 0 65279 0 0 65279 0 0 65279 0 0 65279 0 0 65279 0 0 65279 0 0 65279 0 0 65279 0 0 65279 0 0 65279 0 0 65279 0 0 65279 0 0 65279 0 0 65279 0 0 65279 0 0 65279 0 0 65279 0 0 65279 0 0 65279 0 0 65279 0 0 65279 0 0 65279 0 0 65279 0 0 65279 0 0 65279 0 0 65279 0 0 65279 0 0 65279 0 0 65279 0 0 65279 0 0 65279 0 0 65279 0 0 65279 0 0 65279 0 0 65279 0 0 65279 0 0 65279 0 0 65279 0 0 65279 0 0 65279 0 0 65279 0 0 65279 0 0 65279 0 0 65279 0 0 65279 0 0 65279 0 0 65279 0 0 65279 0 0 65279 0 0 65279 0 0 65279 0 0 65279 0 0 65279 0 0 65279 0 0 65279 0 0 65279 0 0 65279 0 0 65279 0 0 65279 0 0 65279 0 0 65279 0 0 65279 0 0 65279 0 0 65279 0 0 65279 0 0 65279 0 0 65279 0 0 65279 0 0 65279 0 0 65279 0 0 65279 0 0 65279 0 0 65279 0 0 65279 0 0 65279 0 0 65279 0 0 65279 0 0 65279 0 0 65279 0 0 65279 0 0 65279 0 0 65279 0 0 65279 0 0 65279 0 0 65279 0 0 65279 0 0 65279 0 0 65279 0 0 65279 0 0 65279 0 0 65279 0 0 65279 0 0 65279 0 0 65279 0 0 65279 0 0 65279 0 0 65279 0 0 65279 0 0 65279 0 0 65279 0 0 65279 0 0 65279 0 0 65279 0 0 65279 0 0 65279 0 0 65279 0 0 65279 0 0 65279 0 0 65279 0 0 65279 0 0 65279 0 0 65279 0 0 65279 0 0 65279 0 0 65279 0 0 65279 0 0 65279 0 0 65279 0 0 65279 0 0 65279 0 0 65279 0 0 65279 0 0 65279 0 0 65279 0 0 65279 0 0 65279 0 0 65279 0 0 65279 0 0 65279 0 0 65279 0 0 65279 0 0 65279 0 0 65279 0 0 65279 0 0 65279 0 0 65279 0 0 65279 0 0 65279 0 0 65279 0 0 65279 0 0 65279 0 0 65279 0 0 65279 0 0 65279 0 0 65279 0 0 65279 0 0 65279 0 0 65279 0 0 65279 0 0 65279 0 0 65279 0 0 65279 0 0 65279 0 0 65279 0 0 65279 0 0 65279 0 0 65279 0 0 65279 0 0 65279 0 0 65279 0 0 65279 0 0 65279 0 0 65279 0 0 65279 0 0 65279 0 0 65279 0 0 65279 0 0 65279 0 0 65279 0 0 65279 0 0 65279 0 0 65279 0 0 65279 0 0 65279 0 0 65279 0 0 65279 0 0 65279 0 0 65279 0 0 65279 0 0 65279 0 0 65279 0 0 65279 0 0 65279 0 0 65279 0 0 65279 0 0 65279 0 0 65279 0 0 65279 0 0 65279 0 0 65279 0 0 65279 0 0 65279 0 0 65279 0 0 65279 0 0 65279 0 0 65279 0 0 65279 0 0 65279 0 0 65279 0 0 65279 0 0 65279 0 0 65279 0 0 65279 0 0 65279 0 0 65279 0 0 65279 0 0 65279 0 0 65279 0 0 65279 0 0 65279 0 0 65279 0 0 65279 0 0 65279 0 0 65279 0 0 65279 0 0 65279 0 0 65279 0 0 65279 0 0 65279 0 0 65279 0 0 65279 0 0 65279 0 0 65279 0 0 65279 0 0 65279 0 0 65279 0 0 65279 0 0 65279 0 0 65279 0 0 65279 0 0 65279 0 0 65279 0 0 65279 0 0 65279 0 0 65279 0 0 65279 0 0 65279 0 0 65279 0 0 65279 0 0 65279 0 0 65279 0 0 65279 0 0 65279 0 0 65279 0 0 65279 0 0 65279 0 0 65279 0 0 65279 0 0 65279 0 0 65279 0 0 65279 0 0 65279 0 0 65279 0 0 65279 0 0 65279 0 0 65279 0 0 65279 0 0 65279 0 0 65279 0 0 65279 0 0 65279 0 0 65279 0 0 65279 0 0 65279 0 0 65279 0 0 65279 0 0 65279 0 0 65279 0 0 65279 0 0 65279 0 0 65279 0 0 65279 0 0 65279 0 0 65279 0 0 65279 0 0 65279 0 0 65279 0 0 65279 0 0 65279 0 0 65279 0 0 65279 0 0 65279 0 0 65279 0 0 65279 0 0 65279 0 0 65279 0 0 65279 0 0 65279 0 0 65279 0 0 65279 0 0 65279 0 0 65279 0 0 65279 0 0 65279 0 0 65279 0 0 65279 0 0 65279 0 0 65279 0 0 65279 0 0 65279 0 0 65279 0 0 65279 0 0 65279 0 0 65279 0 0 65279 0 0 65279 0 0 65279 0 0 65279 0 0 65279 0 0 65279 0 0 65279 0 0 65279 0 0 65279 0 0 65279 0 0 65279 0 0 65279 0 0 65279 0 0 65279 0 0 65279 0 0 65279 0 0 65279 0 0 65279 0 0 65279 0 0 65279 0 0 65279 0 0 65279 0 0 65279 0 0 65279 0 0 65279 0 0 65279 0 0 65279 0 0 65279 0 0 65279 0 0 65279 0 0 65279 0 0 65279 0 0 65279 0 0 65279 0 0 65279 0 0 65279 0 0 65279 0 0 65279 0 0 65279 0 0 65279 0 0 65279 0 0 65279 0 0 65279 0 0 65279 0 0 65279 0 0 65279 0 0 65279 0 0 65279 0 0 65279 0 0 65279 0 0 65279 0 0 65279 0 0 65279 0 0 65279 0 0 65279 0 0 65279 0 0 65279 0 0 65279 0 0 65279 0 0 65279 0 0 65279 0 0 65279 0 0 65279 0 0 65279 0 0 65279 0 0 65279 0 0 65279 0 0 65279 0 0 65279 0 0 65279 0 0 65279 0 0 65279 0 0 65279 0 0 65279 0 0 65279 0 0 65279 0 0 65279 0 0 65279 0 0 65279 0 0 65279 0 0 65279 0 0 65279 0 0 65279 0 0 65279 0 0 65279 0 0 65279 0 0 65279 0 0 65279 0 0 65279 0 0 65279 0 0 65279 0 0 65279 0 0 65279 0 0 65279 0 0 65279 0 0 65279 0 0 65279 0 0 65279 0 0 65279 0 0 65279 0 0 65279 0 0 65279 0 0 65279 0 0 65279 0 0 65279 0 0 65279 0 0 65279 0 0 65279 0 0 65279 0 0 65279 0 0 65279 0 0 65279 0 0 65279 0 0 65279 0 0 65279 0 0 65279 0 0 65279 0 0 65279 0 0 65279 0 0 65279 0 0 65279 0 0 65279 0 0 65279 0 0 65279 0 0 65279 0 0 65279 0 0 65279 0 0 65279 0 0 65279 0 0 65279 0 0 65279 0 0 65279 0 0 65279 0 0 65279 0 0 65279 0 0 65279 0 0 65279 0 0 65279 0 0 65279 0 0 65279 0 0 65279 0 0 65279 0 0 65279 0 0 65279 0 0 65279 0 0 65279 0 0 65279 0 0 65279 0 0 65279 0 0 65279 0 0 65279 0 0 65279 0 0 65279 0 0 65279 0 0 65279 0 0 65279 0 0 65279 0 0 65279 0 0 65279 0 0 65279 0 0 65279 0 0 65279 0 0 65279 0 0 65279 0 0 65279 0 0 65279 0 0 65279 0 0 65279 0 0 65279 0 0 65279 0 0 65279 0 0 65279 0 0 65279 0 0 65279 0 0 65279 0 0 65279 0 0 65279 0 0 65279 0 0 65279 0 0 65279 0 0 65279 0 0 65279 0 0 65279 0 0 65279 0 0 65279 0 0 65279 0 0 65279 0 0 65279 0 0 65279 0 0 65279 0 0 65279 0 0 65279 0 0 65279 0 0 65279 0 0 65279 0 0 65279 0 0 65279 0 0 65279 0 0 65279 0 0 65279 0 0 65279 0 0 65279 0 0 65279 0 0 65279 0 0 65279 0 0 65279 0 0 65279 0 0 65279 0 0 65279 0 0 65279 0 0 65279 0 0 65279 0 0 65279 0 0 65279 0 0 65279 0 0 65279 0 0 65279 0 0 65279 0 0 65279 0 0 65279 0 0 65279 0 0 65279 0 0 65279 0 0 65279 0 0 65279 0 0 65279 0 0 65279 0 0 65279 0 0 65279 0 0 65279 0 0 65279 0 0 65279 0 0 65279 0 0 65279 0 0 65279 0 0 65279 0 0 65279 0 0 65279 0 0 65279 0 0 65279 0 0 65279 0 0 65279 0 0 65279 0 0 65279 0 0 65279 0 0 65279 0 0 65279 0 0 65279 0 0 65279 0 0 65279 0 0 65279 0 0 65279 0 0 65279 0 0 65279 0 0 65279 0 0 65279 0 0 65279 0 0 65279 0 0 65279 0 0 65279 0 0 65279 0 0 65279 0 0 65279 0 0 65279 0 0 65279 0 0 65279 0 0 65279 0 0 65279 0 0 65279 0 0 65279 0 0 65279 0 0 65279 0 0 65279 0 0 65279 0 0 65279 0 0 65279 0 0 65279 0 0 65279 0 0 65279 0 0 65279 0 0 65279 0 0 65279 0 0 65279 0 0 65279 0 0 65279 0 0 65279 0 0 65279 0 0 65279 0 0 65279 0 0 65279 0 0 65279 0 0 65279 0 0 65279 0 0 65279 0 0 65279 0 0 65279 0 0 65279 0 0 65279 0 0 65279 0 0 65279 0 0 65279 0 0 65279 0 0 65279 0 0 65279 0 0 65279 0 0 65279 0 0 65279 0 0 65279 0 0 65279 0 0 65279 0 0 65279 0 0 65279 0 0 65279 0 0 65279 0 0 65279 0 0 65279 0 0 65279 0 0 65279 0 0 65279 0 0 65279 0 0 65279 0 0 65279 0 0 65279 0 0 65279 0 0 65279 0 0 65279 0 0 65279 0 0 65279 0 0 65279 0 0 65279 0 0 65279 0 0 65279 0 0 65279 0 0 65279 0 0 65279 0 0 65279 0 0 65279 0 0 65279 0 0 65279 0 0 65279 0 0 65279 0 0 65279 0 0 65279 0 0 65279 0 0 65279 0 0 65279 0 0 65279 0 0 65279 0 0 65279 0 0 65279 0 0 65279 0 0 65279 0 0 65279 0 0 65279 0 0 65279 0 0 65279 0 0 65279 0 0 65279 0 0 65279 0 0 65279 0 0 65279 0 0 65279 0 0 65279 0 0 65279 0 0 65279 0 0 65279 0 0 65279 0 0 65279 0 0 65279 0 0 65279 0 0 65279 0 0 65279 0 0 65279 0 0 65279 0 0 65279 0 0 65279 0 0 65279 0 0 65279 0 0 65279 0 0 65279 0 0 65279 0 0 65279 0 0 65279 0 0 65279 0 0 65279 0 0 65279 0 0 65279 0 0 65279 0 0 65279 0 0 65279 0 0 65279 0 0 65279 0 0 65279 0 0 65279 0 0 65279 0 0 65279 0 0 65279 0 0 65279 0 0 65279 0 0 65279 0 0 65279 0 0 65279 0 0 65279 0 0 65279 0 0 65279 0 0 65279 0 0 65279 0 0 65279 0 0 65279 0 0 65279 0 0 65279 0 0 65279 0 0 65279 0 0 65279 0 0 65279 0 0 65279 0 0 65279 0 0 65279 0 0 65279 0 0 65279 0 0 65279 0 0 65279 0 0 65279 0 0 65279 0 0 65279 0 0 65279 0 0 65279 0 0 65279 0 0 65279 0 0 65279 0 0 65279 0 0 65279 0 0 65279 0 0 65279 0 0 65279 0 0 65279 0 0 65279 0 0 65279 0 0 65279 0 0 65279 0 0 65279 0 0 65279 0 0 65279 0 0 65279 0 0 65279 0 0 65279 0 0 65279 0 0 65279 0 0 65279 0 0 65279 0 0 65279 0 0 65279 0 0 65279 0 0 65279 0 0 65279 0 0 65279 0 0 65279 0 0 65279 0 0 65279 0 0 65279 0 0 65279 0 0 65279 0 0 65279 0 0 65279 0 0 65279 0 0 65279 0 0 65279 0 0 65279 0 0 65279 0 0 65279 0 0 65279 0 0 65279 0 0 65279 0 0 65279 0 0 65279 0 0 65279 0 0 65279 0 0 65279 0 0 65279 0 0 65279 0 0 65279 0 0 65279 0 0 65279 0 0 65279 0 0 65279 0 0 65279 0 0 65279 0 0 65279 0 0 65279 0 0 65279 0 0 65279 0 0 65279 0 0 65279 0 0 65279 0 0 65279 0 0 65279 0 0 65279 0 0 65279 0 0 65279 0 0 65279 0 0 65279 0 0 65279 0 0 65279 0 0 65279 0 0 65279 0 0 65279 0 0 65279 0 0 65279 0 0 65279 0 0 65279 0 0 65279 0 0 65279 0 0 65279 0 0 65279 0 0 65279 0 0 65279 0 0 65279 0 0 65279 0 0 65279 0 0 65279 0 0 65279 0 0 65279 0 0 65279 0 0 65279 0 0 65279 0 0 65279 0 0 65279 0 0 65279 0 0 65279 0 0 65279 0 0 65279 0 0 65279 0 0 65279 0 0 65279 0 0 65279 0 0 65279 0 0 65279 0 0 65279 0 0 65279 0 0 65279 0 0 65279 0 0 65279 0 0 65279 0 0 65279 0 0 65279 0 0 65279 0 0 65279 0 0 65279 0 0 65279 0 0 65279 0 0 65279 0 0 65279 0 0 65279 0 0 65279 0 0 65279 0 0 65279 0 0 65279 0 0 65279 0 0 65279 0 0 65279 0 0 65279 0 0 65279 0 0 65279 0 0 65279 0 0 65279 0 0 65279 0 0 65279 0 0 65279 0 0 65279 0 0 65279 0 0 65279 0 0 65279 0 0 65279 0 0 65279 0 0 65279 0 0 65279 0 0 65279 0 0 65279 0 0 65279 0 0 65279 0 0 65279 0 0 65279 0 0 65279 0 0 65279 0 0 65279 0 0 65279 0 0 65279 0 0 65279 0 0 65279 0 0 65279 0 0 65279 0 0 65279 0 0 65279 0 0 65279 0 0 65279 0 0 65279 0 0 65279 0 0 65279 0 0 65279 0 0 65279 0 0 65279 0 0 65279 0 0 65279 0 0 65279 0 0 65279 0 0 65279 0 0 65279 0 0 65279 0 0 65279 0 0 65279 0 0 65279 0 0 65279 0 0 65279 0 0 65279 0 0 65279 0 0 65279 0 0 65279 0 0 65279 0 0 65279 0 0 65279 0 0 65279 0 0 65279 0 0 65279 0 0 65279 0 0 65279 0 0 65279 0 0 65279 0 0 65279 0 0 65279 0 0 65279 0 0 65279 0 0 65279 0 0 65279 0 0 65279 0 0 65279 0 0 65279 0 0 65279 0 0 65279 0 0 65279 0 0 65279 0 0 65279 0 0 65279 0 0 65279 0 0 65279 0 0 65279 0 0 65279 0 0 65279 0 0 65279 0 0 65279 0 0 65279 0 0 65279 0 0 65279 0 0 65279 0 0 65279 0 0 65279 0 0 65279 0 0 65279 0 0 65279 0 0 65279 0 0 65279 0 0 65279 0 0 65279 0 0 65279 0 0 65279 0 0 65279 0 0 65279 0 0 65279 0 0 65279 0 0 65279 0 0 65279 0 0 65279 0 0 65279 0 0 65279 0 0 65279 0 0 65279 0 0 65279 0 0 65279 0 0 65279 0 0 65279 0 0 65279 0 0 65279 0 0 65279 0 0 65279 0 0 65279 0 0 65279 0 0 65279 0 0 65279 0 0 65279 0 0 65279 0 0 65279 0 0 65279 0 0 65279 0 0 65279 0 0 65279 0 0 65279 0 0 65279 0 0 65279 0 0 65279 0 0 65279 0 0 65279 0 0 65279 0 0 65279 0 0 65279 0 0 65279 0 0 65279 0 0 65279 0 0 65279 0 0 65279 0 0 65279 0 0 65279 0 0 65279 0 0 65279 0 0 65279 0 0 65279 0 0 65279 0 0 65279 0 0 65279 0 0 65279 0 0 65279 0 0 65279 0 0 65279 0 0 65279 0 0 65279 0 0 65279 0 0 65279 0 0 65279 0 0 65279 0 0 65279 0 0 65279 0 0 65279 0 0 65279 0 0 65279 0 0 65279 0 0 65279 0 0 65279 0 0 65279 0 0 65279 0 0 65279 0 0 65279 0 0 65279 0 0 65279 0 0 65279 0 0 65279 0 0 65279 0 0 65279 0 0 65279 0 0 65279 0 0 65279 0 0 65279 0 0 65279 0 0 65279 0 0 65279 0 0 65279 0 0 65279 0 0 65279 0 0 65279 0 0 65279 0 0 65279 0 0 65279 0 0 65279 0 0 65279 0 0 65279 0 0 65279 0 0 65279 0 0 65279 0 0 65279 0 0 65279 0 0 65279 0 0 65279 0 0 65279 0 0 65279 0 0 65279 0 0 65279 0 0 65279 0 0 65279 0 0 65279 0 0 65279 0 0 65279 0 0 65279 0 0 65279 0 0 65279 0 0 65279 0 0 65279 0 0 65279 0 0 65279 0 0 65279 0 0 65279 0 0 65279 0 0 65279 0 0 65279 0 0 65279 0 0 65279 0 0 65279 0 0 65279 0 0 65279 0 0 65279 0 0 65279 0 0 65279 0 0 65279 0 0 65279 0 0 65279 0 0 65279 0 0 65279 0 0 65279 0 0 65279 0 0 65279 0 0 65279 0 0 65279 0 0 65279 0 0 65279 0 0 65279 0 0 65279 0 0 65279 0 0 65279 0 0 65279 0 0 65279 0 0 65279 0 0 65279 0 0 65279 0 0 65279 0 0 65279 0 0 65279 0 0 65279 0 0 65279 0 0 65279 0 0 65279 0 0 65279 0 0 65279 0 0 65279 0 0 65279 0 0 65279 0 0 65279 0 0 65279 0 0 65279 0 0 65279 0 0 65279 0 0 65279 0 0 65279 0 0 65279 0 0 65279 0 0 65279 0 0 65279 0 0 65279 0 0 65279 0 0 65279 0 0 65279 0 0 65279 0 0 65279 0 0 65279 0 0 65279 0 0 65279 0 0 65279 0 0 65279 0 0 65279 0 0 65279 0 0 65279 0 0 65279 0 0 65279 0 0 65279 0 0 65279 0 0 65279 0 0 65279 0 0 65279 0 0 65279 0 0 65279 0 0 65279 0 0 65279 0 0 65279 0 0 65279 0 0 65279 0 0 65279 0 0 65279 0 0 65279 0 0 65279 0 0 65279 0 0 65279 0 0 65279 0 0 65279 0 0 65279 0 0 65279 0 0 65279 0 0 65279 0 0 65279 0 0 65279 0 0 65279 0 0 65279 0 0 65279 0 0 65279 0 0 65279 0 0 65279 0 0 65279 0 0 65279 0 0 65279 0 0 65279 0 0 65279 0 0 65279 0 0 65279 0 0 65279 0 0 65279 0 0 65279 0 0 65279 0 0 65279 0 0 65279 0 0 65279 0 0 65279 0 0 65279 0 0 65279 0 0 65279 0 0 65279 0 0 65279 0 0 65279 0 0 65279 0 0 65279 0 0 65279 0 0 65279 0 0 65279 0 0 65279 0 0 65279 0 0 65279 0 0 65279 0 0 65279 0 0 65279 0 0 65279 0 0 65279 0 0 65279 0 0 65279 0 0 65279 0 0 65279 0 0 65279 0 0 65279 0 0 65279 0 0 65279 0 0 65279 0 0 65279 0 0 65279 0 0 65279 0 0 65279 0 0 65279 0 0 65279 0 0 65279 0 0 65279 0 0 65279 0 0 65279 0 0 65279 0 0 65279 0 0 65279 0 0 65279 0 0 65279 0 0 65279 0 0 65279 0 0 65279 0 0 65279 0 0 65279 0 0 65279 0 0 65279 0 0 65279 0 0 65279 0 0 65279 0 0 65279 0 0 65279 0 0 65279 0 0 65279 0 0 65279 0 0 65279 0 0 65279 0 0 65279 0 0 65279 0 0 65279 0 0 65279 0 0 65279 0 0 65279 0 0 65279 0 0 65279 0 0 65279 0 0 65279 0 0 65279 0 0 65279 0 0 65279 0 0 65279 0 0 65279 0 0 65279 0 0 65279 0 0 65279 0 0 65279 0 0 65279 0 0 65279 0 0 65279 0 0 65279 0 0 65279 0 0 65279 0 0 65279 0 0 65279 0 0 65279 0 0 65279 0 0 65279 0 0 65279 0 0 65279 0 0 65279 0 0 65279 0 0 65279 0 0 65279 0 0 65279 0 0 65279 0 0 65279 0 0 65279 0 0 65279 0 0 65279 0 0 65279 0 0 65279 0 0 65279 0 0 65279 0 0 65279 0 0 65279 0 0 65279 0 0 65279 0 0 65279 0 0 65279 0 0 65279 0 0 65279 0 0 65279 0 0 65279 0 0 65279 0 0 65279 0 0 65279 0 0 65279 0 0 65279 0 0 65279 0 0 65279 0 0 65279 0 0 65279 0 0 65279 0 0 65279 0 0 65279 0 0 65279 0 0 65279 0 0 65279 0 0 65279 0 0 65279 0 0 65279 0 0 65279 0 0 65279 0 0 65279 0 0 65279 0 0 65279 0 0 65279 0 0 65279 0 0 65279 0 0 65279 0 0 65279 0 0 65279 0 0 65279 0 0 65279 0 0 65279 0 0 65279 0 0 65279 0 0 65279 0 0 65279 0 0 65279 0 0 65279 0 0 65279 0 0 65279 0 0 65279 0 0 65279 0 0 65279 0 0 65279 0 0 65279 0 0 65279 0 0 65279 0 0 65279 0 0 65279 0 0 65279 0 0 65279 0 0 65279 0 0 65279 0 0 65279 0 0 65279 0 0 65279 0 0 65279 0 0 65279 0 0 65279 0 0 65279 0 0 65279 0 0 65279 0 0 65279 0 0 65279 0 0 65279 0 0 65279 0 0 65279 0 0 65279 0 0 65279 0 0 65279 0 0 65279 0 0 65279 0 0 65279 0 0 65279 0 0 65279 0 0 65279 0 0 65279 0 0 65279 0 0 65279 0 0 65279 0 0 65279 0 0 65279 0 0 65279 0 0 65279 0 0 65279 0 0 65279 0 0 65279 0 0 65279 0 0 65279 0 0 65279 0 0 65279 0 0 65279 0 0 65279 0 0 65279 0 0 65279 0 0 65279 0 0 65279 0 0 65279 0 0 65279 0 0 65279 0 0 65279 0 0 65279 0 0 65279 0 0 65279 0 0 65279 0 0 65279 0 0 65279 0 0 65279 0 0 65279 0 0 65279 0 0 65279 0 0 65279 0 0 65279 0 0 65279 0 0 65279 0 0 65279 0 0 65279 0 0 65279 0 0 65279 0 0 65279 0 0 65279 0 0 65279 0 0 65279 0 0 65279 0 0 65279 0 0 65279 0 0 65279 0 0 65279 0 0 65279 0 0 65279 0 0 65279 0 0 65279 0 0 65279 0 0 65279 0 0 65279 0 0 65279 0 0 65279 0 0 65279 0 0 65279 0 0 65279 0 0 65279 0 0 65279 0 0 65279 0 0 65279 0 0 65279 0 0 65279 0 0 65279 0 0 65279 0 0 65279 0 0 65279 0 0 65279 0 0 65279 0 0 65279 0 0 65279 0 0 65279 0 0 65279 0 0 65279 0 0 65279 0 0 65279 0 0 65279 0 0 65279 0 0 65279 0 0 65279 0 0 65279 0 0 65279 0 0 65279 0 0 65279 0 0 65279 0 0 65279 0 0 65279 0 0 65279 0 0 65279 0 0 65279 0 0 65279 0 0 65279 0 0 65279 0 0 65279 0 0 65279 0 0 65279 0 0 65279 0 0 65279 0 0 65279 0 0 65279 0 0 65279 0 0 65279 0 0 65279 0 0 65279 0 0 65279 0 0 65279 0 0 65279 0 0 65279 0 0 65279 0 0 65279 0 0 65279 0 0 65279 0 0 65279 0 0 65279 0 0 65279 0 0 65279 0 0 65279 0 0 65279 0 0 65279 0 0 65279 0 0 65279 0 0 65279 0 0 65279 0 0 65279 0 0 65279 0 0 65279 0 0 65279 0 0 65279 0 0 65279 0 0 65279 0 0 65279 0 0 65279 0 0 65279 0 0 65279 0 0 65279 0 0 65279 0 0 65279 0 0 65279 0 0 65279 0 0 65279 0 0 65279 0 0 65279 0 0 65279 0 0 65279 0 0 65279 0 0 65279 0 0 65279 0 0 65279 0 0 65279 0 0 65279 0 0 65279 0 0 65279 0 0 65279 0 0 65279 0 0 65279 0 0 65279 0 0 65279 0 0 65279 0 0 65279 0 0 65279 0 0 65279 0 0 65279 0 0 65279 0 0 65279 0 0 65279 0 0 65279 0 0 65279 0 0 65279 0 0 65279 0 0 65279 0 0 65279 0 0 65279 0 0 65279 0 0 65279 0 0 65279 0 0 65279 0 0 65279 0 0 65279 0 0 65279 0 0 65279 0 0 65279 0 0 65279 0 0 65279 0 0 65279 0 0 65279 0 0 65279 0 0 65279 0 0 65279 0 0 65279 0 0 65279 0 0 65279 0 0 65279 0 0 65279 0 0 65279 0 0 65279 0 0 65279 0 0 65279 0 0 65279 0 0 65279 0 0 65279 0 0 65279 0 0 65279 0 0 65279 0 0 65279 0 0 65279 0 0 65279 0 0 65279 0 0 65279 0 0 65279 0 0 65279 0 0 65279 0 0 65279 0 0 65279 0 0 65279 0 0 65279 0 0 65279 0 0 65279 0 0 65279 0 0 65279 0 0 65279 0 0 65279 0 0 65279 0 0 65279 0 0 65279 0 0 65279 0 0 65279 0 0 65279 0 0 65279 0 0 65279 0 0 65279 0 0 65279 0 0 65279 0 0 65279 0 0 65279 0 0 65279 0 0 65279 0 0 65279 0 0 65279 0 0 65279 0 0 65279 0 0 65279 0 0 65279 0 0 65279 0 0 65279 0 0 65279 0 0 65279 0 0 65279 0 0 65279 0 0 65279 0 0 65279 0 0 65279 0 0 65279 0 0 65279 0 0 65279 0 0 65279 0 0 65279 0 0 65279 0 0 65279 0 0 65279 0 0 65279 0 0 65279 0 0 65279 0 0 65279 0 0 65279 0 0 65279 0 0 65279 0 0 65279 0 0 65279 0 0 65279 0 0 65279 0 0 65279 0 0 65279 0 0 65279 0 0 65279 0 0 65279 0 0 65279 0 0 65279 0 0 65279 0 0 65279 0 0 65279 0 0 65279 0 0 65279 0 0 65279 0 0 65279 0 0 65279 0 0 65279 0 0 65279 0 0 65279 0 0 65279 0 0 65279 0 0 65279 0 0 65279 0 0 65279 0 0 65279 0 0 65279 0 0 65279 0 0 65279 0 0 65279 0 0 65279 0 0 65279 0 0 65279 0 0 65279 0 0 65279 0 0 65279 0 0 65279 0 0 65279 0 0 65279 0 0 65279 0 0 65279 0 0 65279 0 0 65279 0 0 65279 0 0 65279 0 0 65279 0 0 65279 0 0 65279 0 0 65279 0 0 65279 0 0 65279 0 0 65279 0 0 65279 0 0 65279 0 0 65279 0 0 65279 0 0 65279 0 0 65279 0 0 65279 0 0 65279 0 0 65279 0 0 65279 0 0 65279 0 0 65279 0 0 65279 0 0 65279 0 0 65279 0 0 65279 0 0 65279 0 0 65279 0 0 65279 0 0 65279 0 0 65279 0 0 65279 0 0 65279 0 0 65279 0 0 65279 0 0 65279 0 0 65279 0 0 65279 0 0 65279 0 0 65279 0 0 65279 0 0 65279 0 0 65279 0 0 65279 0 0 65279 0 0 65279 0 0 65279 0 0 65279 0 0 65279 0 0 65279 0 0 65279 0 0 65279 0 0 65279 0 0 65279 0 0 65279 0 0 65279 0 0 65279 0 0 65279 0 0 65279 0 0 65279 0 0 65279 0 0 65279 0 0 65279 0 0 65279 0 0 65279 0 0 65279 0 0 65279 0 0 65279 0 0 65279 0 0 65279 0 0 65279 0 0 65279 0 0 65279 0 0 65279 0 0 65279 0 0 65279 0 0 65279 0 0 65279 0 0 65279 0 0 65279 0 0 65279 0 0 65279 0 0 65279 0 0 65279 0 0 65279 0 0 65279 0 0 65279 0 0 65279 0 0 65279 0 0 65279 0 0 65279 0 0 65279 0 0 65279 0 0 65279 0 0 65279 0 0 65279 0 0 65279 0 0 65279 0 0 65279 0 0 65279 0 0 65279 0 0 65279 0 0 65279 0 0 65279 0 0 65279 0 0 65279 0 0 65279 0 0 65279 0 0 65279 0 0 65279 0 0 65279 0 0 65279 0 0 65279 0 0 65279 0 0 65279 0 0 65279 0 0 65279 0 0 65279 0 0 65279 0 0 65279 0 0 65279 0 0 65279 0 0 65279 0 0 65279 0 0 65279 0 0 65279 0 0 65279 0 0 65279 0 0 65279 0 0 65279 0 0 65279 0 0 65279 0 0 65279 0 0 65279 0 0 65279 0 0 65279 0 0 65279 0 0 65279 0 0 65279 0 0 65279 0 0 65279 0 0 65279 0 0 65279 0 0 65279 0 0 65279 0 0 65279 0 0 65279 0 0 65279 0 0 65279 0 0 65279 0 0 65279 0 0 65279 0 0 65279 0 0 65279 0 0 65279 0 0 65279 0 0 65279 0 0 65279 0 0 65279 0 0 65279 0 0 65279 0 0 65279 0 0 65279 0 0 65279 0 0 65279 0 0 65279 0 0 65279 0 0 65279 0 0 65279 0 0 65279 0 0 65279 0 0 65279 0 0 65279 0 0 65279 0 0 65279 0 0 65279 0 0 65279 0 0 65279 0 0 65279 0 0 65279 0 0 65279 0 0 65279 0 0 65279 0 0 65279 0 0 65279 0 0 65279 0 0 65279 0 0 65279 0 0 65279 0 0 65279 0 0 65279 0 0 65279 0 0 65279 0 0 65279 0 0 65279 0 0 65279 0 0 65279 0 0 65279 0 0 65279 0 0 65279 0 0 65279 0 0 65279 0 0 65279 0 0 65279 0 0 65279 0 0 65279 0 0 65279 0 0 65279 0 0 65279 0 0 65279 0 0 65279 0 0 65279 0 0 65279 0 0 65279 0 0 65279 0 0 65279 0 0 65279 0 0 65279 0 0 65279 0 0 65279 0 0 65279 0 0 65279 0 0 65279 0 0 65279 0 0 65279 0 0 65279 0 0 65279 0 0 65279 0 0 65279 0 0 65279 0 0 65279 0 0 65279 0 0 65279 0 0 65279 0 0 65279 0 0 65279 0 0 65279 0 0 65279 0 0 65279 0 0 65279 0 0 65279 0 0 65279 0 0 65279 0 0 65279 0 0 65279 0 0 65279 0 0 65279 0 0 65279 0 0 65279 0 0 65279 0 0 65279 0 0 65279 0 0 65279 0 0 65279 0 0 65279 0 0 65279 0 0 65279 0 0 65279 0 0 65279 0 0 65279 0 0 65279 0 0 65279 0 0 65279 0 0 65279 0 0 65279 0 0 65279 0 0 65279 0 0 65279 0 0 65279 0 0 65279 0 0 65279 0 0 65279 0 0 65279 0 0 65279 0 0 65279 0 0 65279 0 0 65279 0 0 65279 0 0 65279 0 0 65279 0 0 65279 0 0 65279 0 0 65279 0 0 65279 0 0 65279 0 0 65279 0 0 65279 0 0 65279 0 0 65279 0 0 65279 0 0 65279 0 0 65279 0 0 65279 0 0 65279 0 0 65279 0 0 65279 0 0 65279 0 0 65279 0 0 65279 0 0 65279 0 0 65279 0 0 65279 0 0 65279 0 0 65279 0 0 65279 0 0 65279 0 0 65279 0 0 65279 0 0 65279 0 0 65279 0 0 65279 0 0 65279 0 0 65279 0 0 65279 0 0 65279 0 0 65279 0 0 65279 0 0 65279 0 0 65279 0 0 65279 0 0 65279 0 0 65279 0 0 65279 0 0 65279 0 0 65279 0 0 65279 0 0 65279 0 0 65279 0 0 65279 0 0 65279 0 0 65279 0 0 65279 0 0 65279 0 0 65279 0 0 65279 0 0 65279 0 0 65279 0 0 65279 0 0 65279 0 0 65279 0 0 65279 0 0 65279 0 0 65279 0 0 65279 0 0 65279 0 0 65279 0 0 65279 0 0 65279 0 0 65279 0 0 65279 0 0 65279 0 0 65279 0 0 65279 0 0 65279 0 0 65279 0 0 65279 0 0 65279 0 0 65279 0 0 65279 0 0 65279 0 0 65279 0 0 65279 0 0 65279 0 0 65279 0 0 65279 0 0 65279 0 0 65279 0 0 65279 0 0 65279 0 0 65279 0 0 65279 0 0 65279 0 0 65279 0 0 65279 0 0 65279 0 0 65279 0 0 65279 0 0 65279 0 0 65279 0 0 65279 0 0 65279 0 0 65279 0 0 65279 0 0 65279 0 0 65279 0 0 65279 0 0 65279 0 0 65279 0 0 65279 0 0 65279 0 0 65279 0 0 65279 0 0 65279 0 0 65279 0 0 65279 0 0 65279 0 0 65279 0 0 65279 0 0 65279 0 0 65279 0 0 65279 0 0 65279 0 0 65279 0 0 65279 0 0 65279 0 0 65279 0 0 65279 0 0 65279 0 0 65279 0 0 65279 0 0 65279 0 0 65279 0 0 65279 0 0 65279 0 0 65279 0 0 65279 0 0 65279 0 0 65279 0 0 65279 0 0 65279 0 0 65279 0 0 65279 0 0 65279 0 0 65279 0 0 65279 0 0 65279 0 0 65279 0 0 65279 0 0 65279 0 0 65279 0 0 65279 0 0 65279 0 0 65279 0 0 65279 0 0 65279 0 0 65279 0 0 65279 0 0 65279 0 0 65279 0 0 65279 0 0 65279 0 0 65279 0 0 65279 0 0 65279 0 0 65279 0 0 65279 0 0 65279 0 0 65279 0 0 65279 0 0 65279 0 0 65279 0 0 65279 0 0 65279 0 0 65279 0 0 65279 0 0 65279 0 0 65279 0 0 65279 0 0 65279 0 0 65279 0 0 65279 0 0 65279 0 0 65279 0 0 65279 0 0 65279 0 0 65279 0 0 65279 0 0 65279 0 0 65279 0 0 65279 0 0 65279 0 0 65279 0 0 65279 0 0 65279 0 0 65279 0 0 65279 0 0 65279 0 0 65279 0 0 65279 0 0 65279 0 0 65279 0 0 65279 0 0 65279 0 0 65279 0 0 65279 0 0 65279 0 0 65279 0 0 65279 0 0 65279 0 0 65279 0 0 65279 0 0 65279 0 0 65279 0 0 65279 0 0 65279 0 0 65279 0 0 65279 0 0 65279 0 0 65279 0 0 65279 0 0 65279 0 0 65279 0 0 65279 0 0 65279 0 0 65279 0 0 65279 0 0 65279 0 0 65279 0 0 65279 0 0 65279 0 0 65279 0 0 65279 0 0 65279 0 0 65279 0 0 65279 0 0 65279 0 0 65279 0 0 65279 0 0 65279 0 0 65279 0 0 65279 0 0 65279 0 0 65279 0 0 65279 0 0 65279 0 0 65279 0 0 65279 0 0 65279 0 0 65279 0 0 65279 0 0 65279 0 0 65279 0 0 65279 0 0 65279 0 0 65279 0 0 65279 0 0 65279 0 0 65279 0 0 65279 0 0 65279 0 0 65279 0 0 65279 0 0 65279 0 0 65279 0 0 65279 0 0 65279 0 0 65279 0 0 65279 0 0 65279 0 0 65279 0 0 65279 0 0 65279 0 0 65279 0 0 65279 0 0 65279 0 0 65279 0 0 65279 0 0 65279 0 0 65279 0 0 65279 0 0 65279 0 0 65279 0 0 65279 0 0 65279 0 0 65279 0 0 65279 0 0 65279 0 0 65279 0 0 65279 0 0 65279 0 0 65279 0 0 65279 0 0 65279 0 0 65279 0 0 65279 0 0 65279 0 0 65279 0 0 65279 0 0 65279 0 0 65279 0 0 65279 0 0 65279 0 0 65279 0 0 65279 0 0 65279 0 0 65279 0 0 65279 0 0 65279 0 0 65279 0 0 65279 0 0 65279 0 0 65279 0 0 65279 0 0 65279 0 0 65279 0 0 65279 0 0 65279 0 0 65279 0 0 65279 0 0 65279 0 0 65279 0 0 65279 0 0 65279 0 0 65279 0 0 65279 0 0 65279 0 0 65279 0 0 65279 0 0 65279 0 0 65279 0 0 65279 0 0 65279 0 0 65279 0 0 65279 0 0 65279 0 0 65279 0 0 65279 0 0 65279 0 0 65279 0 0 65279 0 0 65279 0 0 65279 0 0 65279 0 0 65279 0 0 65279 0 0 65279 0 0 65279 0 0 65279 0 0 65279 0 0 65279 0 0 65279 0 0 65279 0 0 65279 0 0 65279 0 0 65279 0 0 65279 0 0 65279 0 0 65279 0 0 65279 0 0 65279 0 0 65279 0 0 65279 0 0 65279 0 0 65279 0 0 65279 0 0 65279 0 0 65279 0 0 65279 0 0 65279 0 0 65279 0 0 65279 0 0 65279 0 0 65279 0 0 65279 0 0 65279 0 0 65279 0 0 65279 0 0 65279 0 0 65279 0 0 65279 0 0 65279 0 0 65279 0 0 65279 0 0 65279 0 0 65279 0 0 65279 0 0 65279 0 0 65279 0 0 65279 0 0 65279 0 0 65279 0 0 65279 0 0 65279 0 0 65279 0 0 65279 0 0 65279 0 0 65279 0 0 65279 0 0 65279 0 0 65279 0 0 65279 0 0 65279 0 0 65279 0 0 65279 0 0 65279 0 0 65279 0 0 65279 0 0 65279 0 0 65279 0 0 65279 0 0 65279 0 0 65279 0 0 65279 0 0 65279 0 0 65279 0 0 65279 0 0 65279 0 0 65279 0 0 65279 0 0 65279 0 0 65279 0 0 65279 0 0 65279 0 0 65279 0 0 65279 0 0 65279 0 0 65279 0 0 65279 0 0 65279 0 0 65279 0 0 65279 0 0 65279 0 0 65279 0 0 65279 0 0 65279 0 0 65279 0 0 65279 0 0 65279 0 0 65279 0 0 65279 0 0 65279 0 0 65279 0 0 65279 0 0 65279 0 0 65279 0 0 65279 0 0 65279 0 0 65279 0 0 65279 0 0 65279 0 0 65279 0 0 65279 0 0 65279 0 0 65279 0 0 65279 0 0 65279 0 0 65279 0 0 65279 0 0 65279 0 0 65279 0 0 65279 0 0 65279 0 0 65279 0 0 65279 0 0 65279 0 0 65279 0 0 65279 0 0 65279 0 0 65279 0 0 65279 0 0 65279 0 0 65279 0 0 65279 0 0 65279 0 0 65279 0 0 65279 0 0 65279 0 0 65279 0 0 65279 0 0 65279 0 0 65279 0 0 65279 0 0 65279 0 0 65279 0 0 65279 0 0 65279 0 0 65279 0 0 65279 0 0 65279 0 0 65279 0 0 65279 0 0 65279 0 0 65279 0 0 65279 0 0 65279 0 0 65279 0 0 65279 0 0 65279 0 0 65279 0 0 65279 0 0 65279 0 0 65279 0 0 65279 0 0 65279 0 0 65279 0 0 65279 0 0 65279 0 0 65279 0 0 65279 0 0 65279 0 0 65279 0 0 65279 0 0 65279 0 0 65279 0 0 65279 0 0 65279 0 0 65279 0 0 65279 0 0 65279 0 0 65279 0 0 65279 0 0 65279 0 0 65279 0 0 65279 0 0 65279 0 0 65279 0 0 65279 0 0 65279 0 0 65279 0 0 65279 0 0 65279 0 0 65279 0 0 65279 0 0 65279 0 0 65279 0 0 65279 0 0 65279 0 0 65279 0 0 65279 0 0 65279 0 0 65279 0 0 65279 0 0 65279 0 0 65279 0 0 65279 0 0 65279 0 0 65279 0 0 65279 0 0 65279 0 0 65279 0 0 65279 0 0 65279 0 0 65279 0 0 65279 0 0 65279 0 0 65279 0 0 65279 0 0 65279 0 0 65279 0 0 65279 0 0 65279 0 0 65279 0 0 65279 0 0 65279 0 0 65279 0 0 65279 0 0 65279 0 0 65279 0 0 65279 0 0 65279 0 0 65279 0 0 65279 0 0 65279 0 0 65279 0 0 65279 0 0 65279 0 0 65279 0 0 65279 0 0 65279 0 0 65279 0 0 65279 0 0 65279 0 0 65279 0 0 65279 0 0 65279 0 0 65279 0 0 65279 0 0 65279 0 0 65279 0 0 65279 0 0 65279 0 0 65279 0 0 65279 0 0 65279 0 0 65279 0 0 65279 0 0 65279 0 0 65279 0 0 65279 0 0 65279 0 0 65279 0 0 65279 0 0 65279 0 0 65279 0 0 65279 0 0 65279 0 0 65279 0 0 65279 0 0 65279 0 0 65279 0 0 65279 0 0 65279 0 0 65279 0 0 65279 0 0 65279 0 0 65279 0 0 65279 0 0 65279 0 0 65279 0 0 65279 0 0 65279 0 0 65279 0 0 65279 0 0 65279 0 0 65279 0 0 65279 0 0 65279 0 0 65279 0 0 65279 0 0 65279 0 0 65279 0 0 65279 0 0 65279 0 0 65279 0 0 65279 0 0 65279 0 0 65279 0 0 65279 0 0 65279 0 0 65279 0 0 65279 0 0 65279 0 0 65279 0 0 65279 0 0 65279 0 0 65279 0 0 65279 0 0 65279 0 0 65279 0 0 65279 0 0 65279 0 0 65279 0 0 65279 0 0 65279 0 0 65279 0 0 65279 0 0 65279 0 0 65279 0 0 65279 0 0 65279 0 0 65279 0 0 65279 0 0 65279 0 0 65279 0 0 65279 0 0 65279 0 0 65279 0 0 65279 0 0 65279 0 0 65279 0 0 65279 0 0 65279 0 0 65279 0 0 65279 0 0 65279 0 0 65279 0 0 65279 0 0 65279 0 0 65279 0 0 65279 0 0 65279 0 0 65279 0 0 65279 0 0 65279 0 0 65279 0 0 65279 0 0 65279 0 0 65279 0 0 65279 0 0 65279 0 0 65279 0 0 65279 0 0 65279 0 0 65279 0 0 65279 0 0 65279 0 0 65279 0 0 65279 0 0 65279 0 0 65279 0 0 65279 0 0 65279 0 0 65279 0 0 65279 0 0 65279 0 0 65279 0 0 65279 0 0 65279 0 0 65279 0 0 65279 0 0 65279 0 0 65279 0 0 65279 0 0 65279 0 0 65279 0 0 65279 0 0 65279 0 0 65279 0 0 65279 0 0 65279 0 0 65279 0 0 65279 0 0 65279 0 0 65279 0 0 65279 0 0 65279 0 0 65279 0 0 65279 0 0 65279 0 0 65279 0 0 65279 0 0 65279 0 0 65279 0 0 65279 0 0 65279 0 0 65279 0 0 65279 0 0 65279 0 0 65279 0 0 65279 0 0 65279 0 0 65279 0 0 65279 0 0 65279 0 0 65279 0 0 65279 0 0 65279 0 0 65279 0 0 65279 0 0 65279 0 0 65279 0 0 65279 0 0 65279 0 0 65279 0 0 65279 0 0 65279 0 0 65279 0 0 65279 0 0 65279 0 0 65279 0 0 65279 0 0 65279 0 0 65279 0 0 65279 0 0 65279 0 0 65279 0 0 65279 0 0 65279 0 0 65279 0 0 65279 0 0 65279 0 0 65279 0 0 65279 0 0 65279 0 0 65279 0 0 65279 0 0 65279 0 0 65279 0 0 65279 0 0 65279 0 0 65279 0 0 65279 0 0 65279 0 0 65279 0 0 65279 0 0 65279 0 0 65279 0 0 65279 0 0 65279 0 0 65279 0 0 65279 0 0 65279 0 0 65279 0 0 65279 0 0 65279 0 0 65279 0 0 65279 0 0 65279 0 0 65279 0 0 65279 0 0 65279 0 0 65279 0 0 65279 0 0 65279 0 0 65279 0 0 65279 0 0 65279 0 0 65279 0 0 65279 0 0 65279 0 0 65279 0 0 65279 0 0 65279 0 0 65279 0 0 65279 0 0 65279 0 0 65279 0 0 65279 0 0 65279 0 0 65279 0 0 65279 0 0 65279 0 0 65279 0 0 65279 0 0 65279 0 0 65279 0 0 65279 0 0 65279 0 0 65279 0 0 65279 0 0 65279 0 0 65279 0 0 65279 0 0 65279 0 0 65279 0 0 65279 0 0 65279 0 0 65279 0 0 65279 0 0 65279 0 0 65279 0 0 65279 0 0 65279 0 0 65279 0 0 65279 0 0 65279 0 0 65279 0 0 65279 0 0 65279 0 0 65279 0 0 65279 0 0 65279 0 0 65279 0 0 65279 0 0 65279 0 0 65279 0 0 65279 0 0 65279 0 0 65279 0 0 65279 0 0 65279 0 0 65279 0 0 65279 0 0 65279 0 0 65279 0 0 65279 0 0 65279 0 0 65279 0 0 65279 0 0 65279 0 0 65279 0 0 65279 0 0 65279 0 0 65279 0 0 65279 0 0 65279 0 0 65279 0 0 65279 0 0 65279 0 0 65279 0 0 65279 0 0 65279 0 0 65279 0 0 65279 0 0 65279 0 0 65279 0 0 65279 0 0 65279 0 0 65279 0 0 65279 0 0 65279 0 0 65279 0 0 65279 0 0 65279 0 0 65279 0 0 65279 0 0 65279 0 0 65279 0 0 65279 0 0 65279 0 0 65279 0 0 65279 0 0 65279 0 0 65279 0 0 65279 0 0 65279 0 0 65279 0 0 65279 0 0 65279 0 0 65279 0 0 65279 0 0 65279 0 0 65279 0 0 65279 0 0 65279 0 0 65279 0 0 65279 0 0 65279 0 0 65279 0 0 65279 0 0 65279 0 0 65279 0 0 65279 0 0 65279 0 0 65279 0 0 65279 0 0 65279 0 0 65279 0 0 65279 0 0 65279 0 0 65279 0 0 65279 0 0 65279 0 0 65279 0 0 65279 0 0 65279 0 0 65279 0 0 65279 0 0 65279 0 0 65279 0 0 65279 0 0 65279 0 0 65279 0 0 65279 0 0 65279 0 0 65279 0 0 65279 0 0 65279 0 0 65279 0 0 65279 0 0 65279 0 0 65279 0 0 65279 0 0 65279 0 0 65279 0 0 65279 0 0 65279 0 0 65279 0 0 65279 0 0 65279 0 0 65279 0 0 65279 0 0 65279 0 0 65279 0 0 65279 0 0 65279 0 0 65279 0 0 65279 0 0 65279 0 0 65279 0 0 65279 0 0 65279 0 0 65279 0 0 65279 0 0 65279 0 0 65279 0 0 65279 0 0 65279 0 0 65279 0 0 65279 0 0 65279 0 0 65279 0 0 65279 0 0 65279 0 0 65279 0 0 65279 0 0 65279 0 0 65279 0 0 65279 0 0 65279 0 0 65279 0 0 65279 0 0 65279 0 0 65279 0 0 65279 0 0 65279 0 0 65279 0 0 65279 0 0 65279 0 0 65279 0 0 65279 0 0 65279 0 0 65279 0 0 65279 0 0 65279 0 0 65279 0 0 65279 0 0 65279 0 0 65279 0 0 65279 0 0 65279 0 0 65279 0 0 65279 0 0 65279 0 0 65279 0 0 65279 0 0 65279 0 0 65279 0 0 65279 0 0 65279 0 0 65279 0 0 65279 0 0 65279 0 0 65279 0 0 65279 0 0 65279 0 0 65279 0 0 65279 0 0 65279 0 0 65279 0 0 65279 0 0 65279 0 0 65279 0 0 65279 0 0 65279 0 0 65279 0 0 65279 0 0 65279 0 0 65279 0 0 65279 0 0 65279 0 0 65279 0 0 65279 0 0 65279 0 0 65279 0 0 65279 0 0 65279 0 0 65279 0 0 65279 0 0 65279 0 0 65279 0 0 65279 0 0 65279 0 0 65279 0 0 65279 0 0 65279 0 0 65279 0 0 65279 0 0 65279 0 0 65279 0 0 65279 0 0 65279 0 0 65279 0 0 65279 0 0 65279 0 0 65279 0 0 65279 0 0 65279 0 0 65279 0 0 65279 0 0 65279 0 0 65279 0 0 65279 0 0 65279 0 0 65279 0 0 65279 0 0 65279 0 0 65279 0 0 65279 0 0 65279 0 0 65279 0 0 65279 0 0 65279 0 0 65279 0 0 65279 0 0 65279 0 0 65279 0 0 65279 0 0 65279 0 0 65279 0 0 65279 0 0 65279 0 0 65279 0 0 65279 0 0 65279 0 0 65279 0 0 65279 0 0 65279 0 0 65279 0 0 65279 0 0 65279 0 0 65279 0 0 65279 0 0 65279 0 0 65279 0 0 65279 0 0 65279 0 0 65279 0 0 65279 0 0 65279 0 0 65279 0 0 65279 0 0 65279 0 0 65279 0 0 65279 0 0 65279 0 0 65279 0 0 65279 0 0 65279 0 0 65279 0 0 65279 0 0 65279 0 0 65279 0 0 65279 0 0 65279 0 0 65279 0 0 65279 0 0 65279 0 0 65279 0 0 65279 0 0 65279 0 0 65279 0 0 65279 0 0 65279 0 0 65279 0 0 65279 0 0 65279 0 0 65279 0 0 65279 0 0 65279 0 0 65279 0 0 65279 0 0 65279 0 0 65279 0 0 65279 0 0 65279 0 0 65279 0 0 65279 0 0 65279 0 0 65279 0 0 65279 0 0 65279 0 0 65279 0 0 65279 0 0 65279 0 0 65279 0 0 65279 0 0 65279 0 0 65279 0 0 65279 0 0 65279 0 0 65279 0 0 65279 0 0 65279 0 0 65279 0 0 65279 0 0 65279 0 0 65279 0 0 65279 0 0 65279 0 0 65279 0 0 65279 0 0 65279 0 0 65279 0 0 65279 0 0 65279 0 0 65279 0 0 65279 0 0 65279 0 0 65279 0 0 65279 0 0 65279 0 0 65279 0 0 65279 0 0 65279 0 0 65279 0 0 65279 0 0 65279 0 0 65279 0 0 65279 0 0 65279 0 0 65279 0 0 65279 0 0 65279 0 0 65279 0 0 65279 0 0 65279 0 0 65279 0 0 65279 0 0 65279 0 0 65279 0 0 65279 0 0 65279 0 0 65279 0 0 65279 0 0 65279 0 0 65279 0 0 65279 0 0 65279 0 0 65279 0 0 65279 0 0 65279 0 0 65279 0 0 65279 0 0 65279 0 0 65279 0 0 65279 0 0 65279 0 0 65279 0 0 65279 0 0 65279 0 0 65279 0 0 65279 0 0 65279 0 0 65279 0 0 65279 0 0 65279 0 0 65279 0 0 65279 0 0 65279 0 0 65279 0 0 65279 0 0 65279 0 0 65279 0 0 65279 0 0 65279 0 0 65279 0 0 65279 0 0 65279 0 0 65279 0 0 65279 0 0 65279 0 0 65279 0 0 65279 0 0 65279 0 0 65279 0 0 65279 0 0 65279 0 0 65279 0 0 65279 0 0 65279 0 0 65279 0 0 65279 0 0 65279 0 0 65279 0 0 65279 0 0 65279 0 0 65279 0 0 65279 0 0 65279 0 0 65279 0 0 65279 0 0 65279 0 0 65279 0 0 65279 0 0 65279 0 0 65279 0 0 65279 0 0 65279 0 0 65279 0 0 65279 0 0 65279 0 0 65279 0 0 65279 0 0 65279 0 0 65279 0 0 65279 0 0 65279 0 0 65279 0 0 65279 0 0 65279 0 0 65279 0 0 65279 0 0 65279 0 0 65279 0 0 65279 0 0 65279 0 0 65279 0 0 65279 0 0 65279 0 0 65279 0 0 65279 0 0 65279 0 0 65279 0 0 65279 0 0 65279 0 0 65279 0 0 65279 0 0 65279 0 0 65279 0 0 65279 0 0 65279 0 0 65279 0 0 65279 0 0 65279 0 0 65279 0 0 65279 0 0 65279 0 0 65279 0 0 65279 0 0 65279 0 0 65279 0 0 65279 0 0 65279 0 0 65279 0 0 65279 0 0 65279 0 0 65279 0 0 65279 0 0 65279 0 0 65279 0 0 65279 0 0 65279 0 0 65279 0 0 65279 0 0 65279 0 0 65279 0 0 65279 0 0 65279 0 0 65279 0 0 65279 0 0 65279 0 0 65279 0 0 65279 0 0 65279 0 0 65279 0 0 65279 0 0 65279 0 0 65279 0 0 65279 0 0 65279 0 0 65279 0 0 65279 0 0 65279 0 0 65279 0 0 65279 0 0 65279 0 0 65279 0 0 65279 0 0 65279 0 0 65279 0 0 65279 0 0 65279 0 0 65279 0 0 65279 0 0 65279 0 0 65279 0 0 65279 0 0 65279 0 0 65279 0 0 65279 0 0 65279 0 0 65279 0 0 65279 0 0 65279 0 0 65279 0 0 65279 0 0 65279 0 0 65279 0 0 65279 0 0 65279 0 0 65279 0 0 65279 0 0 65279 0 0 65279 0 0 65279 0 0 65279 0 0 65279 0 0 65279 0 0 65279 0 0 65279 0 0 65279 0 0 65279 0 0 65279 0 0 65279 0 0 65279 0 0 65279 0 0 65279 0 0 65279 0 0 65279 0 0 65279 0 0 65279 0 0 65279 0 0 65279 0 0 65279 0 0 65279 0 0 65279 0 0 65279 0 0 65279 0 0 65279 0 0 65279 0 0 65279 0 0 65279 0 0 65279 0 0 65279 0 0 65279 0 0 65279 0 0 65279 0 0 65279 0 0 65279 0 0 65279 0 0 65279 0 0 65279 0 0 65279 0 0 65279 0 0 65279 0 0 65279 0 0 65279 0 0 65279 0 0 65279 0 0 65279 0 0 65279 0 0 65279 0 0 65279 0 0 65279 0 0 65279 0 0 65279 0 0 65279 0 0 65279 0 0 65279 0 0 65279 0 0 65279 0 0 65279 0 0 65279 0 0 65279 0 0 65279 0 0 65279 0 0 65279 0 0 65279 0 0 65279 0 0 65279 0 0 65279 0 0 65279 0 0 65279 0 0 65279 0 0 65279 0 0 65279 0 0 65279 0 0 65279 0 0 65279 0 0 65279 0 0 65279 0 0 65279 0 0 65279 0 0 65279 0 0 65279 0 0 65279 0 0 65279 0 0 65279 0 0 65279 0 0 65279 0 0 65279 0 0 65279 0 0 65279 0 0 65279 0 0 65279 0 0 65279 0 0 65279 0 0 65279 0 0 65279 0 0 65279 0 0 65279 0 0 65279 0 0 65279 0 0 65279 0 0 65279 0 0 65279 0 0 65279 0 0 65279 0 0 65279 0 0 65279 0 0 65279 0 0 65279 0 0 65279 0 0 65279 0 0 65279 0 0 65279 0 0 65279 0 0 65279 0 0 65279 0 0 65279 0 0 65279 0 0 65279 0 0 65279 0 0 65279 0 0 65279 0 0 65279 0 0 65279 0 0 65279 0 0 65279 0 0 65279 0 0 65279 0 0 65279 0 0 65279 0 0 65279 0 0 65279 0 0 65279 0 0 65279 0 0 65279 0 0 65279 0 0 65279 0 0 65279 0 0 65279 0 0 65279 0 0 65279 0 0 65279 0 0 65279 0 0 65279 0 0 65279 0 0 65279 0 0 65279 0 0 65279 0 0 65279 0 0 65279 0 0 65279 0 0 65279 0 0 65279 0 0 65279 0 0 65279 0 0 65279 0 0 65279 0 0 65279 0 0 65279 0 0 65279 0 0 65279 0 0 65279 0 0 65279 0 0 65279 0 0 65279 0 0 65279 0 0 65279 0 0 65279 0 0 65279 0 0 65279 0 0 65279 0 0 65279 0 0 65279 0 0 65279 0 0 65279 0 0 65279 0 0 65279 0 0 65279 0 0 65279 0 0 65279 0 0 65279 0 0 65279 0 0 65279 0 0 65279 0 0 65279 0 0 65279 0 0 65279 0 0 65279 0 0 65279 0 0 65279 0 0 65279 0 0 65279 0 0 65279 0 0 65279 0 0 65279 0 0 65279 0 0 65279 0 0 65279 0 0 65279 0 0 65279 0 0 65279 0 0 65279 0 0 65279 0 0 65279 0 0 65279 0 0 65279 0 0 65279 0 0 65279 0 0 65279 0 0 65279 0 0 65279 0 0 65279 0 0 65279 0 0 65279 0 0 65279 0 0 65279 0 0 65279 0 0 65279 0 0 65279 0 0 65279 0 0 65279 0 0 65279 0 0 65279 0 0 65279 0 0 65279 0 0 65279 0 0 65279 0 0 65279 0 0 65279 0 0 65279 0 0 65279 0 0 65279 0 0 65279 0 0 65279 0 0 65279 0 0 65279 0 0 65279 0 0 65279 0 0 65279 0 0 65279 0 0 65279 0 0 65279 0 0 65279 0 0 65279 0 0 65279 0 0 65279 0 0 65279 0 0 65279 0 0 65279 0 0 65279 0 0 65279 0 0 65279 0 0 65279 0 0 65279 0 0 65279 0 0 65279 0 0 65279 0 0 65279 0 0 65279 0 0 65279 0 0 65279 0 0 65279 0 0 65279 0 0 65279 0 0 65279 0 0 65279 0 0 65279 0 0 65279 0 0 65279 0 0 65279 0 0 65279 0 0 65279 0 0 65279 0 0 65279 0 0 65279 0 0 65279 0 0 65279 0 0 65279 0 0 65279 0 0 65279 0 0 65279 0 0 65279 0 0 65279 0 0 65279 0 0 65279 0 0 65279 0 0 65279 0 0 65279 0 0 65279 0 0 65279 0 0 65279 0 0 65279 0 0 65279 0 0 65279 0 0 65279 0 0 65279 0 0 65279 0 0 65279 0 0 65279 0 0 65279 0 0 65279 0 0 65279 0 0 65279 0 0 65279 0 0 65279 0 0 65279 0 0 65279 0 0 65279 0 0 65279 0 0 65279 0 0 65279 0 0 65279 0 0 65279 0 0 65279 0 0 65279 0 0 65279 0 0 65279 0 0 65279 0 0 65279 0 0 65279 0 0 65279 0 0 65279 0 0 65279 0 0 65279 0 0 65279 0 0 65279 0 0 65279 0 0 65279 0 0 65279 0 0 65279 0 0 65279 0 0 65279 0 0 65279 0 0 65279 0 0 65279 0 0 65279 0 0 65279 0 0 65279 0 0 65279 0 0 65279 0 0 65279 0 0 65279 0 0 65279 0 0 65279 0 0 65279 0 0 65279 0 0 65279 0 0 65279 0 0 65279 0 0 65279 0 0 65279 0 0 65279 0 0 65279 0 0 65279 0 0 65279 0 0 65279 0 0 65279 0 0 65279 0 0 65279 0 0 65279 0 0 65279 0 0 65279 0 0 65279 0 0 65279 0 0 65279 0 0 65279 0 0 65279 0 0 65279 0 0 65279 0 0 65279 0 0 65279 0 0 65279 0 0 65279 0 0 65279 0 0 65279 0 0 65279 0 0 65279 0 0 65279 0 0 65279 0 0 65279 0 0 65279 0 0 65279 0 0 65279 0 0 65279 0 0 65279 0 0 65279 0 0 65279 0 0 65279 0 0 65279 0 0 65279 0 0 65279 0 0 65279 0 0 65279 0 0 65279 0 0 65279 0 0 65279 0 0 65279 0 0 65279 0 0 65279 0 0 65279 0 0 65279 0 0 65279 0 0 65279 0 0 65279 0 0 65279 0 0 65279 0 0 65279 0 0 65279 0 0 65279 0 0 65279 0 0 65279 0 0 65279 0 0 65279 0 0 65279 0 0 65279 0 0 65279 0 0 65279 0 0 65279 0 0 65279 0 0 65279 0 0 65279 0 0 65279 0 0 65279 0 0 65279 0 0 65279 0 0 65279 0 0 65279 0 0 65279 0 0 65279 0 0 65279 0 0 65279 0 0 65279 0 0 65279 0 0 65279 0 0 65279 0 0 65279 0 0 65279 0 0 65279 0 0 65279 0 0 65279 0 0 65279 0 0 65279 0 0 65279 0 0 65279 0 0 65279 0 0 65279 0 0 65279 0 0 65279 0 0 65279 0 0 65279 0 0 65279 0 0 65279 0 0 65279 0 0 65279 0 0 65279 0 0 65279 0 0 65279 0 0 65279 0 0 65279 0 0 65279 0 0 65279 0 0 65279 0 0 65279 0 0 65279 0 0 65279 0 0 65279 0 0 65279 0 0 65279 0 0 65279 0 0 65279 0 0 65279 0 0 65279 0 0 65279 0 0 65279 0 0 65279 0 0 65279 0 0 65279 0 0 65279 0 0 65279 0 0 65279 0 0 65279 0 0 65279 0 0 65279 0 0 65279 0 0 65279 0 0 65279 0 0 65279 0 0 65279 0 0 65279 0 0 65279 0 0 65279 0 0 65279 0 0 65279 0 0 65279 0 0 65279 0 0 65279 0 0 65279 0 0 65279 0 0 65279 0 0 65279 0 0 65279 0 0 65279 0 0 65279 0 0 65279 0 0 65279 0 0 65279 0 0 65279 0 0 65279 0 0 65279 0 0 65279 0 0 65279 0 0 65279 0 0 65279 0 0 65279 0 0 65279 0 0 65279 0 0 65279 0 0 65279 0 0 65279 0 0 65279 0 0 65279 0 0 65279 0 0 65279 0 0 65279 0 0 65279 0 0 65279 0 0 65279 0 0 65279 0 0 65279 0 0 65279 0 0 65279 0 0 65279 0 0 65279 0 0 65279 0 0 65279 0 0 65279 0 0 65279 0 0 65279 0 0 65279 0 0 65279 0 0 65279 0 0 65279 0 0 65279 0 0 65279 0 0 65279 0 0 65279 0 0 65279 0 0 65279 0 0 65279 0 0 65279 0 0 65279 0 0 65279 0 0 65279 0 0 65279 0 0 65279 0 0 65279 0 0 65279 0 0 65279 0 0 65279 0 0 65279 0 0 65279 0 0 65279 0 0 65279 0 0 65279 0 0 65279 0 0 65279 0 0 65279 0 0 65279 0 0 65279 0 0 65279 0 0 65279 0 0 65279 0 0 65279 0 0 65279 0 0 65279 0 0 65279 0 0 65279 0 0 65279 0 0 65279 0 0 65279 0 0 65279 0 0 65279 0 0 65279 0 0 65279 0 0 65279 0 0 65279 0 0 65279 0 0 65279 0 0 65279 0 0 65279 0 0 65279 0 0 65279 0 0 65279 0 0 65279 0 0 65279 0 0 65279 0 0 65279 0 0 65279 0 0 65279 0 0 65279 0 0 65279 0 0 65279 0 0 65279 0 0 65279 0 0 65279 0 0 65279 0 0 65279 0 0 65279 0 0 65279 0 0 65279 0 0 65279 0 0 65279 0 0 65279 0 0 65279 0 0 65279 0 0 65279 0 0 65279 0 0 65279 0 0 65279 0 0 65279 0 0 65279 0 0 65279 0 0 65279 0 0 65279 0 0 65279 0 0 65279 0 0 65279 0 0 65279 0 0 65279 0 0 65279 0 0 65279 0 0 65279 0 0 65279 0 0 65279 0 0 65279 0 0 65279 0 0 65279 0 0 65279 0 0 65279 0 0 65279 0 0 65279 0 0 65279 0 0 65279 0 0 65279 0 0 65279 0 0 65279 0 0 65279 0 0 65279 0 0 65279 0 0 65279 0 0 65279 0 0 65279 0 0 65279 0 0 65279 0 0 65279 0 0 65279 0 0 65279 0 0 65279 0 0 65279 0 0 65279 0 0 65279 0 0 65279 0 0 65279 0 0 65279 0 0 65279 0 0 65279 0 0 65279 0 0 65279 0 0 65279 0 0 65279 0 0 65279 0 0 65279 0 0 65279 0 0 65279 0 0 65279 0 0 65279 0 0 65279 0 0 65279 0 0 65279 0 0 65279 0 0 65279 0 0 65279 0 0 65279 0 0 65279 0 0 65279 0 0 65279 0 0 65279 0 0 65279 0 0 65279 0 0 65279 0 0 65279 0 0 65279 0 0 65279 0 0 65279 0 0 65279 0 0 65279 0 0 65279 0 0 65279 0 0 65279 0 0 65279 0 0 65279 0 0 65279 0 0 65279 0 0 65279 0 0 65279 0 0 65279 0 0 65279 0 0 65279 0 0 65279 0 0 65279 0 0 65279 0 0 65279 0 0 65279 0 0 65279 0 0 65279 0 0 65279 0 0 65279 0 0 65279 0 0 65279 0 0 65279 0 0 65279 0 0 65279 0 0 65279 0 0 65279 0 0 65279 0 0 65279 0 0 65279 0 0 65279 0 0 65279 0 0 65279 0 0 65279 0 0 65279 0 0 65279 0 0 65279 0 0 65279 0 0 65279 0 0 65279 0 0 65279 0 0 65279 0 0 65279 0 0 65279 0 0 65279 0 0 65279 0 0 65279 0 0 65279 0 0 65279 0 0 65279 0 0 65279 0 0 65279 0 0 65279 0 0 65279 0 0 65279 0 0 65279 0 0 65279 0 0 65279 0 0 65279 0 0 65279 0 0 65279 0 0 65279 0 0 65279 0 0 65279 0 0 65279 0 0 65279 0 0 65279 0 0 65279 0 0 65279 0 0 65279 0 0 65279 0 0 65279 0 0 65279 0 0 65279 0 0 65279 0 0 65279 0 0 65279 0 0 65279 0 0 65279 0 0 65279 0 0 65279 0 0 65279 0 0 65279 0 0 65279 0 0 65279 0 0 65279 0 0 65279 0 0 65279 0 0 65279 0 0 65279 0 0 65279 0 0 65279 0 0 65279 0 0 65279 0 0 65279 0 0 65279 0 0 65279 0 0 65279 0 0 65279 0 0 65279 0 0 65279 0 0 65279 0 0 65279 0 0 65279 0 0 65279 0 0 65279 0 0 65279 0 0 65279 0 0 65279 0 0 65279 0 0 65279 0 0 65279 0 0 65279 0 0 65279 0 0 65279 0 0 65279 0 0 65279 0 0 65279 0 0 65279 0 0 65279 0 0 65279 0 0 65279 0 0 65279 0 0 65279 0 0 65279 0 0 65279 0 0 65279 0 0 65279 0 0 65279 0 0 65279 0 0 65279 0 0 65279 0 0 65279 0 0 65279 0 0 65279 0 0 65279 0 0 65279 0 0 65279 0 0 65279 0 0 65279 0 0 65279 0 0 65279 0 0 65279 0 0 65279 0 0 65279 0 0 65279 0 0 65279 0 0 65279 0 0 65279 0 0 65279 0 0 65279 0 0 65279 0 0 65279 0 0 65279 0 0 65279 0 0 65279 0 0 65279 0 0 65279 0 0 65279 0 0 65279 0 0 65279 0 0 65279 0 0 65279 0 0 65279 0 0 65279 0 0 65279 0 0 65279 0 0 65279 0 0 65279 0 0 65279 0 0 65279 0 0 65279 0 0 65279 0 0 65279 0 0 65279 0 0 65279 0 0 65279 0 0 65279 0 0 65279 0 0 65279 0 0 65279 0 0 65279 0 0 65279 0 0 65279 0 0 65279 0 0 65279 0 0 65279 0 0 65279 0 0 65279 0 0 65279 0 0 65279 0 0 65279 0 0 65279 0 0 65279 0 0 65279 0 0 65279 0 0 65279 0 0 65279 0 0 65279 0 0 65279 0 0 65279 0 0 65279 0 0 65279 0 0 65279 0 0 65279 0 0 65279 0 0 65279 0 0 65279 0 0 65279 0 0 65279 0 0 65279 0 0 65279 0 0 65279 0 0 65279 0 0 65279 0 0 65279 0 0 65279 0 0 65279 0 0 65279 0 0 65279 0 0 65279 0 0 65279 0 0 65279 0 0 65279 0 0 65279 0 0 65279 0 0 65279 0 0 65279 0 0 65279 0 0 65279 0 0 65279 0 0 65279 0 0 65279 0 0 65279 0 0 65279 0 0 65279 0 0 65279 0 0 65279 0 0 65279 0 0 65279 0 0 65279 0 0 65279 0 0 65279 0 0 65279 0 0 65279 0 0 65279 0 0 65279 0 0 65279 0 0 65279 0 0 65279 0 0 65279 0 0 65279 0 0 65279 0 0 65279 0 0 65279 0 0 65279 0 0 65279 0 0 65279 0 0 65279 0 0 65279 0 0 65279 0 0 65279 0 0 65279 0 0 65279 0 0 65279 0 0 65279 0 0 65279 0 0 65279 0 0 65279 0 0 65279 0 0 65279 0 0 65279 0 0 65279 0 0 65279 0 0 65279 0 0 65279 0 0 65279 0 0 65279 0 0 65279 0 0 65279 0 0 65279 0 0 65279 0 0 65279 0 0 65279 0 0 65279 0 0 65279 0 0 65279 0 0 65279 0 0 65279 0 0 65279 0 0 65279 0 0 65279 0 0 65279 0 0 65279 0 0 65279 0 0 65279 0 0 65279 0 0 65279 0 0 65279 0 0 65279 0 0 65279 0 0 65279 0 0 65279 0 0 65279 0 0 65279 0 0 65279 0 0 65279 0 0 65279 0 0 65279 0 0 65279 0 0 65279 0 0 65279 0 0 65279 0 0 65279 0 0 65279 0 0 65279 0 0 65279 0 0 65279 0 0 65279 0 0 65279 0 0 65279 0 0 65279 0 0 65279 0 0 65279 0 0 65279 0 0 65279 0 0 65279 0 0 65279 0 0 65279 0 0 65279 0 0 65279 0 0 65279 0 0 65279 0 0 65279 0 0 65279 0 0 65279 0 0 65279 0 0 65279 0 0 65279 0 0 65279 0 0 65279 0 0 65279 0 0 65279 0 0 65279 0 0 65279 0 0 65279 0 0 65279 0 0 65279 0 0 65279 0 0 65279 0 0 65279 0 0 65279 0 0 65279 0 0 65279 0 0 65279 0 0 65279 0 0 65279 0 0 65279 0 0 65279 0 0 65279 0 0 65279 0 0 65279 0 0 65279 0 0 65279 0 0 65279 0 0 65279 0 0 65279 0 0 65279 0 0 65279 0 0 65279 0 0 65279 0 0 65279 0 0 65279 0 0 65279 0 0 65279 0 0 65279 0 0 65279 0 0 65279 0 0 65279 0 0 65279 0 0 65279 0 0 65279 0 0 65279 0 0 65279 0 0 65279 0 0 65279 0 0 65279 0 0 65279 0 0 65279 0 0 65279 0 0 65279 0 0 65279 0 0 65279 0 0 65279 0 0 65279 0 0 65279 0 0 65279 0 0 65279 0 0 65279 0 0 65279 0 0 65279 0 0 65279 0 0 65279 0 0 65279 0 0 65279 0 0 65279 0 0 65279 0 0 65279 0 0 65279 0 0 65279 0 0 65279 0 0 65279 0 0 65279 0 0 65279 0 0 65279 0 0 65279 0 0 65279 0 0 65279 0 0 65279 0 0 65279 0 0 65279 0 0 65279 0 0 65279 0 0 65279 0 0 65279 0 0 65279 0 0 65279 0 0 65279 0 0 65279 0 0 65279 0 0 65279 0 0 65279 0 0 65279 0 0 65279 0 0 65279 0 0 65279 0 0 65279 0 0 65279 0 0 65279 0 0 65279 0 0 65279 0 0 65279 0 0 65279 0 0 65279 0 0 65279 0 0 65279 0 0 65279 0 0 65279 0 0 65279 0 0 65279 0 0 65279 0 0 65279 0 0 65279 0 0 65279 0 0 65279 0 0 65279 0 0 65279 0 0 65279 0 0 65279 0 0 65279 0 0 65279 0 0 65279 0 0 65279 0 0 65279 0 0 65279 0 0 65279 0 0 65279 0 0 65279 0 0 65279 0 0 65279 0 0 65279 0 0 65279 0 0 65279 0 0 65279 0 0 65279 0 0 65279 0 0 65279 0 0 65279 0 0 65279 0 0 65279 0 0 65279 0 0 65279 0 0 65279 0 0 65279 0 0 65279 0 0 65279 0 0 65279 0 0 65279 0 0 65279 0 0 65279 0 0 65279 0 0 65279 0 0 65279 0 0 65279 0 0 65279 0 0 65279 0 0 65279 0 0 65279 0 0 65279 0 0 65279 0 0 65279 0 0 65279 0 0 65279 0 0 65279 0 0 65279 0 0 65279 0 0 65279 0 0 65279 0 0 65279 0 0 65279 0 0 65279 0 0 65279 0 0 65279 0 0 65279 0 0 65279 0 0 65279 0 0 65279 0 0 65279 0 0 65279 0 0 65279 0 0 65279 0 0 65279 0 0 65279 0 0 65279 0 0 65279 0 0 65279 0 0 65279 0 0 65279 0 0 65279 0 0 65279 0 0 65279 0 0 65279 0 0 65279 0 0 65279 0 0 65279 0 0 65279 0 0 65279 0 0 65279 0 0 65279 0 0 65279 0 0 65279 0 0 65279 0 0 65279 0 0 65279 0 0 65279 0 0 65279 0 0 65279 0 0 65279 0 0 65279 0 0 65279 0 0 65279 0 0 65279 0 0 65279 0 0 65279 0 0 65279 0 0 65279 0 0 65279 0 0 65279 0 0 65279 0 0 65279 0 0 65279 0 0 65279 0 0 65279 0 0 65279 0 0 65279 0 0 65279 0 0 65279 0 0 65279 0 0 65279 0 0 65279 0 0 65279 0 0 65279 0 0 65279 0 0 65279 0 0 65279 0 0 65279 0 0 65279 0 0 65279 0 0 65279 0 0 65279 0 0 65279 0 0 65279 0 0 65279 0 0 65279 0 0 65279 0 0 65279 0 0 65279 0 0 65279 0 0 65279 0 0 65279 0 0 65279 0 0 65279 0 0 65279 0 0 65279 0 0 65279 0 0 65279 0 0 65279 0 0 65279 0 0 65279 0 0 65279 0 0 65279 0 0 65279 0 0 65279 0 0 65279 0 0 65279 0 0 65279 0 0 65279 0 0 65279 0 0 65279 0 0 65279 0 0 65279 0 0 65279 0 0 65279 0 0 65279 0 0 65279 0 0 65279 0 0 65279 0 0 65279 0 0 65279 0 0 65279 0 0 65279 0 0 65279 0 0 65279 0 0 65279 0 0 65279 0 0 65279 0 0 65279 0 0 65279 0 0 65279 0 0 65279 0 0 65279 0 0 65279 0 0 65279 0 0 65279 0 0 65279 0 0 65279 0 0 65279 0 0 65279 0 0 65279 0 0 65279 0 0 65279 0 0 65279 0 0 65279 0 0 65279 0 0 65279 0 0 65279 0 0 65279 0 0 65279 0 0 65279 0 0 65279 0 0 65279 0 0 65279 0 0 65279 0 0 65279 0 0 65279 0 0 65279 0 0 65279 0 0 65279 0 0 65279 0 0 65279 0 0 65279 0 0 65279 0 0 65279 0 0 65279 0 0 65279 0 0 65279 0 0 65279 0 0 65279 0 0 65279 0 0 65279 0 0 65279 0 0 65279 0 0 65279 0 0 65279 0 0 65279 0 0 65279 0 0 65279 0 0 65279 0 0 65279 0 0 65279 0 0 65279 0 0 65279 0 0 65279 0 0 65279 0 0 65279 0 0 65279 0 0 65279 0 0 65279 0 0 65279 0 0 65279 0 0 65279 0 0 65279 0 0 65279 0 0 65279 0 0 65279 0 0 65279 0 0 65279 0 0 65279 0 0 65279 0 0 65279 0 0 65279 0 0 65279 0 0 65279 0 0 65279 0 0 65279 0 0 65279 0 0 65279 0 0 65279 0 0 65279 0 0 65279 0 0 65279 0 0 65279 0 0 65279 0 0 65279 0 0 65279 0 0 65279 0 0 65279 0 0 65279 0 0 65279 0 0 65279 0 0 65279 0 0 65279 0 0 65279 0 0 65279 0 0 65279 0 0 65279 0 0 65279 0 0 65279 0 0 65279 0 0 65279 0 0 65279 0 0 65279 0 0 65279 0 0 65279 0 0 65279 0 0 65279 0 0 65279 0 0 65279 0 0 65279 0 0 65279 0 0 65279 0 0 65279 0 0 65279 0 0 65279 0 0 65279 0 0 65279 0 0 65279 0 0 65279 0 0 65279 0 0 65279 0 0 65279 0 0 65279 0 0 65279 0 0 65279 0 0 65279 0 0 65279 0 0 65279 0 0 65279 0 0 65279 0 0 65279 0 0 65279 0 0 65279 0 0 65279 0 0 65279 0 0 65279 0 0 65279 0 0 65279 0 0 65279 0 0 65279 0 0 65279 0 0 65279 0 0 65279 0 0 65279 0 0 65279 0 0 65279 0 0 65279 0 0 65279 0 0 65279 0 0 65279 0 0 65279 0 0 65279 0 0 65279 0 0 65279 0 0 65279 0 0 65279 0 0 65279 0 0 65279 0 0 65279 0 0 65279 0 0 65279 0 0 65279 0 0 65279 0 0 65279 0 0 65279 0 0 65279 0 0 65279 0 0 65279 0 0 65279 0 0 65279 0 0 65279 0 0 65279 0 0 65279 0 0 65279 0 0 65279 0 0 65279 0 0 65279 0 0 65279 0 0 65279 0 0 65279 0 0 65279 0 0 65279 0 0 65279 0 0 65279 0 0 65279 0 0 65279 0 0 65279 0 0 65279 0 0 65279 0 0 65279 0 0 65279 0 0 65279 0 0 65279 0 0 65279 0 0 65279 0 0 65279 0 0 65279 0 0 65279 0 0 65279 0 0 65279 0 0 65279 0 0 65279 0 0 65279 0 0 65279 0 0 65279 0 0 65279 0 0 65279 0 0 65279 0 0 65279 0 0 65279 0 0 65279 0 0 65279 0 0 65279 0 0 65279 0 0 65279 0 0 65279 0 0 65279 0 0 65279 0 0 65279 0 0 65279 0 0 65279 0 0 65279 0 0 65279 0 0 65279 0 0 65279 0 0 65279 0 0 65279 0 0 65279 0 0 65279 0 0 65279 0 0 65279 0 0 65279 0 0 65279 0 0 65279 0 0 65279 0 0 65279 0 0 65279 0 0 65279 0 0 65279 0 0 65279 0 0 65279 0 0 65279 0 0 65279 0 0 65279 0 0 65279 0 0 65279 0 0 65279 0 0 65279 0 0 65279 0 0 65279 0 0 65279 0 0 65279 0 0 65279 0 0 65279 0 0 65279 0 0 65279 0 0 65279 0 0 65279 0 0 65279 0 0 65279 0 0 65279 0 0 65279 0 0 65279 0 0 65279 0 0 65279 0 0 65279 0 0 65279 0 0 65279 0 0 65279 0 0 65279 0 0 65279 0 0 65279 0 0 65279 0 0 65279 0 0 65279 0 0 65279 0 0 65279 0 0 65279 0 0 65279 0 0 65279 0 0 65279 0 0 65279 0 0 65279 0 0 65279 0 0 65279 0 0 65279 0 0 65279 0 0 65279 0 0 65279 0 0 65279 0 0 65279 0 0 65279 0 0 65279 0 0 65279 0 0 65279 0 0 65279 0 0 65279 0 0 65279 0 0 65279 0 0 65279 0 0 65279 0 0 65279 0 0 65279 0 0 65279 0 0 65279 0 0 65279 0 0 65279 0 0 65279 0 0 65279 0 0 65279 0 0 65279 0 0 65279 0 0 65279 0 0 65279 0 0 65279 0 0 65279 0 0 65279 0 0 65279 0 0 65279 0 0 65279 0 0 65279 0 0 65279 0 0 65279 0 0 65279 0 0 65279 0 0 65279 0 0 65279 0 0 65279 0 0 65279 0 0 65279 0 0 65279 0 0 65279 0 0 65279 0 0 65279 0 0 65279 0 0 65279 0 0 65279 0 0 65279 0 0 65279 0 0 65279 0 0 65279 0 0 65279 0 0 65279 0 0 65279 0 0 65279 0 0 65279 0 0 65279 0 0 65279 0 0 65279 0 0 65279 0 0 65279 0 0 65279 0 0 65279 0 0 65279 0 0 65279 0 0 65279 0 0 65279 0 0 65279 0 0 65279 0 0 65279 0 0 65279 0 0 65279 0 0 65279 0 0 65279 0 0 65279 0 0 65279 0 0 65279 0 0 65279 0 0 65279 0 0 65279 0 0 65279 0 0 65279 0 0 65279 0 0 65279 0 0 65279 0 0 65279 0 0 65279 0 0 65279 0 0 65279 0 0 65279 0 0 65279 0 0 65279 0 0 65279 0 0 65279 0 0 65279 0 0 65279 0 0 65279 0 0 65279 0 0 65279 0 0 65279 0 0 65279 0 0 65279 0 0 65279 0 0 65279 0 0 65279 0 0 65279 0 0 65279 0 0 65279 0 0 65279 0 0 65279 0 0 65279 0 0 65279 0 0 65279 0 0 65279 0 0 65279 0 0 65279 0 0 65279 0 0 65279 0 0 65279 0 0 65279 0 0 65279 0 0 65279 0 0 65279 0 0 65279 0 0 65279 0 0 65279 0 0 65279 0 0 65279 0 0 65279 0 0 65279 0 0 65279 0 0 65279 0 0 65279 0 0 65279 0 0 65279 0 0 65279 0 0 65279 0 0 65279 0 0 65279 0 0 65279 0 0 65279 0 0 65279 0 0 65279 0 0 65279 0 0 65279 0 0 65279 0 0 65279 0 0 65279 0 0 65279 0 0 65279 0 0 65279 0 0 65279 0 0 65279 0 0 65279 0 0 65279 0 0 65279 0 0 65279 0 0 65279 0 0 65279 0 0 65279 0 0 65279 0 0 65279 0 0 65279 0 0 65279 0 0 65279 0 0 65279 0 0 65279 0 0 65279 0 0 65279 0 0 65279 0 0 65279 0 0 65279 0 0 65279 0 0 65279 0 0 65279 0 0 65279 0 0 65279 0 0 65279 0 0 65279 0 0 65279 0 0 65279 0 0 65279 0 0 65279 0 0 65279 0 0 65279 0 0 65279 0 0 65279 0 0 65279 0 0 65279 0 0 65279 0 0 65279 0 0 65279 0 0 65279 0 0 65279 0 0 65279 0 0 65279 0 0 65279 0 0 65279 0 0 65279 0 0 65279 0 0 65279 0 0 65279 0 0 65279 0 0 65279 0 0 65279 0 0 65279 0 0 65279 0 0 65279 0 0 65279 0 0 65279 0 0 65279 0 0 65279 0 0 65279 0 0 65279 0 0 65279 0 0 65279 0 0 65279 0 0 65279 0 0 65279 0 0 65279 0 0 65279 0 0 65279 0 0 65279 0 0 65279 0 0 65279 0 0 65279 0 0 65279 0 0 65279 0 0 65279 0 0 65279 0 0 65279 0 0 65279 0 0 65279 0 0 65279 0 0 65279 0 0 65279 0 0 65279 0 0 65279 0 0 65279 0 0 65279 0 0 65279 0 0 65279 0 0 65279 0 0 65279 0 0 65279 0 0 65279 0 0 65279 0 0 65279 0 0 65279 0 0 65279 0 0 65279 0 0 65279 0 0 65279 0 0 65279 0 0 65279 0 0 65279 0 0 65279 0 0 65279 0 0 65279 0 0 65279 0 0 65279 0 0 65279 0 0 65279 0 0 65279 0 0 65279 0 0 65279 0 0 65279 0 0 65279 0 0 65279 0 0 65279 0 0 65279 0 0 65279 0 0 65279 0 0 65279 0 0 65279 0 0 65279 0 0 65279 0 0 65279 0 0 65279 0 0 65279 0 0 65279 0 0 65279 0 0 65279 0 0 65279 0 0 65279 0 0 65279 0 0 65279 0 0 65279 0 0 65279 0 0 65279 0 0 65279 0 0 65279 0 0 65279 0 0 65279 0 0 65279 0 0 65279 0 0 65279 0 0 65279 0 0 65279 0 0 65279 0 0 65279 0 0 65279 0 0 65279 0 0 65279 0 0 65279 0 0 65279 0 0 65279 0 0 65279 0 0 65279 0 0 65279 0 0 65279 0 0 65279 0 0 65279 0 0 65279 0 0 65279 0 0 65279 0 0 65279 0 0 65279 0 0 65279 0 0 65279 0 0 65279 0 0 65279 0 0 65279 0 0 65279 0 0 65279 0 0 65279 0 0 65279 0 0 65279 0 0 65279 0 0 65279 0 0 65279 0 0 65279 0 0 65279 0 0 65279 0 0 65279 0 0 65279 0 0 65279 0 0 65279 0 0 65279 0 0 65279 0 0 65279 0 0 65279 0 0 65279 0 0 65279 0 0 65279 0 0 65279 0 0 65279 0 0 65279 0 0 65279 0 0 65279 0 0 65279 0 0 65279 0 0 65279 0 0 65279 0 0 65279 0 0 65279 0 0 65279 0 0 65279 0 0 65279 0 0 65279 0 0 65279 0 0 65279 0 0 65279 0 0 65279 0 0 65279 0 0 65279 0 0 65279 0 0 65279 0 0 65279 0 0 65279 0 0 65279 0 0 65279 0 0 65279 0 0 65279 0 0 65279 0 0 65279 0 0 65279 0 0 65279 0 0 65279 0 0 65279 0 0 65279 0 0 65279 0 0 65279 0 0 65279 0 0 65279 0 0 65279 0 0 65279 0 0 65279 0 0 65279 0 0 65279 0 0 65279 0 0 65279 0 0 65279 0 0 65279 0 0 65279 0 0 65279 0 0 65279 0 0 65279 0 0 65279 0 0 65279 0 0 65279 0 0 65279 0 0 65279 0 0 65279 0 0 65279 0 0 65279 0 0 65279 0 0 65279 0 0 65279 0 0 65279 0 0 65279 0 0 65279 0 0 65279 0 0 65279 0 0 65279 0 0 65279 0 0 65279 0 0 65279 0 0 65279 0 0 65279 0 0 65279 0 0 65279 0 0 65279 0 0 65279 0 0 65279 0 0 65279 0 0 65279 0 0 65279 0 0 65279 0 0 65279 0 0 65279 0 0 65279 0 0 65279 0 0 65279 0 0 65279 0 0 65279 0 0 65279 0 0 65279 0 0 65279 0 0 65279 0 0 65279 0 0 65279 0 0 65279 0 0 65279 0 0 65279 0 0 65279 0 0 65279 0 0 65279 0 0 65279 0 0 65279 0 0 65279 0 0 65279 0 0 65279 0 0 65279 0 0 65279 0 0 65279 0 0 65279 0 0 65279 0 0 65279 0 0 65279 0 0 65279 0 0 65279 0 0 65279 0 0 65279 0 0 65279 0 0 65279 0 0 65279 0 0 65279 0 0 65279 0 0 65279 0 0 65279 0 0 65279 0 0 65279 0 0 65279 0 0 65279 0 0 65279 0 0 65279 0 0 65279 0 0 65279 0 0 65279 0 0 65279 0 0 65279 0 0 65279 0 0 65279 0 0 65279 0 0 65279 0 0 65279 0 0 65279 0 0 65279 0 0 65279 0 0 65279 0 0 65279 0 0 65279 0 0 65279 0 0 65279 0 0 65279 0 0 65279 0 0 65279 0 0 65279 0 0 65279 0 0 65279 0 0 65279 0 0 65279 0 0 65279 0 0 65279 0 0 65279 0 0 65279 0 0 65279 0 0 65279 0 0 65279 0 0 65279 0 0 65279 0 0 65279 0 0 65279 0 0 65279 0 0 65279 0 0 65279 0 0 65279 0 0 65279 0 0 65279 0 0 65279 0 0 65279 0 0 65279 0 0 65279 0 0 65279 0 0 65279 0 0 65279 0 0 65279 0 0 65279 0 0 65279 0 0 65279 0 0 65279 0 0 65279 0 0 65279 0 0 65279 0 0 65279 0 0 65279 0 0 65279 0 0 65279 0 0 65279 0 0 65279 0 0 65279 0 0 65279 0 0 65279 0 0 65279 0 0 65279 0 0 65279 0 0 65279 0 0 65279 0 0 65279 0 0 65279 0 0 65279 0 0 65279 0 0 65279 0 0 65279 0 0 65279 0 0 65279 0 0 65279 0 0 65279 0 0 65279 0 0 65279 0 0 65279 0 0 65279 0 0 65279 0 0 65279 0 0 65279 0 0 65279 0 0 65279 0 0 65279 0 0 65279 0 0 65279 0 0 65279 0 0 65279 0 0 65279 0 0 65279 0 0 65279 0 0 65279 0 0 65279 0 0 65279 0 0 65279 0 0 65279 0 0 65279 0 0 65279 0 0 65279 0 0 65279 0 0 65279 0 0 65279 0 0 65279 0 0 65279 0 0 65279 0 0 65279 0 0 65279 0 0 65279 0 0 65279 0 0 65279 0 0 65279 0 0 65279 0 0 65279 0 0 65279 0 0 65279 0 0 65279 0 0 65279 0 0 65279 0 0 65279 0 0 65279 0 0 65279 0 0 65279 0 0 65279 0 0 65279 0 0 65279 0 0 65279 0 0 65279 0 0 65279 0 0 65279 0 0 65279 0 0 65279 0 0 65279 0 0 65279 0 0 65279 0 0 65279 0 0 65279 0 0 65279 0 0 65279 0 0 65279 0 0 65279 0 0 65279 0 0 65279 0 0 65279 0 0 65279 0 0 65279 0 0 65279 0 0 65279 0 0 65279 0 0 65279 0 0 65279 0 0 65279 0 0 65279 0 0 65279 0 0 65279 0 0 65279 0 0 65279 0 0 65279 0 0 65279 0 0 65279 0 0 65279 0 0 65279 0 0 65279 0 0 65279 0 0 65279 0 0 65279 0 0 65279 0 0 65279 0 0 65279 0 0 65279 0 0 65279 0 0 65279 0 0 65279 0 0 65279 0 0 65279 0 0 65279 0 0 65279 0 0 65279 0 0 65279 0 0 65279 0 0 65279 0 0 65279 0 0 65279 0 0 65279 0 0 65279 0 0 65279 0 0 65279 0 0 65279 0 0 65279 0 0 65279 0 0 65279 0 0 65279 0 0 65279 0 0 65279 0 0 65279 0 0 65279 0 0 65279 0 0 65279 0 0 65279 0 0 65279 0 0 65279 0 0 65279 0 0 65279 0 0 65279 0 0 65279 0 0 65279 0 0 65279 0 0 65279 0 0 65279 0 0 65279 0 0 65279 0 0 65279 0 0 65279 0 0 65279 0 0 65279 0 0 65279 0 0 65279 0 0 65279 0 0 65279 0 0 65279 0 0 65279 0 0 65279 0 0 65279 0 0 65279 0 0 65279 0 0 65279 0 0 65279 0 0 65279 0 0 65279 0 0 65279 0 0 65279 0 0 65279 0 0 65279 0 0 65279 0 0 65279 0 0 65279 0 0 65279 0 0 65279 0 0 65279 0 0 65279 0 0 65279 0 0 65279 0 0 65279 0 0 65279 0 0 65279 0 0 65279 0 0 65279 0 0 65279 0 0 65279 0 0 65279 0 0 65279 0 0 65279 0 0 65279 0 0 65279 0 0 65279 0 0 65279 0 0 65279 0 0 65279 0 0 65279 0 0 65279 0 0 65279 0 0 65279 0 0 65279 0 0 65279 0 0 65279 0 0 65279 0 0 65279 0 0 65279 0 0 65279 0 0 65279 0 0 65279 0 0 65279 0 0 65279 0 0 65279 0 0 65279 0 0 65279 0 0 65279 0 0 65279 0 0 65279 0 0 65279 0 0 65279 0 0 65279 0 0 65279 0 0 65279 0 0 65279 0 0 65279 0 0 65279 0 0 65279 0 0 65279 0 0 65279 0 0 65279 0 0 65279 0 0 65279 0 0 65279 0 0 65279 0 0 65279 0 0 65279 0 0 65279 0 0 65279 0 0 65279 0 0 65279 0 0 65279 0 0 65279 0 0 65279 0 0 65279 0 0 65279 0 0 65279 0 0 65279 0 0 65279 0 0 65279 0 0 65279 0 0 65279 0 0 65279 0 0 65279 0 0 65279 0 0 65279 0 0 65279 0 0 65279 0 0 65279 0 0 65279 0 0 65279 0 0 65279 0 0 65279 0 0 65279 0 0 65279 0 0 65279 0 0 65279 0 0 65279 0 0 65279 0 0 65279 0 0 65279 0 0 65279 0 0 65279 0 0 65279 0 0 65279 0 0 65279 0 0 65279 0 0 65279 0 0 65279 0 0 65279 0 0 65279 0 0 65279 0 0 65279 0 0 65279 0 0 65279 0 0 65279 0 0 65279 0 0 65279 0 0 65279 0 0 65279 0 0 65279 0 0 65279 0 0 65279 0 0 65279 0 0 65279 0 0 65279 0 0 65279 0 0 65279 0 0 65279 0 0 65279 0 0 65279 0 0 65279 0 0 65279 0 0 65279 0 0 65279 0 0 65279 0 0 65279 0 0 65279 0 0 65279 0 0 65279 0 0 65279 0 0 65279 0 0 65279 0 0 65279 0 0 65279 0 0 65279 0 0 65279 0 0 65279 0 0 65279 0 0 65279 0 0 65279 0 0 65279 0 0 65279 0 0 65279 0 0 65279 0 0 65279 0 0 65279 0 0 65279 0 0 65279 0 0 65279 0 0 65279 0 0 65279 0 0 65279 0 0 65279 0 0 65279 0 0 65279 0 0 65279 0 0 65279 0 0 65279 0 0 65279 0 0 65279 0 0 65279 0 0 65279 0 0 65279 0 0 65279 0 0 65279 0 0 65279 0 0 65279 0 0 65279 0 0 65279 0 0 65279 0 0 65279 0 0 65279 0 0 65279 0 0 65279 0 0 65279 0 0 65279 0 0 65279 0 0 65279 0 0 65279 0 0 65279 0 0 65279 0 0 65279 0 0 65279 0 0 65279 0 0 65279 0 0 65279 0 0 65279 0 0 65279 0 0 65279 0 0 65279 0 0 65279 0 0 65279 0 0 65279 0 0 65279 0 0 65279 0 0 65279 0 0 65279 0 0 65279 0 0 65279 0 0 65279 0 0 65279 0 0 65279 0 0 65279 0 0 65279 0 0 65279 0 0 65279 0 0 65279 0 0 65279 0 0 65279 0 0 65279 0 0 65279 0 0 65279 0 0 65279 0 0 65279 0 0 65279 0 0 65279 0 0 65279 0 0 65279 0 0 65279 0 0 65279 0 0 65279 0 0 65279 0 0 65279 0 0 65279 0 0 65279 0 0 65279 0 0 65279 0 0 65279 0 0 65279 0 0 65279 0 0 65279 0 0 65279 0 0 65279 0 0 65279 0 0 65279 0 0 65279 0 0 65279 0 0 65279 0 0 65279 0 0 65279 0 0 65279 0 0 65279 0 0 65279 0 0 65279 0 0 65279 0 0 65279 0 0 65279 0 0 65279 0 0 65279 0 0 65279 0 0 65279 0 0 65279 0 0 65279 0 0 65279 0 0 65279 0 0 65279 0 0 65279 0 0 65279 0 0 65279 0 0 65279 0 0 65279 0 0 65279 0 0 65279 0 0 65279 0 0 65279 0 0 65279 0 0 65279 0 0 65279 0 0 65279 0 0 65279 0 0 65279 0 0 65279 0 0 65279 0 0 65279 0 0 65279 0 0 65279 0 0 65279 0 0 65279 0 0 65279 0 0 65279 0 0 65279 0 0 65279 0 0 65279 0 0 65279 0 0 65279 0 0 65279 0 0 65279 0 0 65279 0 0 65279 0 0 65279 0 0 65279 0 0 65279 0 0 65279 0 0 65279 0 0 65279 0 0 65279 0 0 65279 0 0 65279 0 0 65279 0 0 65279 0 0 65279 0 0 65279 0 0 65279 0 0 65279 0 0 65279 0 0 65279 0 0 65279 0 0 65279 0 0 65279 0 0 65279 0 0 65279 0 0 65279 0 0 65279 0 0 65279 0 0 65279 0 0 65279 0 0 65279 0 0 65279 0 0 65279 0 0 65279 0 0 65279 0 0 65279 0 0 65279 0 0 65279 0 0 65279 0 0 65279 0 0 65279 0 0 65279 0 0 65279 0 0 65279 0 0 65279 0 0 65279 0 0 65279 0 0 65279 0 0 65279 0 0 65279 0 0 65279 0 0 65279 0 0 65279 0 0 65279 0 0 65279 0 0 65279 0 0 65279 0 0 65279 0 0 65279 0 0 65279 0 0 65279 0 0 65279 0 0 65279 0 0 65279 0 0 65279 0 0 65279 0 0 65279 0 0 65279 0 0 65279 0 0 65279 0 0 65279 0 0 65279 0 0 65279 0 0 65279 0 0 65279 0 0 65279 0 0 65279 0 0 65279 0 0 65279 0 0 65279 0 0 65279 0 0 65279 0 0 65279 0 0 65279 0 0 65279 0 0 65279 0 0 65279 0 0 65279 0 0 65279 0 0 65279 0 0 65279 0 0 65279 0 0 65279 0 0 65279 0 0 65279 0 0 65279 0 0 65279 0 0 65279 0 0 65279 0 0 65279 0 0 65279 0 0 65279 0 0 65279 0 0 65279 0 0 65279 0 0 65279 0 0 65279 0 0 65279 0 0 65279 0 0 65279 0 0 65279 0 0 65279 0 0 65279 0 0 65279 0 0 65279 0 0 65279 0 0 65279 0 0 65279 0 0 65279 0 0 65279 0 0 65279 0 0 65279 0 0 65279 0 0 65279 0 0 65279 0 0 65279 0 0 65279 0 0 65279 0 0 65279 0 0 65279 0 0 65279 0 0 65279 0 0 65279 0 0 65279 0 0 65279 0 0 65279 0 0 65279 0 0 65279 0 0 65279 0 0 65279 0 0 65279 0 0 65279 0 0 65279 0 0 65279 0 0 65279 0 0 65279 0 0 65279 0 0 65279 0 0 65279 0 0 65279 0 0 65279 0 0 65279 0 0 65279 0 0 65279 0 0 65279 0 0 65279 0 0 65279 0 0 65279 0 0 65279 0 0 65279 0 0 65279 0 0 65279 0 0 65279 0 0 65279 0 0 65279 0 0 65279 0 0 65279 0 0 65279 0 0 65279 0 0 65279 0 0 65279 0 0 65279 0 0 65279 0 0 65279 0 0 65279 0 0 65279 0 0 65279 0 0 65279 0 0 65279 0 0 65279 0 0 65279 0 0 65279 0 0 65279 0 0 65279 0 0 65279 0 0 65279 0 0 65279 0 0 65279 0 0 65279 0 0 65279 0 0 65279 0 0 65279 0 0 65279 0 0 65279 0 0 65279 0 0 65279 0 0 65279 0 0 65279 0 0 65279 0 0 65279 0 0 65279 0 0 65279 0 0 65279 0 0 65279 0 0 65279 0 0 65279 0 0 65279 0 0 65279 0 0 65279 0 0 65279 0 0 65279 0 0 65279 0 0 65279 0 0 65279 0 0 65279 0 0 65279 0 0 65279 0 0 65279 0 0 65279 0 0 65279 0 0 65279 0 0 65279 0 0 65279 0 0 65279 0 0 65279 0 0 65279 0 0 65279 0 0 65279 0 0 65279 0 0 65279 0 0 65279 0 0 65279 0 0 65279 0 0 65279 0 0 65279 0 0 65279 0 0 65279 0 0 65279 0 0 65279 0 0 65279 0 0 65279 0 0 65279 0 0 65279 0 0 65279 0 0 65279 0 0 65279 0 0 65279 0 0 65279 0 0 65279 0 0 65279 0 0 65279 0 0 65279 0 0 65279 0 0 65279 0 0 65279 0 0 65279 0 0 65279 0 0 65279 0 0 65279 0 0 65279 0 0 65279 0 0 65279 0 0 65279 0 0 65279 0 0 65279 0 0 65279 0 0 65279 0 0 65279 0 0 65279 0 0 65279 0 0 65279 0 0 65279 0 0 65279 0 0 65279 0 0 65279 0 0 65279 0 0 65279 0 0 65279 0 0 65279 0 0 65279 0 0 65279 0 0 65279 0 0 65279 0 0 65279 0 0 65279 0 0 65279 0 0 65279 0 0 65279 0 0 65279 0 0 65279 0 0 65279 0 0 65279 0 0 65279 0 0 65279 0 0 65279 0 0 65279 0 0 65279 0 0 65279 0 0 65279 0 0 65279 0 0 65279 0 0 65279 0 0 65279 0 0 65279 0 0 65279 0 0 65279 0 0 65279 0 0 65279 0 0 65279 0 0 65279 0 0 65279 0 0 65279 0 0 65279 0 0 65279 0 0 65279 0 0 65279 0 0 65279 0 0 65279 0 0 65279 0 0 65279 0 0 65279 0 0 65279 0 0 65279 0 0 65279 0 0 65279 0 0 65279 0 0 65279 0 0 65279 0 0 65279 0 0 65279 0 0 65279 0 0 65279 0 0 65279 0 0 65279 0 0 65279 0 0 65279 0 0 65279 0 0 65279 0 0 65279 0 0 65279 0 0 65279 0 0 65279 0 0 65279 0 0 65279 0 0 65279 0 0 65279 0 0 65279 0 0 65279 0 0 65279 0 0 65279 0 0 65279 0 0 65279 0 0 65279 0 0 65279 0 0 65279 0 0 65279 0 0 65279 0 0 65279 0 0 65279 0 0 65279 0 0 65279 0 0 65279 0 0 65279 0 0 65279 0 0 65279 0 0 65279 0 0 65279 0 0 65279 0 0 65279 0 0 65279 0 0 65279 0 0 65279 0 0 65279 0 0 65279 0 0 65279 0 0 65279 0 0 65279 0 0 65279 0 0 65279 0 0 65279 0 0 65279 0 0 65279 0 0 65279 0 0 65279 0 0 65279 0 0 65279 0 0 65279 0 0 65279 0 0 65279 0 0 65279 0 0 65279 0 0 65279 0 0 65279 0 0 65279 0 0 65279 0 0 65279 0 0 65279 0 0 65279 0 0 65279 0 0 65279 0 0 65279 0 0 65279 0 0 65279 0 0 65279 0 0 65279 0 0 65279 0 0 65279 0 0 65279 0 0 65279 0 0 65279 0 0 65279 0 0 65279 0 0 65279 0 0 65279 0 0 65279 0 0 65279 0 0 65279 0 0 65279 0 0 65279 0 0 65279 0 0 65279 0 0 65279 0 0 65279 0 0 65279 0 0 65279 0 0 65279 0 0 65279 0 0 65279 0 0 65279 0 0 65279 0 0 65279 0 0 65279 0 0 65279 0 0 65279 0 0 65279 0 0 65279 0 0 65279 0 0 65279 0 0 65279 0 0 65279 0 0 65279 0 0 65279 0 0 65279 0 0 65279 0 0 65279 0 0 65279 0 0 65279 0 0 65279 0 0 65279 0 0 65279 0 0 65279 0 0 65279 0 0 65279 0 0 65279 0 0 65279 0 0 65279 0 0 65279 0 0 65279 0 0 65279 0 0 65279 0 0 65279 0 0 65279 0 0 65279 0 0 65279 0 0 65279 0 0 65279 0 0 65279 0 0 65279 0 0 65279 0 0 65279 0 0 65279 0 0 65279 0 0 65279 0 0 65279 0 0 65279 0 0 65279 0 0 65279 0 0 65279 0 0 65279 0 0 65279 0 0 65279 0 0 65279 0 0 65279 0 0 65279 0 0 65279 0 0 65279 0 0 65279 0 0 65279 0 0 65279 0 0 65279 0 0 65279 0 0 65279 0 0 65279 0 0 65279 0 0 65279 0 0 65279 0 0 65279 0 0 65279 0 0 65279 0 0 65279 0 0 65279 0 0 65279 0 0 65279 0 0 65279 0 0 65279 0 0 65279 0 0 65279 0 0 65279 0 0 65279 0 0 65279 0 0 65279 0 0 65279 0 0 65279 0 0 65279 0 0 65279 0 0 65279 0 0 65279 0 0 65279 0 0 65279 0 0 65279 0 0 65279 0 0 65279 0 0 65279 0 0 65279 0 0 65279 0 0 65279 0 0 65279 0 0 65279 0 0 65279 0 0 65279 0 0 65279 0 0 65279 0 0 65279 0 0 65279 0 0 65279 0 0 65279 0 0 65279 0 0 65279 0 0 65279 0 0 65279 0 0 65279 0 0 65279 0 0 65279 0 0 65279 0 0 65279 0 0 65279 0 0 65279 0 0 65279 0 0 65279 0 0 65279 0 0 65279 0 0 65279 0 0 65279 0 0 65279 0 0 65279 0 0 65279 0 0 65279 0 0 65279 0 0 65279 0 0 65279 0 0 65279 0 0 65279 0 0 65279 0 0 65279 0 0 65279 0 0 65279 0 0 65279 0 0 65279 0 0 65279 0 0 65279 0 0 65279 0 0 65279 0 0 65279 0 0 65279 0 0 65279 0 0 65279 0 0 65279 0 0 65279 0 0 65279 0 0 65279 0 0 65279 0 0 65279 0 0 65279 0 0 65279 0 0 65279 0 0 65279 0 0 65279 0 0 65279 0 0 65279 0 0 65279 0 0 65279 0 0 65279 0 0 65279 0 0 65279 0 0 65279 0 0 65279 0 0 65279 0 0 65279 0 0 65279 0 0 65279 0 0 65279 0 0 65279 0 0 65279 0 0 65279 0 0 65279 0 0 65279 0 0 65279 0 0 65279 0 0 65279 0 0 65279 0 0 65279 0 0 65279 0 0 65279 0 0 65279 0 0 65279 0 0 65279 0 0 65279 0 0 65279 0 0 65279 0 0 65279 0 0 65279 0 0 65279 0 0 65279 0 0 65279 0 0 65279 0 0 65279 0 0 65279 0 0 65279 0 0 65279 0 0 65279 0 0 65279 0 0 65279 0 0 65279 0 0 65279 0 0 65279 0 0 65279 0 0 65279 0 0 65279 0 0 65279 0 0 65279 0 0 65279 0 0 65279 0 0 65279 0 0 65279 0 0 65279 0 0 65279 0 0 65279 0 0 65279 0 0 65279 0 0 65279 0 0 65279 0 0 65279 0 0 65279 0 0 65279 0 0 65279 0 0 65279 0 0 65279 0 0 65279 0 0 65279 0 0 65279 0 0 65279 0 0 65279 0 0 65279 0 0 65279 0 0 65279 0 0 65279 0 0 65279 0 0 65279 0 0 65279 0 0 65279 0 0 65279 0 0 65279 0 0 65279 0 0 65279 0 0 65279 0 0 65279 0 0 65279 0 0 65279 0 0 65279 0 0 65279 0 0 65279 0 0 65279 0 0 65279 0 0 65279 0 0 65279 0 0 65279 0 0 65279 0 0 65279 0 0 65279 0 0 65279 0 0 65279 0 0 65279 0 0 65279 0 0 65279 0 0 65279 0 0 65279 0 0 65279 0 0 65279 0 0 65279 0 0 65279 0 0 65279 0 0 65279 0 0 65279 0 0 65279 0 0 65279 0 0 65279 0 0 65279 0 0 65279 0 0 65279 0 0 65279 0 0 65279 0 0 65279 0 0 65279 0 0 65279 0 0 65279 0 0 65279 0 0 65279 0 0 65279 0 0 65279 0 0 65279 0 0 65279 0 0 65279 0 0 65279 0 0 65279 0 0 65279 0 0 65279 0 0 65279 0 0 65279 0 0 65279 0 0 65279 0 0 65279 0 0 65279 0 0 65279 0 0 65279 0 0 65279 0 0 65279 0 0 65279 0 0 65279 0 0 65279 0 0 65279 0 0 65279 0 0 65279 0 0 65279 0 0 65279 0 0 65279 0 0 65279 0 0 65279 0 0 65279 0 0 65279 0 0 65279 0 0 65279 0 0 65279 0 0 65279 0 0 65279 0 0 65279 0 0 65279 0 0 65279 0 0 65279 0 0 65279 0 0 65279 0 0 65279 0 0 65279 0 0 65279 0 0 65279 0 0 65279 0 0 65279 0 0 65279 0 0 65279 0 0 65279 0 0 65279 0 0 65279 0 0 65279 0 0 65279 0 0 65279 0 0 65279 0 0 65279 0 0 65279 0 0 65279 0 0 65279 0 0 65279 0 0 65279 0 0 65279 0 0 65279 0 0 65279 0 0 65279 0 0 65279 0 0 65279 0 0 65279 0 0 65279 0 0 65279 0 0 65279 0 0 65279 0 0 65279 0 0 65279 0 0 65279 0 0 65279 0 0 65279 0 0 65279 0 0 65279 0 0 65279 0 0 65279 0 0 65279 0 0 65279 0 0 65279 0 0 65279 0 0 65279 0 0 65279 0 0 65279 0 0 65279 0 0 65279 0 0 65279 0 0 65279 0 0 65279 0 0 65279 0 0 65279 0 0 65279 0 0 65279 0 0 65279 0 0 65279 0 0 65279 0 0 65279 0 0 65279 0 0 65279 0 0 65279 0 0 65279 0 0 65279 0 0 65279 0 0 65279 0 0 65279 0 0 65279 0 0 65279 0 0 65279 0 0 65279 0 0 65279 0 0 65279 0 0 65279 0 0 65279 0 0 65279 0 0 65279 0 0 65279 0 0 65279 0 0 65279 0 0 65279 0 0 65279 0 0 65279 0 0 65279 0 0 65279 0 0 65279 0 0 65279 0 0 65279 0 0 65279 0 0 65279 0 0 65279 0 0 65279 0 0 65279 0 0 65279 0 0 65279 0 0 65279 0 0 65279 0 0 65279 0 0 65279 0 0 65279 0 0 65279 0 0 65279 0 0 65279 0 0 65279 0 0 65279 0 0 65279 0 0 65279 0 0 65279 0 0 65279 0 0 65279 0 0 65279 0 0 65279 0 0 65279 0 0 65279 0 0 65279 0 0 65279 0 0 65279 0 0 65279 0 0 65279 0 0 65279 0 0 65279 0 0 65279 0 0 65279 0 0 65279 0 0 65279 0 0 65279 0 0 65279 0 0 65279 0 0 65279 0 0 65279 0 0 65279 0 0 65279 0 0 65279 0 0 65279 0 0 65279 0 0 65279 0 0 65279 0 0 65279 0 0 65279 0 0 65279 0 0 65279 0 0 65279 0 0 65279 0 0 65279 0 0 65279 0 0 65279 0 0 65279 0 0 65279 0 0 65279 0 0 65279 0 0 65279 0 0 65279 0 0 65279 0 0 65279 0 0 65279 0 0 65279 0 0 65279 0 0 65279 0 0 65279 0 0 65279 0 0 65279 0 0 65279 0 0 65279 0 0 65279 0 0 65279 0 0 65279 0 0 65279 0 0 65279 0 0 65279 0 0 65279 0 0 65279 0 0 65279 0 0 65279 0 0 65279 0 0 65279 0 0 65279 0 0 65279 0 0 65279 0 0 65279 0 0 65279 0 0 65279 0 0 65279 0 0 65279 0 0 65279 0 0 65279 0 0 65279 0 0 65279 0 0 65279 0 0 65279 0 0 65279 0 0 65279 0 0 65279 0 0 65279 0 0 65279 0 0 65279 0 0 65279 0 0 65279 0 0 65279 0 0 65279 0 0 65279 0 0 65279 0 0 65279 0 0 65279 0 0 65279 0 0 65279 0 0 65279 0 0 65279 0 0 65279 0 0 65279 0 0 65279 0 0 65279 0 0 65279 0 0 65279 0 0 65279 0 0 65279 0 0 65279 0 0 65279 0 0 65279 0 0 65279 0 0 65279 0 0 65279 0 0 65279 0 0 65279 0 0 65279 0 0 65279 0 0 65279 0 0 65279 0 0 65279 0 0 65279 0 0 65279 0 0 65279 0 0 65279 0 0 65279 0 0 65279 0 0 65279 0 0 65279 0 0 65279 0 0 65279 0 0 65279 0 0 65279 0 0 65279 0 0 65279 0 0 65279 0 0 65279 0 0 65279 0 0 65279 0 0 65279 0 0 65279 0 0 65279 0 0 65279 0 0 65279 0 0 65279 0 0 65279 0 0 65279 0 0 65279 0 0 65279 0 0 65279 0 0 65279 0 0 65279 0 0 65279 0 0 65279 0 0 65279 0 0 65279 0 0 65279 0 0 65279 0 0 65279 0 0 65279 0 0 65279 0 0 65279 0 0 65279 0 0 65279 0 0 65279 0 0 65279 0 0 65279 0 0 65279 0 0 65279 0 0 65279 0 0 65279 0 0 65279 0 0 65279 0 0 65279 0 0 65279 0 0 65279 0 0 65279 0 0 65279 0 0 65279 0 0 65279 0 0 65279 0 0 65279 0 0 65279 0 0 65279 0 0 65279 0 0 65279 0 0 65279 0 0 65279 0 0 65279 0 0 65279 0 0 65279 0 0 65279 0 0 65279 0 0 65279 0 0 65279 0 0 65279 0 0 65279 0 0 65279 0 0 65279 0 0 65279 0 0 65279 0 0 65279 0 0 65279 0 0 65279 0 0 65279 0 0 65279 0 0 65279 0 0 65279 0 0 65279 0 0 65279 0 0 65279 0 0 65279 0 0 65279 0 0 65279 0 0 65279 0 0 65279 0 0 65279 0 0 65279 0 0 65279 0 0 65279 0 0 65279 0 0 65279 0 0 65279 0 0 65279 0 0 65279 0 0 65279 0 0 65279 0 0 65279 0 0 65279 0 0 65279 0 0 65279 0 0 65279 0 0 65279 0 0 65279 0 0 65279 0 0 65279 0 0 65279 0 0 65279 0 0 65279 0 0 65279 0 0 65279 0 0 65279 0 0 65279 0 0 65279 0 0 65279 0 0 65279 0 0 65279 0 0 65279 0 0 65279 0 0 65279 0 0 65279 0 0 65279 0 0 65279 0 0 65279 0 0 65279 0 0 65279 0 0 65279 0 0 65279 0 0 65279 0 0 65279 0 0 65279 0 0 65279 0 0 65279 0 0 65279 0 0 65279 0 0 65279 0 0 65279 0 0 65279 0 0 65279 0 0 65279 0 0 65279 0 0 65279 0 0 65279 0 0 65279 0 0 65279 0 0 65279 0 0 65279 0 0 65279 0 0 65279 0 0 65279 0 0 65279 0 0 65279 0 0 65279 0 0 65279 0 0 65279 0 0 65279 0 0 65279 0 0 65279 0 0 65279 0 0 65279 0 0 65279 0 0 65279 0 0 65279 0 0 65279 0 0 65279 0 0 65279 0 0 65279 0 0 65279 0 0 65279 0 0 65279 0 0 65279 0 0 65279 0 0 65279 0 0 65279 0 0 65279 0 0 65279 0 0 65279 0 0 65279 0 0 65279 0 0 65279 0 0 65279 0 0 65279 0 0 65279 0 0 65279 0 0 65279 0 0 65279 0 0 65279 0 0 65279 0 0 65279 0 0 65279 0 0 65279 0 0 65279 0 0 65279 0 0 65279 0 0 65279 0 0 65279 0 0 65279 0 0 65279 0 0 65279 0 0 65279 0 0 65279 0 0 65279 0 0 65279 0 0 65279 0 0 65279 0 0 65279 0 0 65279 0 0 65279 0 0 65279 0 0 65279 0 0 65279 0 0 65279 0 0 65279 0 0 65279 0 0 65279 0 0 65279 0 0 65279 0 0 65279 0 0 65279 0 0 65279 0 0 65279 0 0 65279 0 0 65279 0 0 65279 0 0 65279 0 0 65279 0 0 65279 0 0 65279 0 0 65279 0 0 65279 0 0 65279 0 0 65279 0 0 65279 0 0 65279 0 0 65279 0 0 65279 0 0 65279 0 0 65279 0 0 65279 0 0 65279 0 0 65279 0 0 65279 0 0 65279 0 0 65279 0 0 65279 0 0 65279 0 0 65279 0 0 65279 0 0 65279 0 0 65279 0 0 65279 0 0 65279 0 0 65279 0 0 65279 0 0 65279 0 0 65279 0 0 65279 0 0 65279 0 0 65279 0 0 65279 0 0 65279 0 0 65279 0 0 65279 0 0 65279 0 0 65279 0 0 65279 0 0 65279 0 0 65279 0 0 65279 0 0 65279 0 0 65279 0 0 65279 0 0 65279 0 0 65279 0 0 65279 0 0 65279 0 0 65279 0 0 65279 0 0 65279 0 0 65279 0 0 65279 0 0 65279 0 0 65279 0 0 65279 0 0 65279 0 0 65279 0 0 65279 0 0 65279 0 0 65279 0 0 65279 0 0 65279 0 0 65279 0 0 65279 0 0 65279 0 0 65279 0 0 65279 0 0 65279 0 0 65279 0 0 65279 0 0 65279 0 0 65279 0 0 65279 0 0 65279 0 0 65279 0 0 65279 0 0 65279 0 0 65279 0 0 65279 0 0 65279 0 0 65279 0 0 65279 0 0 65279 0 0 65279 0 0 65279 0 0 65279 0 0 65279 0 0 65279 0 0 65279 0 0 65279 0 0 65279 0 0 65279 0 0 65279 0 0 65279 0 0 65279 0 0 65279 0 0 65279 0 0 65279 0 0 65279 0 0 65279 0 0 65279 0 0 65279 0 0 65279 0 0 65279 0 0 65279 0 0 65279 0 0 65279 0 0 65279 0 0 65279 0 0 65279 0 0 65279 0 0 65279 0 0 65279 0 0 65279 0 0 65279 0 0 65279 0 0 65279 0 0 65279 0 0 65279 0 0 65279 0 0 65279 0 0 65279 0 0 65279 0 0 65279 0 0 65279 0 0 65279 0 0 65279 0 0 65279 0 0 65279 0 0 65279 0 0 65279 0 0 65279 0 0 65279 0 0 65279 0 0 65279 0 0 65279 0 0 65279 0 0 65279 0 0 65279 0 0 65279 0 0 65279 0 0 65279 0 0 65279 0 0 65279 0 0 65279 0 0 65279 0 0 65279 0 0 65279 0 0 65279 0 0 65279 0 0 65279 0 0 65279 0 0 65279 0 0 65279 0 0 65279 0 0 65279 0 0 65279 0 0 65279 0 0 65279 0 0 65279 0 0 65279 0 0 65279 0 0 65279 0 0 65279 0 0 65279 0 0 65279 0 0 65279 0 0 65279 0 0 65279 0 0 65279 0 0 65279 0 0 65279 0 0 65279 0 0 65279 0 0 65279 0 0 65279 0 0 65279 0 0 65279 0 0 65279 0 0 65279 0 0 65279 0 0 65279 0 0 65279 0 0 65279 0 0 65279 0 0 65279 0 0 65279 0 0 65279 0 0 65279 0 0 65279 0 0 65279 0 0 65279 0 0 65279 0 0 65279 0 0 65279 0 0 65279 0 0 65279 0 0 65279 0 0 65279 0 0 65279 0 0 65279 0 0 65279 0 0 65279 0 0 65279 0 0 65279 0 0 65279 0 0 65279 0 0 65279 0 0 65279 0 0 65279 0 0 65279 0 0 65279 0 0 65279 0 0 65279 0 0 65279 0 0 65279 0 0 65279 0 0 65279 0 0 65279 0 0 65279 0 0 65279 0 0 65279 0 0 65279 0 0 65279 0 0 65279 0 0 65279 0 0 65279 0 0 65279 0 0 65279 0 0 65279 0 0 65279 0 0 65279 0 0 65279 0 0 65279 0 0 65279 0 0 65279 0 0 65279 0 0 65279 0 0 65279 0 0 65279 0 0 65279 0 0 65279 0 0 65279 0 0 65279 0 0 65279 0 0 65279 0 0 65279 0 0 65279 0 0 65279 0 0 65279 0 0 65279 0 0 65279 0 0 65279 0 0 65279 0 0 65279 0 0 65279 0 0 65279 0 0 65279 0 0 65279 0 0 65279 0 0 65279 0 0 65279 0 0 65279 0 0 65279 0 0 65279 0 0 65279 0 0 65279 0 0 65279 0 0 65279 0 0 65279 0 0 65279 0 0 65279 0 0 65279 0 0 65279 0 0 65279 0 0 65279 0 0 65279 0 0 65279 0 0 65279 0 0 65279 0 0 65279 0 0 65279 0 0 65279 0 0 65279 0 0 65279 0 0 65279 0 0 65279 0 0 65279 0 0 65279 0 0 65279 0 0 65279 0 0 65279 0 0 65279 0 0 65279 0 0 65279 0 0 65279 0 0 65279 0 0 65279 0 0 65279 0 0 65279 0 0 65279 0 0 65279 0 0 65279 0 0 65279 0 0 65279 0 0 65279 0 0 65279 0 0 65279 0 0 65279 0 0 65279 0 0 65279 0 0 65279 0 0 65279 0 0 65279 0 0 65279 0 0 65279 0 0 65279 0 0 65279 0 0 65279 0 0 65279 0 0 65279 0 0 65279 0 0 65279 0 0 65279 0 0 65279 0 0 65279 0 0 65279 0 0 65279 0 0 65279 0 0 65279 0 0 65279 0 0 65279 0 0 65279 0 0 65279 0 0 65279 0 0 65279 0 0 65279 0 0 65279 0 0 65279 0 0 65279 0 0 65279 0 0 65279 0 0 65279 0 0 65279 0 0 65279 0 0 65279 0 0 65279 0 0 65279 0 0 65279 0 0 65279 0 0 65279 0 0 65279 0 0 65279 0 0 65279 0 0 65279 0 0 65279 0 0 65279 0 0 65279 0 0 65279 0 0 65279 0 0 65279 0 0 65279 0 0 65279 0 0 65279 0 0 65279 0 0 65279 0 0 65279 0 0 65279 0 0 65279 0 0 65279 0 0 65279 0 0 65279 0 0 65279 0 0 65279 0 0 65279 0 0 65279 0 0 65279 0 0 65279 0 0 65279 0 0 65279 0 0 65279 0 0 65279 0 0 65279 0 0 65279 0 0 65279 0 0 65279 0 0 65279 0 0 65279 0 0 65279 0 0 65279 0 0 65279 0 0 65279 0 0 65279 0 0 65279 0 0 65279 0 0 65279 0 0 65279 0 0 65279 0 0 65279 0 0 65279 0 0 65279 0 0 65279 0 0 65279 0 0 65279 0 0 65279 0 0 65279 0 0 65279 0 0 65279 0 0 65279 0 0 65279 0 0 65279 0 0 65279 0 0 65279 0 0 65279 0 0 65279 0 0 65279 0 0 65279 0 0 65279 0 0 65279 0 0 65279 0 0 65279 0 0 65279 0 0 65279 0 0 65279 0 0 65279 0 0 65279 0 0 65279 0 0 65279 0 0 65279 0 0 65279 0 0 65279 0 0 65279 0 0 65279 0 0 65279 0 0 65279 0 0 65279 0 0 65279 0 0 65279 0 0 65279 0 0 65279 0 0 65279 0 0 65279 0 0 65279 0 0 65279 0 0 65279 0 0 65279 0 0 65279 0 0 65279 0 0 65279 0 0 65279 0 0 65279 0 0 65279 0 0 65279 0 0 65279 0 0 65279 0 0 65279 0 0 65279 0 0 65279 0 0 65279 0 0 65279 0 0 65279 0 0 65279 0 0 65279 0 0 65279 0 0 65279 0 0 65279 0 0 65279 0 0 65279 0 0 65279 0 0 65279 0 0 65279 0 0 65279 0 0 65279 0 0 65279 0 0 65279 0 0 65279 0 0 65279 0 0 65279 0 0 65279 0 0 65279 0 0 65279 0 0 65279 0 0 65279 0 0 65279 0 0 65279 0 0 65279 0 0 65279 0 0 65279 0 0 65279 0 0 65279 0 0 65279 0 0 65279 0 0 65279 0 0 65279 0 0 65279 0 0 65279 0 0 65279 0 0 65279 0 0 65279 0 0 65279 0 0 65279 0 0 65279 0 0 65279 0 0 65279 0 0 65279 0 0 65279 0 0 65279 0 0 65279 0 0 65279 0 0 65279 0 0 65279 0 0 65279 0 0 65279 0 0 65279 0 0 65279 0 0 65279 0 0 65279 0 0 65279 0 0 65279 0 0 65279 0 0 65279 0 0 65279 0 0 65279 0 0 65279 0 0 65279 0 0 65279 0 0 65279 0 0 65279 0 0 65279 0 0 65279 0 0 65279 0 0 65279 0 0 65279 0 0 65279 0 0 65279 0 0 65279 0 0 65279 0 0 65279 0 0 65279 0 0 65279 0 0 65279 0 0 65279 0 0 65279 0 0 65279 0 0 65279 0 0 65279 0 0 65279 0 0 65279 0 0 65279 0 0 65279 0 0 65279 0 0 65279 0 0 65279 0 0 65279 0 0 65279 0 0 65279 0 0 65279 0 0 65279 0 0 65279 0 0 65279 0 0 65279 0 0 65279 0 0 65279 0 0 65279 0 0 65279 0 0 65279 0 0 65279 0 0 65279 0 0 65279 0 0 65279 0 0 65279 0 0 65279 0 0 65279 0 0 65279 0 0 65279 0 0 65279 0 0 65279 0 0 65279 0 0 65279 0 0 65279 0 0 65279 0 0 65279 0 0 65279 0 0 65279 0 0 65279 0 0 65279 0 0 65279 0 0 65279 0 0 65279 0 0 65279 0 0 65279 0 0 65279 0 0 65279 0 0 65279 0 0 65279 0 0 65279 0 0 65279 0 0 65279 0 0 65279 0 0 65279 0 0 65279 0 0 65279 0 0 65279 0 0 65279 0 0 65279 0 0 65279 0 0 65279 0 0 65279 0 0 65279 0 0 65279 0 0 65279 0 0 65279 0 0 65279 0 0 65279 0 0 65279 0 0 65279 0 0 65279 0 0 65279 0 0 65279 0 0 65279 0 0 65279 0 0 65279 0 0 65279 0 0 65279 0 0 65279 0 0 65279 0 0 65279 0 0 65279 0 0 65279 0 0 65279 0 0 65279 0 0 65279 0 0 65279 0 0 65279 0 0 65279 0 0 65279 0 0 65279 0 0 65279 0 0 65279 0 0 65279 0 0 65279 0 0 65279 0 0 65279 0 0 65279 0 0 65279 0 0 65279 0 0 65279 0 0 65279 0 0 65279 0 0 65279 0 0 65279 0 0 65279 0 0 65279 0 0 65279 0 0 65279 0 0 65279 0 0 65279 0 0 65279 0 0 65279 0 0 65279 0 0 65279 0 0 65279 0 0 65279 0 0 65279 0 0 65279 0 0 65279 0 0 65279 0 0 65279 0 0 65279 0 0 65279 0 0 65279 0 0 65279 0 0 65279 0 0 65279 0 0 65279 0 0 65279 0 0 65279 0 0 65279 0 0 65279 0 0 65279 0 0 65279 0 0 65279 0 0 65279 0 0 65279 0 0 65279 0 0 65279 0 0 65279 0 0 65279 0 0 65279 0 0 65279 0 0 65279 0 0 65279 0 0 65279 0 0 65279 0 0 65279 0 0 65279 0 0 65279 0 0 65279 0 0 65279 0 0 65279 0 0 65279 0 0 65279 0 0 65279 0 0 65279 0 0 65279 0 0 65279 0 0 65279 0 0 65279 0 0 65279 0 0 65279 0 0 65279 0 0 65279 0 0 65279 0 0 65279 0 0 65279 0 0 65279 0 0 65279 0 0 65279 0 0 65279 0 0 65279 0 0 65279 0 0 65279 0 0 65279 0 0 65279 0 0 65279 0 0 65279 0 0 65279 0 0 65279 0 0 65279 0 0 65279 0 0 65279 0 0 65279 0 0 65279 0 0 65279 0 0 65279 0 0 65279 0 0 65279 0 0 65279 0 0 65279 0 0 65279 0 0 65279 0 0 65279 0 0 65279 0 0 65279 0 0 65279 0 0 65279 0 0 65279 0 0 65279 0 0 65279 0 0 65279 0 0 65279 0 0 65279 0 0 65279 0 0 65279 0 0 65279 0 0 65279 0 0 65279 0 0 65279 0 0 65279 0 0 65279 0 0 65279 0 0 65279 0 0 65279 0 0 65279 0 0 65279 0 0 65279 0 0 65279 0 0 65279 0 0 65279 0 0 65279 0 0 65279 0 0 65279 0 0 65279 0 0 65279 0 0 65279 0 0 65279 0 0 65279 0 0 65279 0 0 65279 0 0 65279 0 0 65279 0 0 65279 0 0 65279 0 0 65279 0 0 65279 0 0 65279 0 0 65279 0 0 65279 0 0 65279 0 0 65279 0 0 65279 0 0 65279 0 0 65279 0 0 65279 0 0 65279 0 0 65279 0 0 65279 0 0 65279 0 0 65279 0 0 65279 0 0 65279 0 0 65279 0 0 65279 0 0 65279 0 0 65279 0 0 65279 0 0 65279 0 0 65279 0 0 65279 0 0 65279 0 0 65279 0 0 65279 0 0 65279 0 0 65279 0 0 65279 0 0 65279 0 0 65279 0 0 65279 0 0 65279 0 0 65279 0 0 65279 0 0 65279 0 0 65279 0 0 65279 0 0 65279 0 0 65279 0 0 65279 0 0 65279 0 0 65279 0 0 65279 0 0 65279 0 0 65279 0 0 65279 0 0 65279 0 0 65279 0 0 65279 0 0 65279 0 0 65279 0 0 65279 0 0 65279 0 0 65279 0 0 65279 0 0 65279 0 0 65279 0 0 65279 0 0 65279 0 0 65279 0 0 65279 0 0 65279 0 0 65279 0 0 65279 0 0 65279 0 0 65279 0 0 65279 0 0 65279 0 0 65279 0 0 65279 0 0 65279 0 0 65279 0 0 65279 0 0 65279 0 0 65279 0 0 65279 0 0 65279 0 0 65279 0 0 65279 0 0 65279 0 0 65279 0 0 65279 0 0 65279 0 0 65279 0 0 65279 0 0 65279 0 0 65279 0 0 65279 0 0 65279 0 0 65279 0 0 65279 0 0 65279 0 0 65279 0 0 65279 0 0 65279 0 0 65279 0 0 65279 0 0 65279 0 0 65279 0 0 65279 0 0 65279 0 0 65279 0 0 65279 0 0 65279 0 0 65279 0 0 65279 0 0 65279 0 0 65279 0 0 65279 0 0 65279 0 0 65279 0 0 65279 0 0 65279 0 0 65279 0 0 65279 0 0 65279 0 0 65279 0 0 65279 0 0 65279 0 0 65279 0 0 65279 0 0 65279 0 0 65279 0 0 65279 0 0 65279 0 0 65279 0 0 65279 0 0 65279 0 0 65279 0 0 65279 0 0 65279 0 0 65279 0 0 65279 0 0 65279 0 0 65279 0 0 65279 0 0 65279 0 0 65279 0 0 65279 0 0 65279 0 0 65279 0 0 65279 0 0 65279 0 0 65279 0 0 65279 0 0 65279 0 0 65279 0 0 65279 0 0 65279 0 0 65279 0 0 65279 0 0 65279 0 0 65279 0 0 65279 0 0 65279 0 0 65279 0 0 65279 0 0 65279 0 0 65279 0 0 65279 0 0 65279 0 0 65279 0 0 65279 0 0 65279 0 0 65279 0 0 65279 0 0 65279 0 0 65279 0 0 65279 0 0 65279 0 0 65279 0 0 65279 0 0 65279 0 0 65279 0 0 65279 0 0 65279 0 0 65279 0 0 65279 0 0 65279 0 0 65279 0 0 65279 0 0 65279 0 0 65279 0 0 65279 0 0 65279 0 0 65279 0 0 65279 0 0 65279 0 0 65279 0 0 65279 0 0 65279 0 0 65279 0 0 65279 0 0 65279 0 0 65279 0 0 65279 0 0 65279 0 0 65279 0 0 65279 0 0 65279 0 0 65279 0 0 65279 0 0 65279 0 0 65279 0 0 65279 0 0 65279 0 0 65279 0 0 65279 0 0 65279 0 0 65279 0 0 65279 0 0 65279 0 0 65279 0 0 65279 0 0 65279 0 0 65279 0 0 65279 0 0 65279 0 0 65279 0 0 65279 0 0 65279 0 0 65279 0 0 65279 0 0 65279 0 0 65279 0 0 65279 0 0 65279 0 0 65279 0 0 65279 0 0 65279 0 0 65279 0 0 65279 0 0 65279 0 0 65279 0 0 65279 0 0 65279 0 0 65279 0 0 65279 0 0 65279 0 0 65279 0 0 65279 0 0 65279 0 0 65279 0 0 65279 0 0 65279 0 0 65279 0 0 65279 0 0 65279 0 0 65279 0 0 65279 0 0 65279 0 0 65279 0 0 65279 0 0 65279 0 0 65279 0 0 65279 0 0 65279 0 0 65279 0 0 65279 0 0 65279 0 0 65279 0 0 65279 0 0 65279 0 0 65279 0 0 65279 0 0 65279 0 0 65279 0 0 65279 0 0 65279 0 0 65279 0 0 65279 0 0 65279 0 0 65279 0 0 65279 0 0 65279 0 0 65279 0 0 65279 0 0 65279 0 0 65279 0 0 65279 0 0 65279 0 0 65279 0 0 65279 0 0 65279 0 0 65279 0 0 65279 0 0 65279 0 0 65279 0 0 65279 0 0 65279 0 0 65279 0 0 65279 0 0 65279 0 0 65279 0 0 65279 0 0 65279 0 0 65279 0 0 65279 0 0 65279 0 0 65279 0 0 65279 0 0 65279 0 0 65279 0 0 65279 0 0 65279 0 0 65279 0 0 65279 0 0 65279 0 0 65279 0 0 65279 0 0 65279 0 0 65279 0 0 65279 0 0 65279 0 0 65279 0 0 65279 0 0 65279 0 0 65279 0 0 65279 0 0 65279 0 0 65279 0 0 65279 0 0 65279 0 0 65279 0 0 65279 0 0 65279 0 0 65279 0 0 65279 0 0 65279 0 0 65279 0 0 65279 0 0 65279 0 0 65279 0 0 65279 0 0 65279 0 0 65279 0 0 65279 0 0 65279 0 0 65279 0 0 65279 0 0 65279 0 0 65279 0 0 65279 0 0 65279 0 0 65279 0 0 65279 0 0 65279 0 0 65279 0 0 65279 0 0 65279 0 0 65279 0 0 65279 0 0 65279 0 0 65279 0 0 65279 0 0 65279 0 0 65279 0 0 65279 0 0 65279 0 0 65279 0 0 65279 0 0 65279 0 0 65279 0 0 65279 0 0 65279 0 0 65279 0 0 65279 0 0 65279 0 0 65279 0 0 65279 0 0 65279 0 0 65279 0 0 65279 0 0 65279 0 0 65279 0 0 65279 0 0 65279 0 0 65279 0 0 65279 0 0 65279 0 0 65279 0 0 65279 0 0 65279 0 0 65279 0 0 65279 0 0 65279 0 0 65279 0 0 65279 0 0 65279 0 0 65279 0 0 65279 0 0 65279 0 0 65279 0 0 65279 0 0 65279 0 0 65279 0 0 65279 0 0 65279 0 0 65279 0 0 65279 0 0 65279 0 0 65279 0 0 65279 0 0 65279 0 0 65279 0 0 65279 0 0 65279 0 0 65279 0 0 65279 0 0 65279 0 0 65279 0 0 65279 0 0 65279 0 0 65279 0 0 65279 0 0 65279 0 0 65279 0 0 65279 0 0 65279 0 0 65279 0 0 65279 0 0 65279 0 0 65279 0 0 65279 0 0 65279 0 0 65279 0 0 65279 0 0 65279 0 0 65279 0 0 65279 0 0 65279 0 0 65279 0 0 65279 0 0 65279 0 0 65279 0 0 65279 0 0 65279 0 0 65279 0 0 65279 0 0 65279 0 0 65279 0 0 65279 0 0 65279 0 0 65279 0 0 65279 0 0 65279 0 0 65279 0 0 65279 0 0 65279 0 0 65279 0 0 65279 0 0 65279 0 0 65279 0 0 65279 0 0 65279 0 0 65279 0 0 65279 0 0 65279 0 0 65279 0 0 65279 0 0 65279 0 0 65279 0 0 65279 0 0 65279 0 0 65279 0 0 65279 0 0 65279 0 0 65279 0 0 65279 0 0 65279 0 0 65279 0 0 65279 0 0 65279 0 0 65279 0 0 65279 0 0 65279 0 0 65279 0 0 65279 0 0 65279 0 0 65279 0 0 65279 0 0 65279 0 0 65279 0 0 65279 0 0 65279 0 0 65279 0 0 65279 0 0 65279 0 0 65279 0 0 65279 0 0 65279 0 0 65279 0 0 65279 0 0 65279 0 0 65279 0 0 65279 0 0 65279 0 0 65279 0 0 65279 0 0 65279 0 0 65279 0 0 65279 0 0 65279 0 0 65279 0 0 65279 0 0 65279 0 0 65279 0 0 65279 0 0 65279 0 0 65279 0 0 65279 0 0 65279 0 0 65279 0 0 65279 0 0 65279 0 0 65279 0 0 65279 0 0 65279 0 0 65279 0 0 65279 0 0 65279 0 0 65279 0 0 65279 0 0 65279 0 0 65279 0 0 65279 0 0 65279 0 0 65279 0 0 65279 0 0 65279 0 0 65279 0 0 65279 0 0 65279 0 0 65279 0 0 65279 0 0 65279 0 0 65279 0 0 65279 0 0 65279 0 0 65279 0 0 65279 0 0 65279 0 0 65279 0 0 65279 0 0 65279 0 0 65279 0 0 65279 0 0 65279 0 0 65279 0 0 65279 0 0 65279 0 0 65279 0 0 65279 0 0 65279 0 0 65279 0 0 65279 0 0 65279 0 0 65279 0 0 65279 0 0 65279 0 0 65279 0 0 65279 0 0 65279 0 0 65279 0 0 65279 0 0 65279 0 0 65279 0 0 65279 0 0 65279 0 0 65279 0 0 65279 0 0 65279 0 0 65279 0 0 65279 0 0 65279 0 0 65279 0 0 65279 0 0 65279 0 0 65279 0 0 65279 0 0 65279 0 0 65279 0 0 65279 0 0 65279 0 0 65279 0 0 65279 0 0 65279 0 0 65279 0 0 65279 0 0 65279 0 0 65279 0 0 65279 0 0 65279 0 0 65279 0 0 65279 0 0 65279 0 0 65279 0 0 65279 0 0 65279 0 0 65279 0 0 65279 0 0 65279 0 0 65279 0 0 65279 0 0 65279 0 0 65279 0 0 65279 0 0 65279 0 0 65279 0 0 65279 0 0 65279 0 0 65279 0 0 65279 0 0 65279 0 0 65279 0 0 65279 0 0 65279 0 0 65279 0 0 65279 0 0 65279 0 0 65279 0 0 65279 0 0 65279 0 0 65279 0 0 65279 0 0 65279 0 0 65279 0 0 65279 0 0 65279 0 0 65279 0 0 65279 0 0 65279 0 0 65279 0 0 65279 0 0 65279 0 0 65279 0 0 65279 0 0 65279 0 0 65279 0 0 65279 0 0 65279 0 0 65279 0 0 65279 0 0 65279 0 0 65279 0 0 65279 0 0 65279 0 0 65279 0 0 65279 0 0 65279 0 0 65279 0 0 65279 0 0 65279 0 0 65279 0 0 65279 0 0 65279 0 0 65279 0 0 65279 0 0 65279 0 0 65279 0 0 65279 0 0 65279 0 0 65279 0 0 65279 0 0 65279 0 0 65279 0 0 65279 0 0 65279 0 0 65279 0 0 65279 0 0 65279 0 0 65279 0 0 65279 0 0 65279 0 0 65279 0 0 65279 0 0 65279 0 0 65279 0 0 65279 0 0 65279 0 0 65279 0 0 65279 0 0 65279 0 0 65279 0 0 65279 0 0 65279 0 0 65279 0 0 65279 0 0 65279 0 0 65279 0 0 65279 0 0 65279 0 0 65279 0 0 65279 0 0 65279 0 0 65279 0 0 65279 0 0 65279 0 0 65279 0 0 65279 0 0 65279 0 0 65279 0 0 65279 0 0 65279 0 0 65279 0 0 65279 0 0 65279 0 0 65279 0 0 65279 0 0 65279 0 0 65279 0 0 65279 0 0 65279 0 0 65279 0 0 65279 0 0 65279 0 0 65279 0 0 65279 0 0 65279 0 0 65279 0 0 65279 0 0 65279 0 0 65279 0 0 65279 0 0 65279 0 0 65279 0 0 65279 0 0 65279 0 0 65279 0 0 65279 0 0 65279 0 0 65279 0 0 65279 0 0 65279 0 0 65279 0 0 65279 0 0 65279 0 0 65279 0 0 65279 0 0 65279 0 0 65279 0 0 65279 0 0 65279 0 0 65279 0 0 65279 0 0 65279 0 0 65279 0 0 65279 0 0 65279 0 0 65279 0 0 65279 0 0 65279 0 0 65279 0 0 65279 0 0 65279 0 0 65279 0 0 65279 0 0 65279 0 0 65279 0 0 65279 0 0 65279 0 0 65279 0 0 65279 0 0 65279 0 0 65279 0 0 65279 0 0 65279 0 0 65279 0 0 65279 0 0 65279 0 0 65279 0 0 65279 0 0 65279 0 0 65279 0 0 65279 0 0 65279 0 0 65279 0 0 65279 0 0 65279 0 0 65279 0 0 65279 0 0 65279 0 0 65279 0 0 65279 0 0 65279 0 0 65279 0 0 65279 0 0 65279 0 0 65279 0 0 65279 0 0 65279 0 0 65279 0 0 65279 0 0 65279 0 0 65279 0 0 65279 0 0 65279 0 0 65279 0 0 65279 0 0 65279 0 0 65279 0 0 65279 0 0 65279 0 0 65279 0 0 65279 0 0 65279 0 0 65279 0 0 65279 0 0 65279 0 0 65279 0 0 65279 0 0 65279 0 0 65279 0 0 65279 0 0 65279 0 0 65279 0 0 65279 0 0 65279 0 0 65279 0 0 65279 0 0 65279 0 0 65279 0 0 65279 0 0 65279 0 0 65279 0 0 65279 0 0 65279 0 0 65279 0 0 65279 0 0 65279 0 0 65279 0 0 65279 0 0 65279 0 0 65279 0 0 65279 0 0 65279 0 0 65279 0 0 65279 0 0 65279 0 0 65279 0 0 65279 0 0 65279 0 0 65279 0 0 65279 0 0 65279 0 0 65279 0 0 65279 0 0 65279 0 0 65279 0 0 65279 0 0 65279 0 0 65279 0 0 65279 0 0 65279 0 0 65279 0 0 65279 0 0 65279 0 0 65279 0 0 65279 0 0 65279 0 0 65279 0 0 65279 0 0 65279 0 0 65279 0 0 65279 0 0 65279 0 0 65279 0 0 65279 0 0 65279 0 0 65279 0 0 65279 0 0 65279 0 0 65279 0 0 65279 0 0 65279 0 0 65279 0 0 65279 0 0 65279 0 0 65279 0 0 65279 0 0 65279 0 0 65279 0 0 65279 0 0 65279 0 0 65279 0 0 65279 0 0 65279 0 0 65279 0 0 65279 0 0 65279 0 0 65279 0 0 65279 0 0 65279 0 0 65279 0 0 65279 0 0 65279 0 0 65279 0 0 65279 0 0 65279 0 0 65279 0 0 65279 0 0 65279 0 0 65279 0 0 65279 0 0 65279 0 0 65279 0 0 65279 0 0 65279 0 0 65279 0 0 65279 0 0 65279 0 0 65279 0 0 65279 0 0 65279 0 0 65279 0 0 65279 0 0 65279 0 0 65279 0 0 65279 0 0 65279 0 0 65279 0 0 65279 0 0 65279 0 0 65279 0 0 65279 0 0 65279 0 0 65279 0 0 65279 0 0 65279 0 0 65279 0 0 65279 0 0 65279 0 0 65279 0 0 65279 0 0 65279 0 0 65279 0 0 65279 0 0 65279 0 0 65279 0 0 65279 0 0 65279 0 0 65279 0 0 65279 0 0 65279 0 0 65279 0 0 65279 0 0 65279 0 0 65279 0 0 65279 0 0 65279 0 0 65279 0 0 65279 0 0 65279 0 0 65279 0 0 65279 0 0 65279 0 0 65279 0 0 65279 0 0 65279 0 0 65279 0 0 65279 0 0 65279 0 0 65279 0 0 65279 0 0 65279 0 0 65279 0 0 65279 0 0 65279 0 0 65279 0 0 65279 0 0 65279 0 0 65279 0 0 65279 0 0 65279 0 0 65279 0 0 65279 0 0 65279 0 0 65279 0 0 65279 0 0 65279 0 0 65279 0 0 65279 0 0 65279 0 0 65279 0 0 65279 0 0 65279 0 0 65279 0 0 65279 0 0 65279 0 0 65279 0 0 65279 0 0 65279 0 0 65279 0 0 65279 0 0 65279 0 0 65279 0 0 65279 0 0 65279 0 0 65279 0 0 65279 0 0 65279 0 0 65279 0 0 65279 0 0 65279 0 0 65279 0 0 65279 0 0 65279 0 0 65279 0 0 65279 0 0 65279 0 0 65279 0 0 65279 0 0 65279 0 0 65279 0 0 65279 0 0 65279 0 0 65279 0 0 65279 0 0 65279 0 0 65279 0 0 65279 0 0 65279 0 0 65279 0 0 65279 0 0 65279 0 0 65279 0 0 65279 0 0 65279 0 0 65279 0 0 65279 0 0 65279 0 0 65279 0 0 65279 0 0 65279 0 0 65279 0 0 65279 0 0 65279 0 0 65279 0 0 65279 0 0 65279 0 0 65279 0 0 65279 0 0 65279 0 0 65279 0 0 65279 0 0 65279 0 0 65279 0 0 65279 0 0 65279 0 0 65279 0 0 65279 0 0 65279 0 0 65279 0 0 65279 0 0 65279 0 0 65279 0 0 65279 0 0 65279 0 0 65279 0 0 65279 0 0 65279 0 0 65279 0 0 65279 0 0 65279 0 0 65279 0 0 65279 0 0 65279 0 0 65279 0 0 65279 0 0 65279 0 0 65279 0 0 65279 0 0 65279 0 0 65279 0 0 65279 0 0 65279 0 0 65279 0 0 65279 0 0 65279 0 0 65279 0 0 65279 0 0 65279 0 0 65279 0 0 65279 0 0 65279 0 0 65279 0 0 65279 0 0 65279 0 0 65279 0 0 65279 0 0 65279 0 0 65279 0 0 65279 0 0 65279 0 0 65279 0 0 65279 0 0 65279 0 0 65279 0 0 65279 0 0 65279 0 0 65279 0 0 65279 0 0 65279 0 0 65279 0 0 65279 0 0 65279 0 0 65279 0 0 65279 0 0 65279 0 0 65279 0 0 65279 0 0 65279 0 0 65279 0 0 65279 0 0 65279 0 0 65279 0 0 65279 0 0 65279 0 0 65279 0 0 65279 0 0 65279 0 0 65279 0 0 65279 0 0 65279 0 0 65279 0 0 65279 0 0 65279 0 0 65279 0 0 65279 0 0 65279 0 0 65279 0 0 65279 0 0 65279 0 0 65279 0 0 65279 0 0 65279 0 0 65279 0 0 65279 0 0 65279 0 0 65279 0 0 65279 0 0 65279 0 0 65279 0 0 65279 0 0 65279 0 0 65279 0 0 65279 0 0 65279 0 0 65279 0 0 65279 0 0 65279 0 0 65279 0 0 65279 0 0 65279 0 0 65279 0 0 65279 0 0 65279 0 0 65279 0 0 65279 0 0 65279 0 0 65279 0 0 65279 0 0 65279 0 0 65279 0 0 65279 0 0 65279 0 0 65279 0 0 65279 0 0 65279 0 0 65279 0 0 65279 0 0 65279 0 0 65279 0 0 65279 0 0 65279 0 0 65279 0 0 65279 0 0 65279 0 0 65279 0 0 65279 0 0 65279 0 0 65279 0 0 65279 0 0 65279 0 0 65279 0 0 65279 0 0 65279 0 0 65279 0 0 65279 0 0 65279 0 0 65279 0 0 65279 0 0 65279 0 0 65279 0 0 65279 0 0 65279 0 0 65279 0 0 65279 0 0 65279 0 0 65279 0 0 65279 0 0 65279 0 0 65279 0 0 65279 0 0 65279 0 0 65279 0 0 65279 0 0 65279 0 0 65279 0 0 65279 0 0 65279 0 0 65279 0 0 65279 0 0 65279 0 0 65279 0 0 65279 0 0 65279 0 0 65279 0 0 65279 0 0 65279 0 0 65279 0 0 65279 0 0 65279 0 0 65279 0 0 65279 0 0 65279 0 0 65279 0 0 65279 0 0 65279 0 0 65279 0 0 65279 0 0 65279 0 0 65279 0 0 65279 0 0 65279 0 0 65279 0 0 65279 0 0 65279 0 0 65279 0 0 65279 0 0 65279 0 0 65279 0 0 65279 0 0 65279 0 0 65279 0 0 65279 0 0 65279 0 0 65279 0 0 65279 0 0 65279 0 0 65279 0 0 65279 0 0 65279 0 0 65279 0 0 65279 0 0 65279 0 0 65279 0 0 65279 0 0 65279 0 0 65279 0 0 65279 0 0 65279 0 0 65279 0 0 65279 0 0 65279 0 0 65279 0 0 65279 0 0 65279 0 0 65279 0 0 65279 0 0 65279 0 0 65279 0 0 65279 0 0 65279 0 0 65279 0 0 65279 0 0 65279 0 0 65279 0 0 65279 0 0 65279 0 0 65279 0 0 65279 0 0 65279 0 0 65279 0 0 65279 0 0 65279 0 0 65279 0 0 65279 0 0 65279 0 0 65279 0 0 65279 0 0 65279 0 0 65279 0 0 65279 0 0 65279 0 0 65279 0 0 65279 0 0 65279 0 0 65279 0 0 65279 0 0 65279 0 0 65279 0 0 65279 0 0 65279 0 0 65279 0 0 65279 0 0 65279 0 0 65279 0 0 65279 0 0 65279 0 0 65279 0 0 65279 0 0 65279 0 0 65279 0 0 65279 0 0 65279 0 0 65279 0 0 65279 0 0 65279 0 0 65279 0 0 65279 0 0 65279 0 0 65279 0 0 65279 0 0 65279 0 0 65279 0 0 65279 0 0 65279 0 0 65279 0 0 65279 0 0 65279 0 0 65279 0 0 65279 0 0 65279 0 0 65279 0 0 65279 0 0 65279 0 0 65279 0 0 65279 0 0 65279 0 0 65279 0 0 65279 0 0 65279 0 0 65279 0 0 65279 0 0 65279 0 0 65279 0 0 65279 0 0 65279 0 0 65279 0 0 65279 0 0 65279 0 0 65279 0 0 65279 0 0 65279 0 0 65279 0 0 65279 0 0 65279 0 0 65279 0 0 65279 0 0 65279 0 0 65279 0 0 65279 0 0 65279 0 0 65279 0 0 65279 0 0 65279 0 0 65279 0 0 65279 0 0 65279 0 0 65279 0 0 65279 0 0 65279 0 0 65279 0 0 65279 0 0 65279 0 0 65279 0 0 65279 0 0 65279 0 0 65279 0 0 65279 0 0 65279 0 0 65279 0 0 65279 0 0 65279 0 0 65279 0 0 65279 0 0 65279 0 0 65279 0 0 65279 0 0 65279 0 0 65279 0 0 65279 0 0 65279 0 0 65279 0 0 65279 0 0 65279 0 0 65279 0 0 65279 0 0 65279 0 0 65279 0 0 65279 0 0 65279 0 0 65279 0 0 65279 0 0 65279 0 0 65279 0 0 65279 0 0 65279 0 0 65279 0 0 65279 0 0 65279 0 0 65279 0 0 65279 0 0 65279 0 0 65279 0 0 65279 0 0 65279 0 0 65279 0 0 65279 0 0 65279 0 0 65279 0 0 65279 0 0 65279 0 0 65279 0 0 65279 0 0 65279 0 0 65279 0 0 65279 0 0 65279 0 0 65279 0 0 65279 0 0 65279 0 0 65279 0 0 65279 0 0 65279 0 0 65279 0 0 65279 0 0 65279 0 0 65279 0 0 65279 0 0 65279 0 0 65279 0 0 65279 0 0 65279 0 0 65279 0 0 65279 0 0 65279 0 0 65279 0 0 65279 0 0 65279 0 0 65279 0 0 65279 0 0 65279 0 0 65279 0 0 65279 0 0 65279 0 0 65279 0 0 65279 0 0 65279 0 0 65279 0 0 65279 0 0 65279 0 0 65279 0 0 65279 0 0 65279 0 0 65279 0 0 65279 0 0 65279 0 0 65279 0 0 65279 0 0 65279 0 0 65279 0 0 65279 0 0 65279 0 0 65279 0 0 65279 0 0 65279 0 0 65279 0 0 65279 0 0 65279 0 0 65279 0 0 65279 0 0 65279 0 0 65279 0 0 65279 0 0 65279 0 0 65279 0 0 65279 0 0 65279 0 0 65279 0 0 65279 0 0 65279 0 0 65279 0 0 65279 0 0 65279 0 0 65279 0 0 65279 0 0 65279 0 0 65279 0 0 65279 0 0 65279 0 0 65279 0 0 65279 0 0 65279 0 0 65279 0 0 65279 0 0 65279 0 0 65279 0 0 65279 0 0 65279 0 0 65279 0 0 65279 0 0 65279 0 0 65279 0 0 65279 0 0 65279 0 0 65279 0 0 65279 0 0 65279 0 0 65279 0 0 65279 0 0 65279 0 0 65279 0 0 65279 0 0 65279 0 0 65279 0 0 65279 0 0 65279 0 0 65279 0 0 65279 0 0 65279 0 0 65279 0 0 65279 0 0 65279 0 0 65279 0 0 65279 0 0 65279 0 0 65279 0 0 65279 0 0 65279 0 0 65279 0 0 65279 0 0 65279 0 0 65279 0 0 65279 0 0 65279 0 0 65279 0 0 65279 0 0 65279 0 0 65279 0 0 65279 0 0 65279 0 0 65279 0 0 65279 0 0 65279 0 0 65279 0 0 65279 0 0 65279 0 0 65279 0 0 65279 0 0 65279 0 0 65279 0 0 65279 0 0 65279 0 0 65279 0 0 65279 0 0 65279 0 0 65279 0 0 65279 0 0 65279 0 0 65279 0 0 65279 0 0 65279 0 0 65279 0 0 65279 0 0 65279 0 0 65279 0 0 65279 0 0 65279 0 0 65279 0 0 65279 0 0 65279 0 0 65279 0 0 65279 0 0 65279 0 0 65279 0 0 65279 0 0 65279 0 0 65279 0 0 65279 0 0 65279 0 0 65279 0 0 65279 0 0 65279 0 0 65279 0 0 65279 0 0 65279 0 0 65279 0 0 65279 0 0 65279 0 0 65279 0 0 65279 0 0 65279 0 0 65279 0 0 65279 0 0 65279 0 0 65279 0 0 65279 0 0 65279 0 0 65279 0 0 65279 0 0 65279 0 0 65279 0 0 65279 0 0 65279 0 0 65279 0 0 65279 0 0 65279 0 0 65279 0 0 65279 0 0 65279 0 0 65279 0 0 65279 0 0 65279 0 0 65279 0 0 65279 0 0 65279 0 0 65279 0 0 65279 0 0 65279 0 0 65279 0 0 65279 0 0 65279 0 0 65279 0 0 65279 0 0 65279 0 0 65279 0 0 65279 0 0 65279 0 0 65279 0 0 65279 0 0 65279 0 0 65279 0 0 65279 0 0 65279 0 0 65279 0 0 65279 0 0 65279 0 0 65279 0 0 65279 0 0 65279 0 0 65279 0 0 65279 0 0 65279 0 0 65279 0 0 65279 0 0 65279 0 0 65279 0 0 65279 0 0 65279 0 0 65279 0 0 65279 0 0 65279 0 0 65279 0 0 65279 0 0 65279 0 0 65279 0 0 65279 0 0 65279 0 0 65279 0 0 65279 0 0 65279 0 0 65279 0 0 65279 0 0 65279 0 0 65279 0 0 65279 0 0 65279 0 0 65279 0 0 65279 0 0 65279 0 0 65279 0 0 65279 0 0 65279 0 0 65279 0 0 65279 0 0 65279 0 0 65279 0 0 65279 0 0 65279 0 0 65279 0 0 65279 0 0 65279 0 0 65279 0 0 65279 0 0 65279 0 0 65279 0 0 65279 0 0 65279 0 0 65279 0 0 65279 0 0 65279 0 0 65279 0 0 65279 0 0 65279 0 0 65279 0 0 65279 0 0 65279 0 0 65279 0 0 65279 0 0 65279 0 0 65279 0 0 65279 0 0 65279 0 0 65279 0 0 65279 0 0 65279 0 0 65279 0 0 65279 0 0 65279 0 0 65279 0 0 65279 0 0 65279 0 0 65279 0 0 65279 0 0 65279 0 0 65279 0 0 65279 0 0 65279 0 0 65279 0 0 65279 0 0 65279 0 0 65279 0 0 65279 0 0 65279 0 0 65279 0 0 65279 0 0 65279 0 0 65279 0 0 65279 0 0 65279 0 0 65279 0 0 65279 0 0 65279 0 0 65279 0 0 65279 0 0 65279 0 0 65279 0 0 65279 0 0 65279 0 0 65279 0 0 65279 0 0 65279 0 0 65279 0 0 65279 0 0 65279 0 0 65279 0 0 65279 0 0 65279 0 0 65279 0 0 65279 0 0 65279 0 0 65279 0 0 65279 0 0 65279 0 0 65279 0 0 65279 0 0 65279 0 0 65279 0 0 65279 0 0 65279 0 0 65279 0 0 65279 0 0 65279 0 0 65279 0 0 65279 0 0 65279 0 0 65279 0 0 65279 0 0 65279 0 0 65279 0 0 65279 0 0 65279 0 0 65279 0 0 65279 0 0 65279 0 0 65279 0 0 65279 0 0 65279 0 0 65279 0 0 65279 0 0 65279 0 0 65279 0 0 65279 0 0 65279 0 0 65279 0 0 65279 0 0 65279 0 0 65279 0 0 65279 0 0 65279 0 0 65279 0 0 65279 0 0 65279 0 0 65279 0 0 65279 0 0 65279 0 0 65279 0 0 65279 0 0 65279 0 0 65279 0 0 65279 0 0 65279 0 0 65279 0 0 65279 0 0 65279 0 0 65279 0 0 65279 0 0 65279 0 0 65279 0 0 65279 0 0 65279 0 0 65279 0 0 65279 0 0 65279 0 0 65279 0 0 65279 0 0 65279 0 0 65279 0 0 65279 0 0 65279 0 0 65279 0 0 65279 0 0 65279 0 0 65279 0 0 65279 0 0 65279 0 0 65279 0 0 65279 0 0 65279 0 0 65279 0 0 65279 0 0 65279 0 0 65279 0 0 65279 0 0 65279 0 0 65279 0 0 65279 0 0 65279 0 0 65279 0 0 65279 0 0 65279 0 0 65279 0 0 65279 0 0 65279 0 0 65279 0 0 65279 0 0 65279 0 0 65279 0 0 65279 0 0 65279 0 0 65279 0 0 65279 0 0 65279 0 0 65279 0 0 65279 0 0 65279 0 0 65279 0 0 65279 0 0 65279 0 0 65279 0 0 65279 0 0 65279 0 0 65279 0 0 65279 0 0 65279 0 0 65279 0 0 65279 0 0 65279 0 0 65279 0 0 65279 0 0 65279 0 0 65279 0 0 65279 0 0 65279 0 0 65279 0 0 65279 0 0 65279 0 0 65279 0 0 65279 0 0 65279 0 0 65279 0 0 65279 0 0 65279 0 0 65279 0 0 65279 0 0 65279 0 0 65279 0 0 65279 0 0 65279 0 0 65279 0 0 65279 0 0 65279 0 0 65279 0 0 65279 0 0 65279 0 0 65279 0 0 65279 0 0 65279 0 0 65279 0 0 65279 0 0 65279 0 0 65279 0 0 65279 0 0 65279 0 0 65279 0 0 65279 0 0 65279 0 0 65279 0 0 65279 0 0 65279 0 0 65279 0 0 65279 0 0 65279 0 0 65279 0 0 65279 0 0 65279 0 0 65279 0 0 65279 0 0 65279 0 0 65279 0 0 65279 0 0 65279 0 0 65279 0 0 65279 0 0 65279 0 0 65279 0 0 65279 0 0 65279 0 0 65279 0 0 65279 0 0 65279 0 0 65279 0 0 65279 0 0 65279 0 0 65279 0 0 65279 0 0 65279 0 0 65279 0 0 65279 0 0 65279 0 0 65279 0 0 65279 0 0 65279 0 0 65279 0 0 65279 0 0 65279 0 0 65279 0 0 65279 0 0 65279 0 0 65279 0 0 65279 0 0 65279 0 0 65279 0 0 65279 0 0 65279 0 0 65279 0 0 65279 0 0 65279 0 0 65279 0 0 65279 0 0 65279 0 0 65279 0 0 65279 0 0 65279 0 0 65279 0 0 65279 0 0 65279 0 0 65279 0 0 65279 0 0 65279 0 0 65279 0 0 65279 0 0 65279 0 0 65279 0 0 65279 0 0 65279 0 0 65279 0 0 65279 0 0 65279 0 0 65279 0 0 65279 0 0 65279 0 0 65279 0 0 65279 0 0 65279 0 0 65279 0 0 65279 0 0 65279 0 0 65279 0 0 65279 0 0 65279 0 0 65279 0 0 65279 0 0 65279 0 0 65279 0 0 65279 0 0 65279 0 0 65279 0 0 65279 0 0 65279 0 0 65279 0 0 65279 0 0 65279 0 0 65279 0 0 65279 0 0 65279 0 0 65279 0 0 65279 0 0 65279 0 0 65279 0 0 65279 0 0 65279 0 0 65279 0 0 65279 0 0 65279 0 0 65279 0 0 65279 0 0 65279 0 0 65279 0 0 65279 0 0 65279 0 0 65279 0 0 65279 0 0 65279 0 0 65279 0 0 65279 0 0 65279 0 0 65279 0 0 65279 0 0 65279 0 0 65279 0 0 65279 0 0 65279 0 0 65279 0 0 65279 0 0 65279 0 0 65279 0 0 65279 0 0 65279 0 0 65279 0 0 65279 0 0 65279 0 0 65279 0 0 65279 0 0 65279 0 0 65279 0 0 65279 0 0 65279 0 0 65279 0 0 65279 0 0 65279 0 0 65279 0 0 65279 0 0 65279 0 0 65279 0 0 65279 0 0 65279 0 0 65279 0 0 65279 0 0 65279 0 0 65279 0 0 65279 0 0 65279 0 0 65279 0 0 65279 0 0 65279 0 0 65279 0 0 65279 0 0 65279 0 0 65279 0 0 65279 0 0 65279 0 0 65279 0 0 65279 0 0 65279 0 0 65279 0 0 65279 0 0 65279 0 0 65279 0 0 65279 0 0 65279 0 0 65279 0 0 65279 0 0 65279 0 0 65279 0 0 65279 0 0 65279 0 0 65279 0 0 65279 0 0 65279 0 0 65279 0 0 65279 0 0 65279 0 0 65279 0 0 65279 0 0 65279 0 0 65279 0 0 65279 0 0 65279 0 0 65279 0 0 65279 0 0 65279 0 0 65279 0 0 65279 0 0 65279 0 0 65279 0 0 65279 0 0 65279 0 0 65279 0 0 65279 0 0 65279 0 0 65279 0 0 65279 0 0 65279 0 0 65279 0 0 65279 0 0 65279 0 0 65279 0 0 65279 0 0 65279 0 0 65279 0 0 65279 0 0 65279 0 0 65279 0 0 65279 0 0 65279 0 0 65279 0 0 65279 0 0 65279 0 0 65279 0 0 65279 0 0 65279 0 0 65279 0 0 65279 0 0 65279 0 0 65279 0 0 65279 0 0 65279 0 0 65279 0 0 65279 0 0 65279 0 0 65279 0 0 65279 0 0 65279 0 0 65279 0 0 65279 0 0 65279 0 0 65279 0 0 65279 0 0 65279 0 0 65279 0 0 65279 0 0 65279 0 0 65279 0 0 65279 0 0 65279 0 0 65279 0 0 65279 0 0 65279 0 0 65279 0 0 65279 0 0 65279 0 0 65279 0 0 65279 0 0 65279 0 0 65279 0 0 65279 0 0 65279 0 0 65279 0 0 65279 0 0 65279 0 0 65279 0 0 65279 0 0 65279 0 0 65279 0 0 65279 0 0 65279 0 0 65279 0 0 65279 0 0 65279 0 0 65279 0 0 65279 0 0 65279 0 0 65279 0 0 65279 0 0 65279 0 0 65279 0 0 65279 0 0 65279 0 0 65279 0 0 65279 0 0 65279 0 0 65279 0 0 65279 0 0 65279 0 0 65279 0 0 65279 0 0 65279 0 0 65279 0 0 65279 0 0 65279 0 0 65279 0 0 65279 0 0 65279 0 0 65279 0 0 65279 0 0 65279 0 0 65279 0 0 65279 0 0 65279 0 0 65279 0 0 65279 0 0 65279 0 0 65279 0 0 65279 0 0 65279 0 0 65279 0 0 65279 0 0 65279 0 0 65279 0 0 65279 0 0 65279 0 0 65279 0 0 65279 0 0 65279 0 0 65279 0 0 65279 0 0 65279 0 0 65279 0 0 65279 0 0 65279 0 0 65279 0 0 65279 0 0 65279 0 0 65279 0 0 65279 0 0 65279 0 0 65279 0 0 65279 0 0 65279 0 0 65279 0 0 65279 0 0 65279 0 0 65279 0 0 65279 0 0 65279 0 0 65279 0 0 65279 0 0 65279 0 0 65279 0 0 65279 0 0 65279 0 0 65279 0 0 65279 0 0 65279 0 0 65279 0 0 65279 0 0 65279 0 0 65279 0 0 65279 0 0 65279 0 0 65279 0 0 65279 0 0 65279 0 0 65279 0 0 65279 0 0 65279 0 0 65279 0 0 65279 0 0 65279 0 0 65279 0 0 65279 0 0 65279 0 0 65279 0 0 65279 0 0 65279 0 0 65279 0 0 65279 0 0 65279 0 0 65279 0 0 65279 0 0 65279 0 0 65279 0 0 65279 0 0 65279 0 0 65279 0 0 65279 0 0 65279 0 0 65279 0 0 65279 0 0 65279 0 0 65279 0 0 65279 0 0 65279 0 0 65279 0 0 65279 0 0 65279 0 0 65279 0 0 65279 0 0 65279 0 0 65279 0 0 65279 0 0 65279 0 0 65279 0 0 65279 0 0 65279 0 0 65279 0 0 65279 0 0 65279 0 0 65279 0 0 65279 0 0 65279 0 0 65279 0 0 65279 0 0 65279 0 0 65279 0 0 65279 0 0 65279 0 0 65279 0 0 65279 0 0 65279 0 0 65279 0 0 65279 0 0 65279 0 0 65279 0 0 65279 0 0 65279 0 0 65279 0 0 65279 0 0 65279 0 0 65279 0 0 65279 0 0 65279 0 0 65279 0 0 65279 0 0 65279 0 0 65279 0 0 65279 0 0 65279 0 0 65279 0 0 65279 0 0 65279 0 0 65279 0 0 65279 0 0 65279 0 0 65279 0 0 65279 0 0 65279 0 0 65279 0 0 65279 0 0 65279 0 0 65279 0 0 65279 0 0 65279 0 0 65279 0 0 65279 0 0 65279 0 0 65279 0 0 65279 0 0 65279 0 0 65279 0 0 65279 0 0 65279 0 0 65279 0 0 65279 0 0 65279 0 0 65279 0 0 65279 0 0 65279 0 0 65279 0 0 65279 0 0 65279 0 0 65279 0 0 65279 0 0 65279 0 0 65279 0 0 65279 0 0 65279 0 0 65279 0 0 65279 0 0 65279 0 0 65279 0 0 65279 0 0 65279 0 0 65279 0 0 65279 0 0 65279 0 0 65279 0 0 65279 0 0 65279 0 0 65279 0 0 65279 0 0 65279 0 0 65279 0 0 65279 0 0 65279 0 0 65279 0 0 65279 0 0 65279 0 0 65279 0 0 65279 0 0 65279 0 0 65279 0 0 65279 0 0 65279 0 0 65279 0 0 65279 0 0 65279 0 0 65279 0 0 65279 0 0 65279 0 0 65279 0 0 65279 0 0 65279 0 0 65279 0 0 65279 0 0 65279 0 0 65279 0 0 65279 0 0 65279 0 0 65279 0 0 65279 0 0 65279 0 0 65279 0 0 65279 0 0 65279 0 0 65279 0 0 65279 0 0 65279 0 0 65279 0 0 65279 0 0 65279 0 0 65279 0 0 65279 0 0 65279 0 0 65279 0 0 65279 0 0 65279 0 0 65279 0 0 65279 0 0 65279 0 0 65279 0 0 65279 0 0 65279 0 0 65279 0 0 65279 0 0 65279 0 0 65279 0 0 65279 0 0 65279 0 0 65279 0 0 65279 0 0 65279 0 0 65279 0 0 65279 0 0 65279 0 0 65279 0 0 65279 0 0 65279 0 0 65279 0 0 65279 0 0 65279 0 0 65279 0 0 65279 0 0 65279 0 0 65279 0 0 65279 0 0 65279 0 0 65279 0 0 65279 0 0 65279 0 0 65279 0 0 65279 0 0 65279 0 0 65279 0 0 65279 0 0 65279 0 0 65279 0 0 65279 0 0 65279 0 0 65279 0 0 65279 0 0 65279 0 0 65279 0 0 65279 0 0 65279 0 0 65279 0 0 65279 0 0 65279 0 0 65279 0 0 65279 0 0 65279 0 0 65279 0 0 65279 0 0 65279 0 0 65279 0 0 65279 0 0 65279 0 0 65279 0 0 65279 0 0 65279 0 0 65279 0 0 65279 0 0 65279 0 0 65279 0 0 65279 0 0 65279 0 0 65279 0 0 65279 0 0 65279 0 0 65279 0 0 65279 0 0 65279 0 0 65279 0 0 65279 0 0 65279 0 0 65279 0 0 65279 0 0 65279 0 0 65279 0 0 65279 0 0 65279 0 0 65279 0 0 65279 0 0 65279 0 0 65279 0 0 65279 0 0 65279 0 0 65279 0 0 65279 0 0 65279 0 0 65279 0 0 65279 0 0 65279 0 0 65279 0 0 65279 0 0 65279 0 0 65279 0 0 65279 0 0 65279 0 0 65279 0 0 65279 0 0 65279 0 0 65279 0 0 65279 0 0 65279 0 0 65279 0 0 65279 0 0 65279 0 0 65279 0 0 65279 0 0 65279 0 0 65279 0 0 65279 0 0 65279 0 0 65279 0 0 65279 0 0 65279 0 0 65279 0 0 65279 0 0 65279 0 0 65279 0 0 65279 0 0 65279 0 0 65279 0 0 65279 0 0 65279 0 0 65279 0 0 65279 0 0 65279 0 0 65279 0 0 65279 0 0 65279 0 0 65279 0 0 65279 0 0 65279 0 0 65279 0 0 65279 0 0 65279 0 0 65279 0 0 65279 0 0 65279 0 0 65279 0 0 65279 0 0 65279 0 0 65279 0 0 65279 0 0 65279 0 0 65279 0 0 65279 0 0 65279 0 0 65279 0 0 65279 0 0 65279 0 0 65279 0 0 65279 0 0 65279 0 0 65279 0 0 65279 0 0 65279 0 0 65279 0 0 65279 0 0 65279 0 0 65279 0 0 65279 0 0 65279 0 0 65279 0 0 65279 0 0 65279 0 0 65279 0 0 65279 0 0 65279 0 0 65279 0 0 65279 0 0 65279 0 0 65279 0 0 65279 0 0 65279 0 0 65279 0 0 65279 0 0 65279 0 0 65279 0 0 65279 0 0 65279 0 0 65279 0 0 65279 0 0 65279 0 0 65279 0 0 65279 0 0 65279 0 0 65279 0 0 65279 0 0 65279 0 0 65279 0 0 65279 0 0 65279 0 0 65279 0 0 65279 0 0 65279 0 0 65279 0 0 65279 0 0 65279 0 0 65279 0 0 65279 0 0 65279 0 0 65279 0 0 65279 0 0 65279 0 0 65279 0 0 65279 0 0 65279 0 0 65279 0 0 65279 0 0 65279 0 0 65279 0 0 65279 0 0 65279 0 0 65279 0 0 65279 0 0 65279 0 0 65279 0 0 65279 0 0 65279 0 0 65279 0 0 65279 0 0 65279 0 0 65279 0 0 65279 0 0 65279 0 0 65279 0 0 65279 0 0 65279 0 0 65279 0 0 65279 0 0 65279 0 0 65279 0 0 65279 0 0 65279 0 0 65279 0 0 65279 0 0 65279 0 0 65279 0 0 65279 0 0 65279 0 0 65279 0 0 65279 0 0 65279 0 0 65279 0 0 65279 0 0 65279 0 0 65279 0 0 65279 0 0 65279 0 0 65279 0 0 65279 0 0 65279 0 0 65279 0 0 65279 0 0 65279 0 0 65279 0 0 65279 0 0 65279 0 0 65279 0 0 65279 0 0 65279 0 0 65279 0 0 65279 0 0 65279 0 0 65279 0 0 65279 0 0 65279 0 0 65279 0 0 65279 0 0 65279 0 0 65279 0 0 65279 0 0 65279 0 0 65279 0 0 65279 0 0 65279 0 0 65279 0 0 65279 0 0 65279 0 0 65279 0 0 65279 0 0 65279 0 0 65279 0 0 65279 0 0 65279 0 0 65279 0 0 65279 0 0 65279 0 0 65279 0 0 65279 0 0 65279 0 0 65279 0 0 65279 0 0 65279 0 0 65279 0 0 65279 0 0 65279 0 0 65279 0 0 65279 0 0 65279 0 0 65279 0 0 65279 0 0 65279 0 0 65279 0 0 65279 0 0 65279 0 0 65279 0 0 65279 0 0 65279 0 0 65279 0 0 65279 0 0 65279 0 0 65279 0 0 65279 0 0 65279 0 0 65279 0 0 65279 0 0 65279 0 0 65279 0 0 65279 0 0 65279 0 0 65279 0 0 65279 0 0 65279 0 0 65279 0 0 65279 0 0 65279 0 0 65279 0 0 65279 0 0 65279 0 0 65279 0 0 65279 0 0 65279 0 0 65279 0 0 65279 0 0 65279 0 0 65279 0 0 65279 0 0 65279 0 0 65279 0 0 65279 0 0 65279 0 0 65279 0 0 65279 0 0 65279 0 0 65279 0 0 65279 0 0 65279 0 0 65279 0 0 65279 0 0 65279 0 0 65279 0 0 65279 0 0 65279 0 0 65279 0 0 65279 0 0 65279 0 0 65279 0 0 65279 0 0 65279 0 0 65279 0 0 65279 0 0 65279 0 0 65279 0 0 65279 0 0 65279 0 0 65279 0 0 65279 0 0 65279 0 0 65279 0 0 65279 0 0 65279 0 0 65279 0 0 65279 0 0 65279 0 0 65279 0 0 65279 0 0 65279 0 0 65279 0 0 65279 0 0 65279 0 0 65279 0 0 65279 0 0 65279 0 0 65279 0 0 65279 0 0 65279 0 0 65279 0 0 65279 0 0 65279 0 0 65279 0 0 65279 0 0 65279 0 0 65279 0 0 65279 0 0 65279 0 0 65279 0 0 65279 0 0 65279 0 0 65279 0 0 65279 0 0 65279 0 0 65279 0 0 65279 0 0 65279 0 0 65279 0 0 65279 0 0 65279 0 0 65279 0 0 65279 0 0 65279 0 0 65279 0 0 65279 0 0 65279 0 0 65279 0 0 65279 0 0 65279 0 0 65279 0 0 65279 0 0 65279 0 0 65279 0 0 65279 0 0 65279 0 0 65279 0 0 65279 0 0 65279 0 0 65279 0 0 65279 0 0 65279 0 0 65279 0 0 65279 0 0 65279 0 0 65279 0 0 65279 0 0 65279 0 0 65279 0 0 65279 0 0 65279 0 0 65279 0 0 65279 0 0 65279 0 0 65279 0 0 65279 0 0 65279 0 0 65279 0 0 65279 0 0 65279 0 0 65279 0 0 65279 0 0 65279 0 0 65279 0 0 65279 0 0 65279 0 0 65279 0 0 65279 0 0 65279 0 0 65279 0 0 65279 0 0 65279 0 0 65279 0 0 65279 0 0 65279 0 0 65279 0 0 65279 0 0 65279 0 0 65279 0 0 65279 0 0 65279 0 0 65279 0 0 65279 0 0 65279 0 0 65279 0 0 65279 0 0 65279 0 0 65279 0 0 65279 0 0 65279 0 0 65279 0 0 65279 0 0 65279 0 0 65279 0 0 65279 0 0 65279 0 0 65279 0 0 65279 0 0 65279 0 0 65279 0 0 65279 0 0 65279 0 0 65279 0 0 65279 0 0 65279 0 0 65279 0 0 65279 0 0 65279 0 0 65279 0 0 65279 0 0 65279 0 0 65279 0 0 65279 0 0 65279 0 0 65279 0 0 65279 0 0 65279 0 0 65279 0 0 65279 0 0 65279 0 0 65279 0 0 65279 0 0 65279 0 0 65279 0 0 65279 0 0 65279 0 0 65279 0 0 65279 0 0 65279 0 0 65279 0 0 65279 0 0 65279 0 0 65279 0 0 65279 0 0 65279 0 0 65279 0 0 65279 0 0 65279 0 0 65279 0 0 65279 0 0 65279 0 0 65279 0 0 65279 0 0 65279 0 0 65279 0 0 65279 0 0 65279 0 0 65279 0 0 65279 0 0 65279 0 0 65279 0 0 65279 0 0 65279 0 0 65279 0 0 65279 0 0 65279 0 0 65279 0 0 65279 0 0 65279 0 0 65279 0 0 65279 0 0 65279 0 0 65279 0 0 65279 0 0 65279 0 0 65279 0 0 65279 0 0 65279 0 0 65279 0 0 65279 0 0 65279 0 0 65279 0 0 65279 0 0 65279 0 0 65279 0 0 65279 0 0 65279 0 0 65279 0 0 65279 0 0 65279 0 0 65279 0 0 65279 0 0 65279 0 0 65279 0 0 65279 0 0 65279 0 0 65279 0 0 65279 0 0 65279 0 0 65279 0 0 65279 0 0 65279 0 0 65279 0 0 65279 0 0 65279 0 0 65279 0 0 65279 0 0 65279 0 0 65279 0 0 65279 0 0 65279 0 0 65279 0 0 65279 0 0 65279 0 0 65279 0 0 65279 0 0 65279 0 0 65279 0 0 65279 0 0 65279 0 0 65279 0 0 65279 0 0 65279 0 0 65279 0 0 65279 0 0 65279 0 0 65279 0 0 65279 0 0 65279 0 0 65279 0 0 65279 0 0 65279 0 0 65279 0 0 65279 0 0 65279 0 0 65279 0 0 65279 0 0 65279 0 0 65279 0 0 65279 0 0 65279 0 0 65279 0 0 65279 0 0 65279 0 0 65279 0 0 65279 0 0 65279 0 0 65279 0 0 65279 0 0 65279 0 0 65279 0 0 65279 0 0 65279 0 0 65279 0 0 65279 0 0 65279 0 0 65279 0 0 65279 0 0 65279 0 0 65279 0 0 65279 0 0 65279 0 0 65279 0 0 65279 0 0 65279 0 0 65279 0 0 65279 0 0 65279 0 0 65279 0 0 65279 0 0 65279 0 0 65279 0 0 65279 0 0 65279 0 0 65279 0 0 65279 0 0 65279 0 0 65279 0 0 65279 0 0 65279 0 0 65279 0 0 65279 0 0 65279 0 0 65279 0 0 65279 0 0 65279 0 0 65279 0 0 65279 0 0 65279 0 0 65279 0 0 65279 0 0 65279 0 0 65279 0 0 65279 0 0 65279 0 0 65279 0 0 65279 0 0 65279 0 0 65279 0 0 65279 0 0 65279 0 0 65279 0 0 65279 0 0 65279 0 0 65279 0 0 65279 0 0 65279 0 0 65279 0 0 65279 0 0 65279 0 0 65279 0 0 65279 0 0 65279 0 0 65279 0 0 65279 0 0 65279 0 0 65279 0 0 65279 0 0 65279 0 0 65279 0 0 65279 0 0 65279 0 0 65279 0 0 65279 0 0 65279 0 0 65279 0 0 65279 0 0 65279 0 0 65279 0 0 65279 0 0 65279 0 0 65279 0 0 65279 0 0 65279 0 0 65279 0 0 65279 0 0 65279 0 0 65279 0 0 65279 0 0 65279 0 0 65279 0 0 65279 0 0 65279 0 0 65279 0 0 65279 0 0 65279 0 0 65279 0 0 65279 0 0 65279 0 0 65279 0 0 65279 0 0 65279 0 0 65279 0 0 65279 0 0 65279 0 0 65279 0 0 65279 0 0 65279 0 0 65279 0 0 65279 0 0 65279 0 0 65279 0 0 65279 0 0 65279 0 0 65279 0 0 65279 0 0 65279 0 0 65279 0 0 65279 0 0 65279 0 0 65279 0 0 65279 0 0 65279 0 0 65279 0 0 65279 0 0 65279 0 0 65279 0 0 65279 0 0 65279 0 0 65279 0 0 65279 0 0 65279 0 0 65279 0 0 65279 0 0 65279 0 0 65279 0 0 65279 0 0 65279 0 0 65279 0 0 65279 0 0 65279 0 0 65279 0 0 65279 0 0 65279 0 0 65279 0 0 65279 0 0 65279 0 0 65279 0 0 65279 0 0 65279 0 0 65279 0 0 65279 0 0 65279 0 0 65279 0 0 65279 0 0 65279 0 0 65279 0 0 65279 0 0 65279 0 0 65279 0 0 65279 0 0 65279 0 0 65279 0 0 65279 0 0 65279 0 0 65279 0 0 65279 0 0 65279 0 0 65279 0 0 65279 0 0 65279 0 0 65279 0 0 65279 0 0 65279 0 0 65279 0 0 65279 0 0 65279 0 0 65279 0 0 65279 0 0 65279 0 0 65279 0 0 65279 0 0 65279 0 0 65279 0 0 65279 0 0 65279 0 0 65279 0 0 65279 0 0 65279 0 0 65279 0 0 65279 0 0 65279 0 0 65279 0 0 65279 0 0 65279 0 0 65279 0 0 65279 0 0 65279 0 0 65279 0 0 65279 0 0 65279 0 0 65279 0 0 65279 0 0 65279 0 0 65279 0 0 65279 0 0 65279 0 0 65279 0 0 65279 0 0 65279 0 0 65279 0 0 65279 0 0 65279 0 0 65279 0 0 65279 0 0 65279 0 0 65279 0 0 65279 0 0 65279 0 0 65279 0 0 65279 0 0 65279 0 0 65279 0 0 65279 0 0 65279 0 0 65279 0 0 65279 0 0 65279 0 0 65279 0 0 65279 0 0 65279 0 0 65279 0 0 65279 0 0 65279 0 0 65279 0 0 65279 0 0 65279 0 0 65279 0 0 65279 0 0 65279 0 0 65279 0 0 65279 0 0 65279 0 0 65279 0 0 65279 0 0 65279 0 0 65279 0 0 65279 0 0 65279 0 0 65279 0 0 65279 0 0 65279 0 0 65279 0 0 65279 0 0 65279 0 0 65279 0 0 65279 0 0 65279 0 0 65279 0 0 65279 0 0 65279 0 0 65279 0 0 65279 0 0 65279 0 0 65279 0 0 65279 0 0 65279 0 0 65279 0 0 65279 0 0 65279 0 0 65279 0 0 65279 0 0 65279 0 0 65279 0 0 65279 0 0 65279 0 0 65279 0 0 65279 0 0 65279 0 0 65279 0 0 65279 0 0 65279 0 0 65279 0 0 65279 0 0 65279 0 0 65279 0 0 65279 0 0 65279 0 0 65279 0 0 65279 0 0 65279 0 0 65279 0 0 65279 0 0 65279 0 0 65279 0 0 65279 0 0 65279 0 0 65279 0 0 65279 0 0 65279 0 0 65279 0 0 65279 0 0 65279 0 0 65279 0 0 65279 0 0 65279 0 0 65279 0 0 65279 0 0 65279 0 0 65279 0 0 65279 0 0 65279 0 0 65279 0 0 65279 0 0 65279 0 0 65279 0 0 65279 0 0 65279 0 0 65279 0 0 65279 0 0 65279 0 0 65279 0 0 65279 0 0 65279 0 0 65279 0 0 65279 0 0 65279 0 0 65279 0 0 65279 0 0 65279 0 0 65279 0 0 65279 0 0 65279 0 0 65279 0 0 65279 0 0 65279 0 0 65279 0 0 65279 0 0 65279 0 0 65279 0 0 65279 0 0 65279 0 0 65279 0 0 65279 0 0 65279 0 0 65279 0 0 65279 0 0 65279 0 0 65279 0 0 65279 0 0 65279 0 0 65279 0 0 65279 0 0 65279 0 0 65279 0 0 65279 0 0 65279 0 0 65279 0 0 65279 0 0 65279 0 0 65279 0 0 65279 0 0 65279 0 0 65279 0 0 65279 0 0 65279 0 0 65279 0 0 65279 0 0 65279 0 0 65279 0 0 65279 0 0 65279 0 0 65279 0 0 65279 0 0 65279 0 0 65279 0 0 65279 0 0 65279 0 0 65279 0 0 65279 0 0 65279 0 0 65279 0 0 65279 0 0 65279 0 0 65279 0 0 65279 0 0 65279 0 0 65279 0 0 65279 0 0 65279 0 0 65279 0 0 65279 0 0 65279 0 0 65279 0 0 65279 0 0 65279 0 0 65279 0 0 65279 0 0 65279 0 0 65279 0 0 65279 0 0 65279 0 0 65279 0 0 65279 0 0 65279 0 0 65279 0 0 65279 0 0 65279 0 0 65279 0 0 65279 0 0 65279 0 0 65279 0 0 65279 0 0 65279 0 0 65279 0 0 65279 0 0 65279 0 0 65279 0 0 65279 0 0 65279 0 0 65279 0 0 65279 0 0 65279 0 0 65279 0 0 65279 0 0 65279 0 0 65279 0 0 65279 0 0 65279 0 0 65279 0 0 65279 0 0 65279 0 0 65279 0 0 65279 0 0 65279 0 0 65279 0 0 65279 0 0 65279 0 0 65279 0 0 65279 0 0 65279 0 0 65279 0 0 65279 0 0 65279 0 0 65279 0 0 65279 0 0 65279 0 0 65279 0 0 65279 0 0 65279 0 0 65279 0 0 65279 0 0 65279 0 0 65279 0 0 65279 0 0 65279 0 0 65279 0 0 65279 0 0 65279 0 0 65279 0 0 65279 0 0 65279 0 0 65279 0 0 65279 0 0 65279 0 0 65279 0 0 65279 0 0 65279 0 0 65279 0 0 65279 0 0 65279 0 0 65279 0 0 65279 0 0 65279 0 0 65279 0 0 65279 0 0 65279 0 0 65279 0 0 65279 0 0 65279 0 0 65279 0 0 65279 0 0 65279 0 0 65279 0 0 65279 0 0 65279 0 0 65279 0 0 65279 0 0 65279 0 0 65279 0 0 65279 0 0 65279 0 0 65279 0 0 65279 0 0 65279 0 0 65279 0 0 65279 0 0 65279 0 0 65279 0 0 65279 0 0 65279 0 0 65279 0 0 65279 0 0 65279 0 0 65279 0 0 65279 0 0 65279 0 0 65279 0 0 65279 0 0 65279 0 0 65279 0 0 65279 0 0 65279 0 0 65279 0 0 65279 0 0 65279 0 0 65279 0 0 65279 0 0 65279 0 0 65279 0 0 65279 0 0 65279 0 0 65279 0 0 65279 0 0 65279 0 0 65279 0 0 65279 0 0 65279 0 0 65279 0 0 65279 0 0 65279 0 0 65279 0 0 65279 0 0 65279 0 0 65279 0 0 65279 0 0 65279 0 0 65279 0 0 65279 0 0 65279 0 0 65279 0 0 65279 0 0 65279 0 0 65279 0 0 65279 0 0 65279 0 0 65279 0 0 65279 0 0 65279 0 0 65279 0 0 65279 0 0 65279 0 0 65279 0 0 65279 0 0 65279 0 0 65279 0 0 65279 0 0 65279 0 0 65279 0 0 65279 0 0 65279 0 0 65279 0 0 65279 0 0 65279 0 0 65279 0 0 65279 0 0 65279 0 0 65279 0 0 65279 0 0 65279 0 0 65279 0 0 65279 0 0 65279 0 0 65279 0 0 65279 0 0 65279 0 0 65279 0 0 65279 0 0 65279 0 0 65279 0 0 65279 0 0 65279 0 0 65279 0 0 65279 0 0 65279 0 0 65279 0 0 65279 0 0 65279 0 0 65279 0 0 65279 0 0 65279 0 0 65279 0 0 65279 0 0 65279 0 0 65279 0 0 65279 0 0 65279 0 0 65279 0 0 65279 0 0 65279 0 0 65279 0 0 65279 0 0 65279 0 0 65279 0 0 65279 0 0 65279 0 0 65279 0 0 65279 0 0 65279 0 0 65279 0 0 65279 0 0 65279 0 0 65279 0 0 65279 0 0 65279 0 0 65279 0 0 65279 0 0 65279 0 0 65279 0 0 65279 0 0 65279 0 0 65279 0 0 65279 0 0 65279 0 0 65279 0 0 65279 0 0 65279 0 0 65279 0 0 65279 0 0 65279 0 0 65279 0 0 65279 0 0 65279 0 0 65279 0 0 65279 0 0 65279 0 0 65279 0 0 65279 0 0 65279 0 0 65279 0 0 65279 0 0 65279 0 0 65279 0 0 65279 0 0 65279 0 0 65279 0 0 65279 0 0 65279 0 0 65279 0 0 65279 0 0 65279 0 0 65279 0 0 65279 0 0 65279 0 0 65279 0 0 65279 0 0 65279 0 0 65279 0 0 65279 0 0 65279 0 0 65279 0 0 65279 0 0 65279 0 0 65279 0 0 65279 0 0 65279 0 0 65279 0 0 65279 0 0 65279 0 0 65279 0 0 65279 0 0 65279 0 0 65279 0 0 65279 0 0 65279 0 0 65279 0 0 65279 0 0 65279 0 0 65279 0 0 65279 0 0 65279 0 0 65279 0 0 65279 0 0 65279 0 0 65279 0 0 65279 0 0 65279 0 0 65279 0 0 65279 0 0 65279 0 0 65279 0 0 65279 0 0 65279 0 0 65279 0 0 65279 0 0 65279 0 0 65279 0 0 65279 0 0 65279 0 0 65279 0 0 65279 0 0 65279 0 0 65279 0 0 65279 0 0 65279 0 0 65279 0 0 65279 0 0 65279 0 0 65279 0 0 65279 0 0 65279 0 0 65279 0 0 65279 0 0 65279 0 0 65279 0 0 65279 0 0 65279 0 0 65279 0 0 65279 0 0 65279 0 0 65279 0 0 65279 0 0 65279 0 0 65279 0 0 65279 0 0 65279 0 0 65279 0 0 65279 0 0 65279 0 0 65279 0 0 65279 0 0 65279 0 0 65279 0 0 65279 0 0 65279 0 0 65279 0 0 65279 0 0 65279 0 0 65279 0 0 65279 0 0 65279 0 0 65279 0 0 65279 0 0 65279 0 0 65279 0 0 65279 0 0 65279 0 0 65279 0 0 65279 0 0 65279 0 0 65279 0 0 65279 0 0 65279 0 0 65279 0 0 65279 0 0 65279 0 0 65279 0 0 65279 0 0 65279 0 0 65279 0 0 65279 0 0 65279 0 0 65279 0 0 65279 0 0 65279 0 0 65279 0 0 65279 0 0 65279 0 0 65279 0 0 65279 0 0 65279 0 0 65279 0 0 65279 0 0 65279 0 0 65279 0 0 65279 0 0 65279 0 0 65279 0 0 65279 0 0 65279 0 0 65279 0 0 65279 0 0 65279 0 0 65279 0 0 65279 0 0 65279 0 0 65279 0 0 65279 0 0 65279 0 0 65279 0 0 65279 0 0 65279 0 0 65279 0 0 65279 0 0 65279 0 0 65279 0 0 65279 0 0 65279 0 0 65279 0 0 65279 0 0 65279 0 0 65279 0 0 65279 0 0 65279 0 0 65279 0 0 65279 0 0 65279 0 0 65279 0 0 65279 0 0 65279 0 0 65279 0 0 65279 0 0 65279 0 0 65279 0 0 65279 0 0 65279 0 0 65279 0 0 65279 0 0 65279 0 0 65279 0 0 65279 0 0 65279 0 0 65279 0 0 65279 0 0 65279 0 0 65279 0 0 65279 0 0 65279 0 0 65279 0 0 65279 0 0 65279 0 0 65279 0 0 65279 0 0 65279 0 0 65279 0 0 65279 0 0 65279 0 0 65279 0 0 65279 0 0 65279 0 0 65279 0 0 65279 0 0 65279 0 0 65279 0 0 65279 0 0 65279 0 0 65279 0 0 65279 0 0 65279 0 0 65279 0 0 65279 0 0 65279 0 0 65279 0 0 65279 0 0 65279 0 0 65279 0 0 65279 0 0 65279 0 0 65279 0 0 65279 0 0 65279 0 0 65279 0 0 65279 0 0 65279 0 0 65279 0 0 65279 0 0 65279 0 0 65279 0 0 65279 0 0 65279 0 0 65279 0 0 65279 0 0 65279 0 0 65279 0 0 65279 0 0 65279 0 0 65279 0 0 65279 0 0 65279 0 0 65279 0 0 65279 0 0 65279 0 0 65279 0 0 65279 0 0 65279 0 0 65279 0 0 65279 0 0 65279 0 0 65279 0 0 65279 0 0 65279 0 0 65279 0 0 65279 0 0 65279 0 0 65279 0 0 65279 0 0 65279 0 0 65279 0 0 65279 0 0 65279 0 0 65279 0 0 65279 0 0 65279 0 0 65279 0 0 65279 0 0 65279 0 0 65279 0 0 65279 0 0 65279 0 0 65279 0 0 65279 0 0 65279 0 0 65279 0 0 65279 0 0 65279 0 0 65279 0 0 65279 0 0 65279 0 0 65279 0 0 65279 0 0 65279 0 0 65279 0 0 65279 0 0 65279 0 0 65279 0 0 65279 0 0 65279 0 0 65279 0 0 65279 0 0 65279 0 0 65279 0 0 65279 0 0 65279 0 0 65279 0 0 65279 0 0 65279 0 0 65279 0 0 65279 0 0 65279 0 0 65279 0 0 65279 0 0 65279 0 0 65279 0 0 65279 0 0 65279 0 0 65279 0 0 65279 0 0 65279 0 0 65279 0 0 65279 0 0 65279 0 0 65279 0 0 65279 0 0 65279 0 0 65279 0 0 65279 0 0 65279 0 0 65279 0 0 65279 0 0 65279 0 0 65279 0 0 65279 0 0 65279 0 0 65279 0 0 65279 0 0 65279 0 0 65279 0 0 65279 0 0 65279 0 0 65279 0 0 65279 0 0 65279 0 0 65279 0 0 65279 0 0 65279 0 0 65279 0 0 65279 0 0 65279 0 0 65279 0 0 65279 0 0 65279 0 0 65279 0 0 65279 0 0 65279 0 0 65279 0 0 65279 0 0 65279 0 0 65279 0 0 65279 0 0 65279 0 0 65279 0 0 65279 0 0 65279 0 0 65279 0 0 65279 0 0 65279 0 0 65279 0 0 65279 0 0 65279 0 0 65279 0 0 65279 0 0 65279 0 0 65279 0 0 65279 0 0 65279 0 0 65279 0 0 65279 0 0 65279 0 0 65279 0 0 65279 0 0 65279 0 0 65279 0 0 65279 0 0 65279 0 0 65279 0 0 65279 0 0 65279 0 0 65279 0 0 65279 0 0 65279 0 0 65279 0 0 65279 0 0 65279 0 0 65279 0 0 65279 0 0 65279 0 0 65279 0 0 65279 0 0 65279 0 0 65279 0 0 65279 0 0 65279 0 0 65279 0 0 65279 0 0 65279 0 0 65279 0 0 65279 0 0 65279 0 0 65279 0 0 65279 0 0 65279 0 0 65279 0 0 65279 0 0 65279 0 0 65279 0 0 65279 0 0 65279 0 0 65279 0 0 65279 0 0 65279 0 0 65279 0 0 65279 0 0 65279 0 0 65279 0 0 65279 0 0 65279 0 0 65279 0 0 65279 0 0 65279 0 0 65279 0 0 65279 0 0 65279 0 0 65279 0 0 65279 0 0 65279 0 0 65279 0 0 65279 0 0 65279 0 0 65279 0 0 65279 0 0 65279 0 0 65279 0 0 65279 0 0 65279 0 0 65279 0 0 65279 0 0 65279 0 0 65279 0 0 65279 0 0 65279 0 0 65279 0 0 65279 0 0 65279 0 0 65279 0 0 65279 0 0 65279 0 0 65279 0 0 65279 0 0 65279 0 0 65279 0 0 65279 0 0 65279 0 0 65279 0 0 65279 0 0 65279 0 0 65279 0 0 65279 0 0 65279 0 0 65279 0 0 65279 0 0 65279 0 0 65279 0 0 65279 0 0 65279 0 0 65279 0 0 65279 0 0 65279 0 0 65279 0 0 65279 0 0 65279 0 0 65279 0 0 65279 0 0 65279 0 0 65279 0 0 65279 0 0 65279 0 0 65279 0 0 65279 0 0 65279 0 0 65279 0 0 65279 0 0 65279 0 0 65279 0 0 65279 0 0 65279 0 0 65279 0 0 65279 0 0 65279 0 0 65279 0 0 65279 0 0 65279 0 0 65279 0 0 65279 0 0 65279 0 0 65279 0 0 65279 0 0 65279 0 0 65279 0 0 65279 0 0 65279 0 0 65279 0 0 65279 0 0 65279 0 0 65279 0 0 65279 0 0 65279 0 0 65279 0 0 65279 0 0 65279 0 0 65279 0 0 65279 0 0 65279 0 0 65279 0 0 65279 0 0 65279 0 0 65279 0 0 65279 0 0 65279 0 0 65279 0 0 65279 0 0 65279 0 0 65279 0 0 65279 0 0 65279 0 0 65279 0 0 65279 0 0 65279 0 0 65279 0 0 65279 0 0 65279 0 0 65279 0 0 65279 0 0 65279 0 0 65279 0 0 65279 0 0 65279 0 0 65279 0 0 65279 0 0 65279 0 0 65279 0 0 65279 0 0 65279 0 0 65279 0 0 65279 0 0 65279 0 0 65279 0 0 65279 0 0 65279 0 0 65279 0 0 65279 0 0 65279 0 0 65279 0 0 65279 0 0 65279 0 0 65279 0 0 65279 0 0 65279 0 0 65279 0 0 65279 0 0 65279 0 0 65279 0 0 65279 0 0 65279 0 0 65279 0 0 65279 0 0 65279 0 0 65279 0 0 65279 0 0 65279 0 0 65279 0 0 65279 0 0 65279 0 0 65279 0 0 65279 0 0 65279 0 0 65279 0 0 65279 0 0 65279 0 0 65279 0 0 65279 0 0 65279 0 0 65279 0 0 65279 0 0 65279 0 0 65279 0 0 65279 0 0 65279 0 0 65279 0 0 65279 0 0 65279 0 0 65279 0 0 65279 0 0 65279 0 0 65279 0 0 65279 0 0 65279 0 0 65279 0 0 65279 0 0 65279 0 0 65279 0 0 65279 0 0 65279 0 0 65279 0 0 65279 0 0 65279 0 0 65279 0 0 65279 0 0 65279 0 0 65279 0 0 65279 0 0 65279 0 0 65279 0 0 65279 0 0 65279 0 0 65279 0 0 65279 0 0 65279 0 0 65279 0 0 65279 0 0 65279 0 0 65279 0 0 65279 0 0 65279 0 0 65279 0 0 65279 0 0 65279 0 0 65279 0 0 65279 0 0 65279 0 0 65279 0 0 65279 0 0 65279 0 0 65279 0 0 65279 0 0 65279 0 0 65279 0 0 65279 0 0 65279 0 0 65279 0 0 65279 0 0 65279 0 0 65279 0 0 65279 0 0 65279 0 0 65279 0 0 65279 0 0 65279 0 0 65279 0 0 65279 0 0 65279 0 0 65279 0 0 65279 0 0 65279 0 0 65279 0 0 65279 0 0 65279 0 0 65279 0 0 65279 0 0 65279 0 0 65279 0 0 65279 0 0 65279 0 0 65279 0 0 65279 0 0 65279 0 0 65279 0 0 65279 0 0 65279 0 0 65279 0 0 65279 0 0 65279 0 0 65279 0 0 65279 0 0 65279 0 0 65279 0 0 65279 0 0 65279 0 0 65279 0 0 65279 0 0 65279 0 0 65279 0 0 65279 0 0 65279 0 0 65279 0 0 65279 0 0 65279 0 0 65279 0 0 65279 0 0 65279 0 0 65279 0 0 65279 0 0 65279 0 0 65279 0 0 65279 0 0 65279 0 0 65279 0 0 65279 0 0 65279 0 0 65279 0 0 65279 0 0 65279 0 0 65279 0 0 65279 0 0 65279 0 0 65279 0 0 65279 0 0 65279 0 0 65279 0 0 65279 0 0 65279 0 0 65279 0 0 65279 0 0 65279 0 0 65279 0 0 65279 0 0 65279 0 0 65279 0 0 65279 0 0 65279 0 0 65279 0 0 65279 0 0 65279 0 0 65279 0 0 65279 0 0 65279 0 0 65279 0 0 65279 0 0 65279 0 0 65279 0 0 65279 0 0 65279 0 0 65279 0 0 65279 0 0 65279 0 0 65279 0 0 65279 0 0 65279 0 0 65279 0 0 65279 0 0 65279 0 0 65279 0 0 65279 0 0 65279 0 0 65279 0 0 65279 0 0 65279 0 0 65279 0 0 65279 0 0 65279 0 0 65279 0 0 65279 0 0 65279 0 0 65279 0 0 65279 0 0 65279 0 0 65279 0 0 65279 0 0 65279 0 0 65279 0 0 65279 0 0 65279 0 0 65279 0 0 65279 0 0 65279 0 0 65279 0 0 65279 0 0 65279 0 0 65279 0 0 65279 0 0 65279 0 0 65279 0 0 65279 0 0 65279 0 0 65279 0 0 65279 0 0 65279 0 0 65279 0 0 65279 0 0 65279 0 0 65279 0 0 65279 0 0 65279 0 0 65279 0 0 65279 0 0 65279 0 0 65279 0 0 65279 0 0 65279 0 0 65279 0 0 65279 0 0 65279 0 0 65279 0 0 65279 0 0 65279 0 0 65279 0 0 65279 0 0 65279 0 0 65279 0 0 65279 0 0 65279 0 0 65279 0 0 65279 0 0 65279 0 0 65279 0 0 65279 0 0 65279 0 0 65279 0 0 65279 0 0 65279 0 0 65279 0 0 65279 0 0 65279 0 0 65279 0 0 65279 0 0 65279 0 0 65279 0 0 65279 0 0 65279 0 0 65279 0 0 65279 0 0 65279 0 0 65279 0 0 65279 0 0 65279 0 0 65279 0 0 65279 0 0 65279 0 0 65279 0 0 65279 0 0 65279 0 0 65279 0 0 65279 0 0 65279 0 0 65279 0 0 65279 0 0 65279 0 0 65279 0 0 65279 0 0 65279 0 0 65279 0 0 65279 0 0 65279 0 0 65279 0 0 65279 0 0 65279 0 0 65279 0 0 65279 0 0 65279 0 0 65279 0 0 65279 0 0 65279 0 0 65279 0 0 65279 0 0 65279 0 0 65279 0 0 65279 0 0 65279 0 0 65279 0 0 65279 0 0 65279 0 0 65279 0 0 65279 0 0 65279 0 0 65279 0 0 65279 0 0 65279 0 0 65279 0 0 65279 0 0 65279 0 0 65279 0 0 65279 0 0 65279 0 0 65279 0 0 65279 0 0 65279 0 0 65279 0 0 65279 0 0 65279 0 0 65279 0 0 65279 0 0 65279 0 0 65279 0 0 65279 0 0 65279 0 0 65279 0 0 65279 0 0 65279 0 0 65279 0 0 65279 0 0 65279 0 0 65279 0 0 65279 0 0 65279 0 0 65279 0 0 65279 0 0 65279 0 0 65279 0 0 65279 0 0 65279 0 0 65279 0 0 65279 0 0 65279 0 0 65279 0 0 65279 0 0 65279 0 0 65279 0 0 65279 0 0 65279 0 0 65279 0 0 65279 0 0 65279 0 0 65279 0 0 65279 0 0 65279 0 0 65279 0 0 65279 0 0 65279 0 0 65279 0 0 65279 0 0 65279 0 0 65279 0 0 65279 0 0 65279 0 0 65279 0 0 65279 0 0 65279 0 0 65279 0 0 65279 0 0 65279 0 0 65279 0 0 65279 0 0 65279 0 0 65279 0 0 65279 0 0 65279 0 0 65279 0 0 65279 0 0 65279 0 0 65279 0 0 65279 0 0 65279 0 0 65279 0 0 65279 0 0 65279 0 0 65279 0 0 65279 0 0 65279 0 0 65279 0 0 65279 0 0 65279 0 0 65279 0 0 65279 0 0 65279 0 0 65279 0 0 65279 0 0 65279 0 0 65279 0 0 65279 0 0 65279 0 0 65279 0 0 65279 0 0 65279 0 0 65279 0 0 65279 0 0 65279 0 0 65279 0 0 65279 0 0 65279 0 0 65279 0 0 65279 0 0 65279 0 0 65279 0 0 65279 0 0 65279 0 0 65279 0 0 65279 0 0 65279 0 0 65279 0 0 65279 0 0 65279 0 0 65279 0 0 65279 0 0 65279 0 0 65279 0 0 65279 0 0 65279 0 0 65279 0 0 65279 0 0 65279 0 0 65279 0 0 65279 0 0 65279 0 0 65279 0 0 65279 0 0 65279 0 0 65279 0 0 65279 0 0 65279 0 0 65279 0 0 65279 0 0 65279 0 0 65279 0 0 65279 0 0 65279 0 0 65279 0 0 65279 0 0 65279 0 0 65279 0 0 65279 0 0 65279 0 0 65279 0 0 65279 0 0 65279 0 0 65279 0 0 65279 0 0 65279 0 0 65279 0 0 65279 0 0 65279 0 0 65279 0 0 65279 0 0 65279 0 0 65279 0 0 65279 0 0 65279 0 0 65279 0 0 65279 0 0 65279 0 0 65279 0 0 65279 0 0 65279 0 0 65279 0 0 65279 0 0 65279 0 0 65279 0 0 65279 0 0 65279 0 0 65279 0 0 65279 0 0 65279 0 0 65279 0 0 65279 0 0 65279 0 0 65279 0 0 65279 0 0 65279 0 0 65279 0 0 65279 0 0 65279 0 0 65279 0 0 65279 0 0 65279 0 0 65279 0 0 65279 0 0 65279 0 0 65279 0 0 65279 0 0 65279 0 0 65279 0 0 65279 0 0 65279 0 0 65279 0 0 65279 0 0 65279 0 0 65279 0 0 65279 0 0 65279 0 0 65279 0 0 65279 0 0 65279 0 0 65279 0 0 65279 0 0 65279 0 0 65279 0 0 65279 0 0 65279 0 0 65279 0 0 65279 0 0 65279 0 0 65279 0 0 65279 0 0 65279 0 0 65279 0 0 65279 0 0 65279 0 0 65279 0 0 65279 0 0 65279 0 0 65279 0 0 65279 0 0 65279 0 0 65279 0 0 65279 0 0 65279 0 0 65279 0 0 65279 0 0 65279 0 0 65279 0 0 65279 0 0 65279 0 0 65279 0 0 65279 0 0 65279 0 0 65279 0 0 65279 0 0 65279 0 0 65279 0 0 65279 0 0 65279 0 0 65279 0 0 65279 0 0 65279 0 0 65279 0 0 65279 0 0 65279 0 0 65279 0 0 65279 0 0 65279 0 0 65279 0 0 65279 0 0 65279 0 0 65279 0 0 65279 0 0 65279 0 0 65279 0 0 65279 0 0 65279 0 0 65279 0 0 65279 0 0 65279 0 0 65279 0 0 65279 0 0 65279 0 0 65279 0 0 65279 0 0 65279 0 0 65279 0 0 65279 0 0 65279 0 0 65279 0 0 65279 0 0 65279 0 0 65279 0 0 65279 0 0 65279 0 0 65279 0 0 65279 0 0 65279 0 0 65279 0 0 65279 0 0 65279 0 0 65279 0 0 65279 0 0 65279 0 0 65279 0 0 65279 0 0 65279 0 0 65279 0 0 65279 0 0 65279 0 0 65279 0 0 65279 0 0 65279 0 0 65279 0 0 65279 0 0 65279 0 0 65279 0 0 65279 0 0 65279 0 0 65279 0 0 65279 0 0 65279 0 0 65279 0 0 65279 0 0 65279 0 0 65279 0 0 65279 0 0 65279 0 0 65279 0 0 65279 0 0 65279 0 0 65279 0 0 65279 0 0 65279 0 0 65279 0 0 65279 0 0 65279 0 0 65279 0 0 65279 0 0 65279 0 0 65279 0 0 65279 0 0 65279 0 0 65279 0 0 65279 0 0 65279 0 0 65279 0 0 65279 0 0 65279 0 0 65279 0 0 65279 0 0 65279 0 0 65279 0 0 65279 0 0 65279 0 0 65279 0 0 65279 0 0 65279 0 0 65279 0 0 65279 0 0 65279 0 0 65279 0 0 65279 0 0 65279 0 0 65279 0 0 65279 0 0 65279 0 0 65279 0 0 65279 0 0 65279 0 0 65279 0 0 65279 0 0 65279 0 0 65279 0 0 65279 0 0 65279 0 0 65279 0 0 65279 0 0 65279 0 0 65279 0 0 65279 0 0 65279 0 0 65279 0 0 65279 0 0 65279 0 0 65279 0 0 65279 0 0 65279 0 0 65279 0 0 65279 0 0 65279 0 0 65279 0 0 65279 0 0 65279 0 0 65279 0 0 65279 0 0 65279 0 0 65279 0 0 65279 0 0 65279 0 0 65279 0 0 65279 0 0 65279 0 0 65279 0 0 65279 0 0 65279 0 0 65279 0 0 65279 0 0 65279 0 0 65279 0 0 65279 0 0 65279 0 0 65279 0 0 65279 0 0 65279 0 0 65279 0 0 65279 0 0 65279 0 0 65279 0 0 65279 0 0 65279 0 0 65279 0 0 65279 0 0 65279 0 0 65279 0 0 65279 0 0 65279 0 0 65279 0 0 65279 0 0 65279 0 0 65279 0 0 65279 0 0 65279 0 0 65279 0 0 65279 0 0 65279 0 0 65279 0 0 65279 0 0 65279 0 0 65279 0 0 65279 0 0 65279 0 0 65279 0 0 65279 0 0 65279 0 0 65279 0 0 65279 0 0 65279 0 0 65279 0 0 65279 0 0 65279 0 0 65279 0 0 65279 0 0 65279 0 0 65279 0 0 65279 0 0 65279 0 0 65279 0 0 65279 0 0 65279 0 0 65279 0 0 65279 0 0 65279 0 0 65279 0 0 65279 0 0 65279 0 0 65279 0 0 65279 0 0 65279 0 0 65279 0 0 65279 0 0 65279 0 0 65279 0 0 65279 0 0 65279 0 0 65279 0 0 65279 0 0 65279 0 0 65279 0 0 65279 0 0 65279 0 0 65279 0 0 65279 0 0 65279 0 0 65279 0 0 65279 0 0 65279 0 0 65279 0 0 65279 0 0 65279 0 0 65279 0 0 65279 0 0 65279 0 0 65279 0 0 65279 0 0 65279 0 0 65279 0 0 65279 0 0 65279 0 0 65279 0 0 65279 0 0 65279 0 0 65279 0 0 65279 0 0 65279 0 0 65279 0 0 65279 0 0 65279 0 0 65279 0 0 65279 0 0 65279 0 0 65279 0 0 65279 0 0 65279 0 0 65279 0 0 65279 0 0 65279 0 0 65279 0 0 65279 0 0 65279 0 0 65279 0 0 65279 0 0 65279 0 0 65279 0 0 65279 0 0 65279 0 0 65279 0 0 65279 0 0 65279 0 0 65279 0 0 65279 0 0 65279 0 0 65279 0 0 65279 0 0 65279 0 0 65279 0 0 65279 0 0 65279 0 0 65279 0 0 65279 0 0 65279 0 0 65279 0 0 65279 0 0 65279 0 0 65279 0 0 65279 0 0 65279 0 0 65279 0 0 65279 0 0 65279 0 0 65279 0 0 65279 0 0 65279 0 0 65279 0 0 65279 0 0 65279 0 0 65279 0 0 65279 0 0 65279 0 0 65279 0 0 65279 0 0 65279 0 0 65279 0 0 65279 0 0 65279 0 0 65279 0 0 65279 0 0 65279 0 0 65279 0 0 65279 0 0 65279 0 0 65279 0 0 65279 0 0 65279 0 0 65279 0 0 65279 0 0 65279 0 0 65279 0 0 65279 0 0 65279 0 0 65279 0 0 65279 0 0 65279 0 0 65279 0 0 65279 0 0 65279 0 0 65279 0 0 65279 0 0 65279 0 0 65279 0 0 65279 0 0 65279 0 0 65279 0 0 65279 0 0 65279 0 0 65279 0 0 65279 0 0 65279 0 0 65279 0 0 65279 0 0 65279 0 0 65279 0 0 65279 0 0 65279 0 0 65279 0 0 65279 0 0 65279 0 0 65279 0 0 65279 0 0 65279 0 0 65279 0 0 65279 0 0 65279 0 0 65279 0 0 65279 0 0 65279 0 0 65279 0 0 65279 0 0 65279 0 0 65279 0 0 65279 0 0 65279 0 0 65279 0 0 65279 0 0 65279 0 0 65279 0 0 65279 0 0 65279 0 0 65279 0 0 65279 0 0 65279 0 0 65279 0 0 65279 0 0 65279 0 0 65279 0 0 65279 0 0 65279 0 0 65279 0 0 65279 0 0 65279 0 0 65279 0 0 65279 0 0 65279 0 0 65279 0 0 65279 0 0 65279 0 0 65279 0 0 65279 0 0 65279 0 0 65279 0 0 65279 0 0 65279 0 0 65279 0 0 65279 0 0 65279 0 0 65279 0 0 65279 0 0 65279 0 0 65279 0 0 65279 0 0 65279 0 0 65279 0 0 65279 0 0 65279 0 0 65279 0 0 65279 0 0 65279 0 0 65279 0 0 65279 0 0 65279 0 0 65279 0 0 65279 0 0 65279 0 0 65279 0 0 65279 0 0 65279 0 0 65279 0 0 65279 0 0 65279 0 0 65279 0 0 65279 0 0 65279 0 0 65279 0 0 65279 0 0 65279 0 0 65279 0 0 65279 0 0 65279 0 0 65279 0 0 65279 0 0 65279 0 0 65279 0 0 65279 0 0 65279 0 0 65279 0 0 65279 0 0 65279 0 0 65279 0 0 65279 0 0 65279 0 0 65279 0 0 65279 0 0 65279 0 0 65279 0 0 65279 0 0 65279 0 0 65279 0 0 65279 0 0 65279 0 0 65279 0 0 65279 0 0 65279 0 0 65279 0 0 65279 0 0 65279 0 0 65279 0 0 65279 0 0 65279 0 0 65279 0 0 65279 0 0 65279 0 0 65279 0 0 65279 0 0 65279 0 0 65279 0 0 65279 0 0 65279 0 0 65279 0 0 65279 0 0 65279 0 0 65279 0 0 65279 0 0 65279 0 0 65279 0 0 65279 0 0 65279 0 0 65279 0 0 65279 0 0 65279 0 0 65279 0 0 65279 0 0 65279 0 0 65279 0 0 65279 0 0 65279 0 0 65279 0 0 65279 0 0 65279 0 0 65279 0 0 65279 0 0 65279 0 0 65279 0 0 65279 0 0 65279 0 0 65279 0 0 65279 0 0 65279 0 0 65279 0 0 65279 0 0 65279 0 0 65279 0 0 65279 0 0 65279 0 0 65279 0 0 65279 0 0 65279 0 0 65279 0 0 65279 0 0 65279 0 0 65279 0 0 65279 0 0 65279 0 0 65279 0 0 65279 0 0 65279 0 0 65279 0 0 65279 0 0 65279 0 0 65279 0 0 65279 0 0 65279 0 0 65279 0 0 65279 0 0 65279 0 0 65279 0 0 65279 0 0 65279 0 0 65279 0 0 65279 0 0 65279 0 0 65279 0 0 65279 0 0 65279 0 0 65279 0 0 65279 0 0 65279 0 0 65279 0 0 65279 0 0 65279 0 0 65279 0 0 65279 0 0 65279 0 0 65279 0 0 65279 0 0 65279 0 0 65279 0 0 65279 0 0 65279 0 0 65279 0 0 65279 0 0 65279 0 0 65279 0 0 65279 0 0 65279 0 0 65279 0 0 65279 0 0 65279 0 0 65279 0 0 65279 0 0 65279 0 0 65279 0 0 65279 0 0 65279 0 0 65279 0 0 65279 0 0 65279 0 0 65279 0 0 65279 0 0 65279 0 0 65279 0 0 65279 0 0 65279 0 0 65279 0 0 65279 0 0 65279 0 0 65279 0 0 65279 0 0 65279 0 0 65279 0 0 65279 0 0 65279 0 0 65279 0 0 65279 0 0 65279 0 0 65279 0 0 65279 0 0 65279 0 0 65279 0 0 65279 0 0 65279 0 0 65279 0 0 65279 0 0 65279 0 0 65279 0 0 65279 0 0 65279 0 0 65279 0 0 65279 0 0 65279 0 0 65279 0 0 65279 0 0 65279 0 0 65279 0 0 65279 0 0 65279 0 0 65279 0 0 65279 0 0 65279 0 0 65279 0 0 65279 0 0 65279 0 0 65279 0 0 65279 0 0 65279 0 0 65279 0 0 65279 0 0 65279 0 0 65279 0 0 65279 0 0 65279 0 0 65279 0 0 65279 0 0 65279 0 0 65279 0 0 65279 0 0 65279 0 0 65279 0 0 65279 0 0 65279 0 0 65279 0 0 65279 0 0 65279 0 0 65279 0 0 65279 0 0 65279 0 0 65279 0 0 65279 0 0 65279 0 0 65279 0 0 65279 0 0 65279 0 0 65279 0 0 65279 0 0 65279 0 0 65279 0 0 65279 0 0 65279 0 0 65279 0 0 65279 0 0 65279 0 0 65279 0 0 65279 0 0 65279 0 0 65279 0 0 65279 0 0 65279 0 0 65279 0 0 65279 0 0 65279 0 0 65279 0 0 65279 0 0 65279 0 0 65279 0 0 65279 0 0 65279 0 0 65279 0 0 65279 0 0 65279 0 0 65279 0 0 65279 0 0 65279 0 0 65279 0 0 65279 0 0 65279 0 0 65279 0 0 65279 0 0 65279 0 0 65279 0 0 65279 0 0 65279 0 0 65279 0 0 65279 0 0 65279 0 0 65279 0 0 65279 0 0 65279 0 0 65279 0 0 65279 0 0 65279 0 0 65279 0 0 65279 0 0 65279 0 0 65279 0 0 65279 0 0 65279 0 0 65279 0 0 65279 0 0 65279 0 0 65279 0 0 65279 0 0 65279 0 0 65279 0 0 65279 0 0 65279 0 0 65279 0 0 65279 0 0 65279 0 0 65279 0 0 65279 0 0 65279 0 0 65279 0 0 65279 0 0 65279 0 0 65279 0 0 65279 0 0 65279 0 0 65279 0 0 65279 0 0 65279 0 0 65279 0 0 65279 0 0 65279 0 0 65279 0 0 65279 0 0 65279 0 0 65279 0 0 65279 0 0 65279 0 0 65279 0 0 65279 0 0 65279 0 0 65279 0 0 65279 0 0 65279 0 0 65279 0 0 65279 0 0 65279 0 0 65279 0 0 65279 0 0 65279 0 0 65279 0 0 65279 0 0 65279 0 0 65279 0 0 65279 0 0 65279 0 0 65279 0 0 65279 0 0 65279 0 0 65279 0 0 65279 0 0 65279 0 0 65279 0 0 65279 0 0 65279 0 0 65279 0 0 65279 0 0 65279 0 0 65279 0 0 65279 0 0 65279 0 0 65279 0 0 65279 0 0 65279 0 0 65279 0 0 65279 0 0 65279 0 0 65279 0 0 65279 0 0 65279 0 0 65279 0 0 65279 0 0 65279 0 0 65279 0 0 65279 0 0 65279 0 0 65279 0 0 65279 0 0 65279 0 0 65279 0 0 65279 0 0 65279 0 0 65279 0 0 65279 0 0 65279 0 0 65279 0 0 65279 0 0 65279 0 0 65279 0 0 65279 0 0 65279 0 0 65279 0 0 65279 0 0 65279 0 0 65279 0 0 65279 0 0 65279 0 0 65279 0 0 65279 0 0 65279 0 0 65279 0 0 65279 0 0 65279 0 0 65279 0 0 65279 0 0 65279 0 0 65279 0 0 65279 0 0 65279 0 0 65279 0 0 65279 0 0 65279 0 0 65279 0 0 65279 0 0 65279 0 0 65279 0 0 65279 0 0 65279 0 0 65279 0 0 65279 0 0 65279 0 0 65279 0 0 65279 0 0 65279 0 0 65279 0 0 65279 0 0 65279 0 0 65279 0 0 65279 0 0 65279 0 0 65279 0 0 65279 0 0 65279 0 0 65279 0 0 65279 0 0 65279 0 0 65279 0 0 65279 0 0 65279 0 0 65279 0 0 65279 0 0 65279 0 0 65279 0 0 65279 0 0 65279 0 0 65279 0 0 65279 0 0 65279 0 0 65279 0 0 65279 0 0 65279 0 0 65279 0 0 65279 0 0 65279 0 0 65279 0 0 65279 0 0 65279 0 0 65279 0 0 65279 0 0 65279 0 0 65279 0 0 65279 0 0 65279 0 0 65279 0 0 65279 0 0 65279 0 0 65279 0 0 65279 0 0 65279 0 0 65279 0 0 65279 0 0 65279 0 0 65279 0 0 65279 0 0 65279 0 0 65279 0 0 65279 0 0 65279 0 0 65279 0 0 65279 0 0 65279 0 0 65279 0 0 65279 0 0 65279 0 0 65279 0 0 65279 0 0 65279 0 0 65279 0 0 65279 0 0 65279 0 0 65279 0 0 65279 0 0 65279 0 0 65279 0 0 65279 0 0 65279 0 0 65279 0 0 65279 0 0 65279 0 0 65279 0 0 65279 0 0 65279 0 0 65279 0 0 65279 0 0 65279 0 0 65279 0 0 65279 0 0 65279 0 0 65279 0 0 65279 0 0 65279 0 0 65279 0 0 65279 0 0 65279 0 0 65279 0 0 65279 0 0 65279 0 0 65279 0 0 65279 0 0 65279 0 0 65279 0 0 65279 0 0 65279 0 0 65279 0 0 65279 0 0 65279 0 0 65279 0 0 65279 0 0 65279 0 0 65279 0 0 65279 0 0 65279 0 0 65279 0 0 65279 0 0 65279 0 0 65279 0 0 65279 0 0 65279 0 0 65279 0 0 65279 0 0 65279 0 0 65279 0 0 65279 0 0 65279 0 0 65279 0 0 65279 0 0 65279 0 0 65279 0 0 65279 0 0 65279 0 0 65279 0 0 65279 0 0 65279 0 0 65279 0 0 65279 0 0 65279 0 0 65279 0 0 65279 0 0 65279 0 0 65279 0 0 65279 0 0 65279 0 0 65279 0 0 65279 0 0 65279 0 0 65279 0 0 65279 0 0 65279 0 0 65279 0 0 65279 0 0 65279 0 0 65279 0 0 65279 0 0 65279 0 0 65279 0 0 65279 0 0 65279 0 0 65279 0 0 65279 0 0 65279 0 0 65279 0 0 65279 0 0 65279 0 0 65279 0 0 65279 0 0 65279 0 0 65279 0 0 65279 0 0 65279 0 0 65279 0 0 65279 0 0 65279 0 0 65279 0 0 65279 0 0 65279 0 0 65279 0 0 65279 0 0 65279 0 0 65279 0 0 65279 0 0 65279 0 0 65279 0 0 65279 0 0 65279 0 0 65279 0 0 65279 0 0 65279 0 0 65279 0 0 65279 0 0 65279 0 0 65279 0 0 65279 0 0 65279 0 0 65279 0 0 65279 0 0 65279 0 0 65279 0 0 65279 0 0 65279 0 0 65279 0 0 65279 0 0 65279 0 0 65279 0 0 65279 0 0 65279 0 0 65279 0 0 65279 0 0 65279 0 0 65279 0 0 65279 0 0 65279 0 0 65279 0 0 65279 0 0 65279 0 0 65279 0 0 65279 0 0 65279 0 0 65279 0 0 65279 0 0 65279 0 0 65279 0 0 65279 0 0 65279 0 0 65279 0 0 65279 0 0 65279 0 0 65279 0 0 65279 0 0 65279 0 0 65279 0 0 65279 0 0 65279 0 0 65279 0 0 65279 0 0 65279 0 0 65279 0 0 65279 0 0 65279 0 0 65279 0 0 65279 0 0 65279 0 0 65279 0 0 65279 0 0 65279 0 0 65279 0 0 65279 0 0 65279 0 0 65279 0 0 65279 0 0 65279 0 0 65279 0 0 65279 0 0 65279 0 0 65279 0 0 65279 0 0 65279 0 0 65279 0 0 65279 0 0 65279 0 0 65279 0 0 65279 0 0 65279 0 0 65279 0 0 65279 0 0 65279 0 0 65279 0 0 65279 0 0 65279 0 0 65279 0 0 65279 0 0 65279 0 0 65279 0 0 65279 0 0 65279 0 0 65279 0 0 65279 0 0 65279 0 0 65279 0 0 65279 0 0 65279 0 0 65279 0 0 65279 0 0 65279 0 0 65279 0 0 65279 0 0 65279 0 0 65279 0 0 65279 0 0 65279 0 0 65279 0 0 65279 0 0 65279 0 0 65279 0 0 65279 0 0 65279 0 0 65279 0 0 65279 0 0 65279 0 0 65279 0 0 65279 0 0 65279 0 0 65279 0 0 65279 0 0 65279 0 0 65279 0 0 65279 0 0 65279 0 0 65279 0 0 65279 0 0 65279 0 0 65279 0 0 65279 0 0 65279 0 0 65279 0 0 65279 0 0 65279 0 0 65279 0 0 65279 0 0 65279 0 0 65279 0 0 65279 0 0 65279 0 0 65279 0 0 65279 0 0 65279 0 0 65279 0 0 65279 0 0 65279 0 0 65279 0 0 65279 0 0 65279 0 0 65279 0 0 65279 0 0 65279 0 0 65279 0 0 65279 0 0 65279 0 0 65279 0 0 65279 0 0 65279 0 0 65279 0 0 65279 0 0 65279 0 0 65279 0 0 65279 0 0 65279 0 0 65279 0 0 65279 0 0 65279 0 0 65279 0 0 65279 0 0 65279 0 0 65279 0 0 65279 0 0 65279 0 0 65279 0 0 65279 0 0 65279 0 0 65279 0 0 65279 0 0 65279 0 0 65279 0 0 65279 0 0 65279 0 0 65279 0 0 65279 0 0 65279 0 0 65279 0 0 65279 0 0 65279 0 0 65279 0 0 65279 0 0 65279 0 0 65279 0 0 65279 0 0 65279 0 0 65279 0 0 65279 0 0 65279 0 0 65279 0 0 65279 0 0 65279 0 0 65279 0 0 65279 0 0 65279 0 0 65279 0 0 65279 0 0 65279 0 0 65279 0 0 65279 0 0 65279 0 0 65279 0 0 65279 0 0 65279 0 0 65279 0 0 65279 0 0 65279 0 0 65279 0 0 65279 0 0 65279 0 0 65279 0 0 65279 0 0 65279 0 0 65279 0 0 65279 0 0 65279 0 0 65279 0 0 65279 0 0 65279 0 0 65279 0 0 65279 0 0 65279 0 0 65279 0 0 65279 0 0 65279 0 0 65279 0 0 65279 0 0 65279 0 0 65279 0 0 65279 0 0 65279 0 0 65279 0 0 65279 0 0 65279 0 0 65279 0 0 65279 0 0 65279 0 0 65279 0 0 65279 0 0 65279 0 0 65279 0 0 65279 0 0 65279 0 0 65279 0 0 65279 0 0 65279 0 0 65279 0 0 65279 0 0 65279 0 0 65279 0 0 65279 0 0 65279 0 0 65279 0 0 65279 0 0 65279 0 0 65279 0 0 65279 0 0 65279 0 0 65279 0 0 65279 0 0 65279 0 0 65279 0 0 65279 0 0 65279 0 0 65279 0 0 65279 0 0 65279 0 0 65279 0 0 65279 0 0 65279 0 0 65279 0 0 65279 0 0 65279 0 0 65279 0 0 65279 0 0 65279 0 0 65279 0 0 65279 0 0 65279 0 0 65279 0 0 65279 0 0 65279 0 0 65279 0 0 65279 0 0 65279 0 0 65279 0 0 65279 0 0 65279 0 0 65279 0 0 65279 0 0 65279 0 0 65279 0 0 65279 0 0 65279 0 0 65279 0 0 65279 0 0 65279 0 0 65279 0 0 65279 0 0 65279 0 0 65279 0 0 65279 0 0 65279 0 0 65279 0 0 65279 0 0 65279 0 0 65279 0 0 65279 0 0 65279 0 0 65279 0 0 65279 0 0 65279 0 0 65279 0 0 65279 0 0 65279 0 0 65279 0 0 65279 0 0 65279 0 0 65279 0 0 65279 0 0 65279 0 0 65279 0 0 65279 0 0 65279 0 0 65279 0 0 65279 0 0 65279 0 0 65279 0 0 65279 0 0 65279 0 0 65279 0 0 65279 0 0 65279 0 0 65279 0 0 65279 0 0 65279 0 0 65279 0 0 65279 0 0 65279 0 0 65279 0 0 65279 0 0 65279 0 0 65279 0 0 65279 0 0 65279 0 0 65279 0 0 65279 0 0 65279 0 0 65279 0 0 65279 0 0 65279 0 0 65279 0 0 65279 0 0 65279 0 0 65279 0 0 65279 0 0 65279 0 0 65279 0 0 65279 0 0 65279 0 0 65279 0 0 65279 0 0 65279 0 0 65279 0 0 65279 0 0 65279 0 0 65279 0 0 65279 0 0 65279 0 0 65279 0 0 65279 0 0 65279 0 0 65279 0 0 65279 0 0 65279 0 0 65279 0 0 65279 0 0 65279 0 0 65279 0 0 65279 0 0 65279 0 0 65279 0 0 65279 0 0 65279 0 0 65279 0 0 65279 0 0 65279 0 0 65279 0 0 65279 0 0 65279 0 0 65279 0 0 65279 0 0 65279 0 0 65279 0 0 65279 0 0 65279 0 0 65279 0 0 65279 0 0 65279 0 0 65279 0 0 65279 0 0 65279 0 0 65279 0 0 65279 0 0 65279 